; generated by Slic3r 1.2.9 on 2016-10-23 at 00:15:29

; external perimeters extrusion width = 0.40mm
; perimeters extrusion width = 0.48mm
; infill extrusion width = 0.48mm
; solid infill extrusion width = 0.48mm
; top infill extrusion width = 0.48mm

M107
M190 S60 ; set bed temperature
M104 S200 ; set temperature


M109 S200 ; wait for temperature to be reached
G21 ; set units to millimeters
G90 ; use absolute coordinates
M82 ; use absolute distances for extrusion
G92 E0
G1 E-4.00000 F840.00000
G92 E0
G1 Z0.500 F7800.000
G1 X70.809 Y100.300 F7800.000
G1 Z0.150 F7800.000
G1 E4.50000 F840.00000
G1 X71.434 Y99.888 E4.51250 F1800.000
G1 X72.033 Y99.548 E4.52401
G1 X72.900 Y99.141 E4.54001
G1 X73.601 Y98.878 E4.55250
G1 X74.261 Y98.680 E4.56401
G1 X74.990 Y98.513 E4.57651
G1 X75.938 Y98.376 E4.59250
G1 X76.626 Y98.329 E4.60402
G1 X137.098 Y98.323 E5.61398
G1 X137.855 Y98.357 E5.62665 F1800.000
G1 X138.803 Y98.476 E5.64260
G1 X139.743 Y98.681 E5.65867
G1 X140.653 Y98.967 E5.67460
G1 X141.293 Y99.224 E5.68611
G1 X142.152 Y99.648 E5.70211
G1 X142.969 Y100.147 E5.71811
G1 X143.739 Y100.718 E5.73411
G1 X144.454 Y101.355 E5.75012
G1 X145.102 Y102.045 E5.76593
G1 X145.576 Y102.639 E5.77862
G1 X146.112 Y103.434 E5.79462
G1 X146.574 Y104.273 E5.81062
G1 X146.959 Y105.150 E5.82662
G1 X147.264 Y106.058 E5.84262
G1 X147.487 Y106.990 E5.85862
G1 X147.625 Y107.943 E5.87471
G1 X147.662 Y108.420 E5.88268
G1 X147.678 Y109.000 E5.89238
G1 X147.678 Y131.000 E6.25981
G1 X147.282 Y132.883 E6.29195
G1 X146.162 Y134.448 E6.32408
G1 X144.507 Y135.429 E6.35622
G1 X143.000 Y135.678 E6.38173
G1 X71.000 Y135.678 E7.58423
G1 X69.117 Y135.282 E7.61636
G1 X67.552 Y134.162 E7.64850
G1 X66.571 Y132.507 E7.68064
G1 X66.322 Y131.000 E7.70615
G1 X66.322 Y109.000 E8.07358
G1 X66.338 Y108.426 E8.08317
G1 X66.376 Y107.938 E8.09135
G1 X66.476 Y107.197 E8.10383
G1 X66.612 Y106.529 E8.11522
G1 X66.735 Y106.060 E8.12332
G1 X66.878 Y105.601 E8.13135
G1 X67.141 Y104.900 E8.14384
G1 X67.426 Y104.273 E8.15535
G1 X67.648 Y103.848 E8.16336
G1 X67.888 Y103.434 E8.17136
G1 X68.300 Y102.809 E8.18385
G1 X68.587 Y102.425 E8.19186
G1 X69.025 Y101.900 E8.20327
G1 X69.355 Y101.546 E8.21137
G1 X69.896 Y101.029 E8.22387
G1 X70.263 Y100.716 E8.23191
G1 X70.761 Y100.336 E8.24237
G1 X70.962 Y100.521 F7800.000
G1 X71.576 Y100.115 E8.25467 F1800.000
G1 X72.155 Y99.787 E8.26578
G1 X73.000 Y99.390 E8.28138
G1 X73.689 Y99.131 E8.29368
G1 X74.326 Y98.940 E8.30478
G1 X75.044 Y98.776 E8.31708
G1 X75.968 Y98.642 E8.33267
G1 X76.632 Y98.597 E8.34379
G1 X137.092 Y98.591 E9.35355
G1 X137.837 Y98.624 E9.36601 F1800.000
G1 X138.761 Y98.740 E9.38156
G1 X139.677 Y98.941 E9.39723
G1 X140.565 Y99.220 E9.41276
G1 X141.182 Y99.467 E9.42387
G1 X142.020 Y99.881 E9.43947
G1 X142.817 Y100.367 E9.45507
G1 X143.567 Y100.923 E9.47067
G1 X144.265 Y101.545 E9.48627
G1 X144.897 Y102.218 E9.50169
G1 X145.363 Y102.802 E9.51417
G1 X145.885 Y103.576 E9.52977
G1 X146.335 Y104.394 E9.54537
G1 X146.711 Y105.250 E9.56097
G1 X147.008 Y106.135 E9.57657
G1 X147.224 Y107.044 E9.59217
G1 X147.359 Y107.973 E9.60785
G1 X147.410 Y109.000 E9.62502
G1 X147.410 Y131.000 E9.99245
G1 X147.015 Y132.825 E10.02364
G1 X145.899 Y134.323 E10.05483
G1 X144.264 Y135.225 E10.08603
G1 X143.000 Y135.410 E10.10736
G1 X71.000 Y135.410 E11.30986
G1 X69.175 Y135.015 E11.34105
G1 X67.677 Y133.899 E11.37224
G1 X66.775 Y132.264 E11.40344
G1 X66.590 Y131.000 E11.42477
G1 X66.590 Y109.000 E11.79220
G1 X66.605 Y108.444 E11.80150
G1 X66.641 Y107.972 E11.80940
G1 X66.740 Y107.239 E11.82175
G1 X66.872 Y106.594 E11.83275
G1 X66.992 Y106.136 E11.84064
G1 X67.131 Y105.689 E11.84847
G1 X67.390 Y105.000 E11.86076
G1 X67.579 Y104.573 E11.86856
G1 X67.881 Y103.980 E11.87967
G1 X68.258 Y103.348 E11.89196
G1 X68.521 Y102.962 E11.89977
G1 X68.800 Y102.587 E11.90757
G1 X69.223 Y102.081 E11.91859
G1 X69.545 Y101.735 E11.92648
G1 X70.077 Y101.226 E11.93878
G1 X70.434 Y100.922 E11.94662
G1 X70.913 Y100.556 E11.95668
G1 X71.114 Y100.741 F7800.000
G1 X71.719 Y100.342 E11.96878 F1800.000
G1 X72.276 Y100.025 E11.97948
G1 X73.100 Y99.638 E11.99468
G1 X73.778 Y99.384 E12.00678
G1 X74.392 Y99.199 E12.01748
G1 X75.098 Y99.038 E12.02958
G1 X75.998 Y98.908 E12.04477
G1 X76.638 Y98.865 E12.05548
G1 X137.086 Y98.858 E13.06506
G1 X137.819 Y98.891 E13.07731 F1800.000
G1 X138.719 Y99.005 E13.09246
G1 X139.612 Y99.200 E13.10772
G1 X140.476 Y99.473 E13.12286
G1 X141.071 Y99.711 E13.13356
G1 X141.888 Y100.114 E13.14876
G1 X142.664 Y100.587 E13.16396
G1 X143.396 Y101.129 E13.17916
G1 X144.076 Y101.734 E13.19436
G1 X144.692 Y102.390 E13.20939
G1 X145.150 Y102.964 E13.22165
G1 X145.658 Y103.719 E13.23685
G1 X146.097 Y104.516 E13.25205
G1 X146.462 Y105.350 E13.26725
G1 X146.751 Y106.212 E13.28245
G1 X146.962 Y107.098 E13.29764
G1 X147.093 Y108.003 E13.31292
G1 X147.142 Y109.000 E13.32959
G1 X147.142 Y131.000 E13.69702
G1 X146.747 Y132.766 E13.72724
G1 X145.637 Y134.195 E13.75746
G1 X144.024 Y135.014 E13.78768
G1 X143.000 Y135.142 E13.80492
G1 X71.000 Y135.142 E15.00742
G1 X69.234 Y134.747 E15.03764
G1 X67.805 Y133.637 E15.06786
G1 X66.986 Y132.024 E15.09808
G1 X66.858 Y131.000 E15.11531
G1 X66.858 Y109.000 E15.48274
G1 X66.872 Y108.461 E15.49175
G1 X66.907 Y108.002 E15.49943
G1 X67.005 Y107.281 E15.51159
G1 X67.132 Y106.659 E15.52219
G1 X67.248 Y106.213 E15.52988
G1 X67.384 Y105.778 E15.53750
G1 X67.638 Y105.100 E15.54959
G1 X67.903 Y104.516 E15.56030
G1 X68.114 Y104.112 E15.56790
G1 X68.342 Y103.719 E15.57550
G1 X68.741 Y103.114 E15.58760
G1 X69.013 Y102.750 E15.59520
G1 X69.421 Y102.261 E15.60582
G1 X69.734 Y101.924 E15.61351
G1 X70.258 Y101.424 E15.62560
G1 X70.606 Y101.128 E15.63324
G1 X71.066 Y100.776 E15.64291
G1 X71.267 Y100.961 F7800.000
G1 X71.861 Y100.569 E15.65480 F1800.000
G1 X72.398 Y100.264 E15.66511
G1 X73.199 Y99.887 E15.67990
G1 X73.866 Y99.636 E15.69180
G1 X74.457 Y99.459 E15.70210
G1 X75.323 Y99.269 E15.71690
G1 X76.032 Y99.173 E15.72886
G1 X76.644 Y99.132 E15.73910
G1 X137.081 Y99.126 E16.74848
G1 X137.801 Y99.158 E16.76052 F1800.000
G1 X138.677 Y99.269 E16.77527
G1 X139.546 Y99.460 E16.79013
G1 X140.388 Y99.725 E16.80487
G1 X141.206 Y100.066 E16.81967
G1 X141.990 Y100.479 E16.83446
G1 X142.734 Y100.961 E16.84927
G1 X143.431 Y101.507 E16.86406
G1 X144.077 Y102.114 E16.87886
G1 X144.493 Y102.570 E16.88917
G1 X145.039 Y103.267 E16.90396
G1 X145.521 Y104.010 E16.91875
G1 X145.934 Y104.794 E16.93355
G1 X146.275 Y105.612 E16.94835
G1 X146.541 Y106.457 E16.96315
G1 X146.731 Y107.323 E16.97794
G1 X146.842 Y108.202 E16.99274
G1 X146.875 Y109.000 E17.00609
G1 X146.875 Y131.000 E17.37352
G1 X146.480 Y132.704 E17.40273
G1 X145.376 Y134.061 E17.43195
G1 X143.000 Y134.875 E17.47389
G1 X71.000 Y134.875 E18.67638
G1 X69.296 Y134.480 E18.70560
G1 X67.939 Y133.376 E18.73481
G1 X67.125 Y131.000 E18.77676
G1 X67.125 Y109.000 E19.14419
G1 X67.140 Y108.478 E19.15290
G1 X67.174 Y108.031 E19.16039
G1 X67.269 Y107.323 E19.17233
G1 X67.392 Y106.724 E19.18254
G1 X67.505 Y106.290 E19.19002
G1 X67.636 Y105.866 E19.19744
G1 X67.887 Y105.199 E19.20933
G1 X68.142 Y104.638 E19.21964
G1 X68.346 Y104.245 E19.22704
G1 X68.569 Y103.861 E19.23444
G1 X68.961 Y103.267 E19.24633
G1 X69.226 Y102.912 E19.25374
G1 X69.618 Y102.442 E19.26396
G1 X69.923 Y102.114 E19.27144
G1 X70.438 Y101.622 E19.28334
G1 X70.778 Y101.333 E19.29077
G1 X71.218 Y100.996 E19.30004
G1 X71.419 Y101.181 F7800.000
G1 X72.004 Y100.795 E19.31173 F1800.000
G1 X72.519 Y100.503 E19.32163
G1 X73.150 Y100.199 E19.33333
G1 X73.955 Y99.889 E19.34773
G1 X74.522 Y99.719 E19.35763
G1 X75.205 Y99.563 E19.36932
G1 X76.058 Y99.440 E19.38371
G1 X76.650 Y99.400 E19.39362
G1 X137.075 Y99.394 E20.40281
G1 X137.783 Y99.426 E20.41463 F1800.000
G1 X138.636 Y99.534 E20.42899
G1 X139.480 Y99.719 E20.44344
G1 X140.300 Y99.978 E20.45778
G1 X141.095 Y100.310 E20.47218
G1 X141.857 Y100.712 E20.48658
G1 X142.581 Y101.181 E20.50098
G1 X143.259 Y101.713 E20.51537
G1 X143.887 Y102.303 E20.52977
G1 X144.288 Y102.741 E20.53968
G1 X144.819 Y103.419 E20.55406
G1 X145.288 Y104.143 E20.56846
G1 X145.690 Y104.905 E20.58285
G1 X146.022 Y105.700 E20.59725
G1 X146.281 Y106.523 E20.61165
G1 X146.466 Y107.364 E20.62604
G1 X146.575 Y108.220 E20.64044
G1 X146.607 Y109.000 E20.65349
G1 X146.607 Y131.000 E21.02092
G1 X146.212 Y132.640 E21.04909
G1 X145.115 Y133.921 E21.07726
G1 X143.000 Y134.607 E21.11440
G1 X71.000 Y134.607 E22.31690
G1 X69.360 Y134.212 E22.34507
G1 X68.079 Y133.115 E22.37324
G1 X67.393 Y131.000 E22.41038
G1 X67.393 Y109.000 E22.77781
G1 X67.407 Y108.496 E22.78623
G1 X67.440 Y108.058 E22.79357
G1 X67.534 Y107.364 E22.80525
G1 X67.652 Y106.789 E22.81506
G1 X67.761 Y106.367 E22.82234
G1 X67.889 Y105.955 E22.82956
G1 X68.135 Y105.299 E22.84125
G1 X68.310 Y104.905 E22.84845
G1 X68.579 Y104.377 E22.85835
G1 X68.795 Y104.004 E22.86555
G1 X69.181 Y103.419 E22.87725
G1 X69.439 Y103.074 E22.88445
G1 X69.816 Y102.622 E22.89428
G1 X70.113 Y102.303 E22.90155
G1 X70.619 Y101.819 E22.91324
G1 X71.371 Y101.216 E22.92934
G1 X71.572 Y101.401 F7800.000
G1 X72.146 Y101.022 E22.94083 F1800.000
G1 X72.641 Y100.741 E22.95033
G1 X73.399 Y100.384 E22.96433
G1 X74.043 Y100.142 E22.97582
G1 X74.588 Y99.978 E22.98532
G1 X75.259 Y99.825 E22.99682
G1 X76.088 Y99.706 E23.01080
G1 X76.656 Y99.668 E23.02031
G1 X137.070 Y99.662 E24.02931
G1 X137.765 Y99.693 E24.04092 F1800.000
G1 X138.594 Y99.798 E24.05488
G1 X139.415 Y99.979 E24.06892
G1 X140.211 Y100.231 E24.08287
G1 X140.984 Y100.554 E24.09687
G1 X141.725 Y100.945 E24.11086
G1 X142.429 Y101.402 E24.12487
G1 X143.088 Y101.918 E24.13885
G1 X143.698 Y102.493 E24.15285
G1 X144.082 Y102.913 E24.16236
G1 X144.599 Y103.572 E24.17634
G1 X145.055 Y104.275 E24.19034
G1 X145.446 Y105.016 E24.20433
G1 X145.769 Y105.789 E24.21832
G1 X146.022 Y106.588 E24.23232
G1 X146.202 Y107.406 E24.24632
G1 X146.307 Y108.238 E24.26031
G1 X146.339 Y109.000 E24.27306
G1 X146.339 Y131.000 E24.64049
G1 X145.945 Y132.574 E24.66758
G1 X144.856 Y133.776 E24.69467
G1 X143.000 Y134.339 E24.72706
G1 X71.000 Y134.339 E25.92956
G1 X69.426 Y133.945 E25.95665
G1 X68.224 Y132.856 E25.98374
G1 X67.661 Y131.000 E26.01614
G1 X67.661 Y109.000 E26.38357
G1 X67.674 Y108.513 E26.39170
G1 X67.706 Y108.091 E26.39878
G1 X67.798 Y107.406 E26.41031
G1 X67.911 Y106.854 E26.41973
G1 X68.018 Y106.444 E26.42680
G1 X68.142 Y106.043 E26.43381
G1 X68.384 Y105.399 E26.44530
G1 X68.554 Y105.016 E26.45230
G1 X68.812 Y104.509 E26.46180
G1 X69.165 Y103.919 E26.47329
G1 X69.401 Y103.572 E26.48030
G1 X69.652 Y103.236 E26.48730
G1 X70.014 Y102.803 E26.49673
G1 X70.302 Y102.493 E26.50380
G1 X70.800 Y102.017 E26.51529
G1 X71.523 Y101.436 E26.53078
G1 X71.724 Y101.621 F7800.000
G1 X72.289 Y101.249 E26.54208 F1800.000
G1 X72.762 Y100.980 E26.55118
G1 X73.372 Y100.687 E26.56247
G1 X74.132 Y100.395 E26.57606
G1 X74.653 Y100.238 E26.58516
G1 X75.313 Y100.088 E26.59646
G1 X76.118 Y99.972 E26.61004
G1 X76.662 Y99.936 E26.61915
G1 X137.064 Y99.929 E27.62795
G1 X137.746 Y99.960 E27.63935 F1800.000
G1 X138.552 Y100.063 E27.65292
G1 X139.349 Y100.239 E27.66655
G1 X140.123 Y100.484 E27.68010
G1 X140.873 Y100.798 E27.69370
G1 X141.593 Y101.178 E27.70729
G1 X142.276 Y101.622 E27.72089
G1 X142.916 Y102.124 E27.73448
G1 X143.508 Y102.682 E27.74807
G1 X143.877 Y103.085 E27.75718
G1 X144.379 Y103.724 E27.77076
G1 X144.822 Y104.407 E27.78436
G1 X145.202 Y105.126 E27.79795
G1 X145.516 Y105.877 E27.81154
G1 X145.762 Y106.653 E27.82514
G1 X145.937 Y107.448 E27.83873
G1 X146.040 Y108.256 E27.85232
G1 X146.071 Y109.000 E27.86477
G1 X146.071 Y131.000 E28.23220
G1 X145.678 Y132.504 E28.25816
G1 X144.598 Y133.623 E28.28413
G1 X143.000 Y134.071 E28.31185
G1 X71.000 Y134.071 E29.51435
G1 X69.496 Y133.678 E29.54031
G1 X68.377 Y132.598 E29.56628
G1 X67.929 Y131.000 E29.59400
G1 X67.929 Y109.000 E29.96143
G1 X67.960 Y108.256 E29.97387
G1 X68.088 Y107.313 E29.98976
G1 X68.172 Y106.914 E29.99658
G1 X68.352 Y106.263 E30.00786
G1 X68.632 Y105.498 E30.02145
G1 X69.045 Y104.641 E30.03734
G1 X69.392 Y104.061 E30.04863
G1 X69.621 Y103.724 E30.05543
G1 X70.212 Y102.983 E30.07127
G1 X70.492 Y102.682 E30.07813
G1 X70.980 Y102.215 E30.08942
G1 X71.676 Y101.657 E30.10431
G1 X71.877 Y101.841 F7800.000
G1 X72.431 Y101.476 E30.11540 F1800.000
G1 X72.884 Y101.219 E30.12410
G1 X73.482 Y100.930 E30.13519
G1 X74.220 Y100.648 E30.14839
G1 X74.719 Y100.498 E30.15709
G1 X75.366 Y100.350 E30.16818
G1 X76.148 Y100.238 E30.18136
G1 X76.668 Y100.203 E30.19007
G1 X137.058 Y100.197 E31.19867
G1 X137.728 Y100.227 E31.20987 F1800.000
G1 X138.510 Y100.328 E31.22303
G1 X139.284 Y100.498 E31.23626
G1 X140.034 Y100.736 E31.24942
G1 X140.763 Y101.042 E31.26261
G1 X141.461 Y101.411 E31.27580
G1 X142.124 Y101.842 E31.28900
G1 X142.744 Y102.330 E31.30218
G1 X143.319 Y102.871 E31.31538
G1 X143.671 Y103.256 E31.32409
G1 X144.159 Y103.877 E31.33727
G1 X144.589 Y104.539 E31.35046
G1 X144.958 Y105.237 E31.36365
G1 X145.263 Y105.966 E31.37684
G1 X145.502 Y106.719 E31.39004
G1 X145.672 Y107.490 E31.40323
G1 X145.773 Y108.274 E31.41642
G1 X145.803 Y109.000 E31.42856
G1 X145.803 Y131.000 E31.79599
G1 X145.411 Y132.431 E31.82078
G1 X144.342 Y133.461 E31.84557
G1 X143.000 Y133.803 E31.86870
G1 X71.000 Y133.803 E33.07120
G1 X69.569 Y133.411 E33.09598
G1 X68.539 Y132.342 E33.12077
G1 X68.197 Y131.000 E33.14390
G1 X68.197 Y109.000 E33.51133
G1 X68.227 Y108.274 E33.52348
G1 X68.350 Y107.366 E33.53877
G1 X68.432 Y106.979 E33.54538
G1 X68.609 Y106.340 E33.55646
G1 X68.881 Y105.598 E33.56965
G1 X69.278 Y104.773 E33.58494
G1 X69.476 Y104.431 E33.59154
G1 X69.841 Y103.877 E33.60263
G1 X70.410 Y103.163 E33.61786
G1 X70.681 Y102.871 E33.62452
G1 X71.161 Y102.412 E33.63561
G1 X71.828 Y101.877 E33.64990
G1 X72.029 Y102.062 F7800.000
G1 X72.574 Y101.702 E33.66079 F1800.000
G1 X73.006 Y101.457 E33.66909
G1 X73.593 Y101.174 E33.67998
G1 X74.308 Y100.900 E33.69277
G1 X74.784 Y100.757 E33.70107
G1 X75.420 Y100.612 E33.71196
G1 X76.178 Y100.505 E33.72474
G1 X76.674 Y100.471 E33.73305
G1 X137.053 Y100.465 E34.74146
G1 X137.710 Y100.494 E34.75245 F1800.000
G1 X138.468 Y100.592 E34.76521
G1 X139.218 Y100.758 E34.77804
G1 X139.946 Y100.989 E34.79079
G1 X140.652 Y101.286 E34.80358
G1 X141.329 Y101.644 E34.81637
G1 X141.971 Y102.062 E34.82917
G1 X142.573 Y102.535 E34.84196
G1 X143.130 Y103.061 E34.85475
G1 X143.465 Y103.428 E34.86306
G1 X143.938 Y104.029 E34.87583
G1 X144.356 Y104.671 E34.88863
G1 X144.714 Y105.348 E34.90141
G1 X145.011 Y106.054 E34.91421
G1 X145.243 Y106.784 E34.92700
G1 X145.408 Y107.532 E34.93979
G1 X145.506 Y108.292 E34.95258
G1 X145.536 Y109.000 E34.96442
G1 X145.536 Y131.000 E35.33185
G1 X145.144 Y132.355 E35.35540
G1 X144.088 Y133.290 E35.37895
G1 X143.000 Y133.536 E35.39759
G1 X71.000 Y133.536 E36.60009
G1 X69.645 Y133.144 E36.62364
G1 X68.710 Y132.088 E36.64719
G1 X68.464 Y131.000 E36.66582
G1 X68.464 Y109.000 E37.03325
G1 X68.494 Y108.292 E37.04510
G1 X68.612 Y107.420 E37.05978
G1 X68.692 Y107.045 E37.06619
G1 X68.865 Y106.417 E37.07707
G1 X69.129 Y105.698 E37.08986
G1 X69.511 Y104.905 E37.10455
G1 X69.702 Y104.574 E37.11095
G1 X70.062 Y104.029 E37.12184
G1 X70.608 Y103.344 E37.13648
G1 X70.870 Y103.061 E37.14293
G1 X71.342 Y102.610 E37.15382
G1 X71.981 Y102.097 E37.16751
G1 X72.182 Y102.282 F7800.000
G1 X72.716 Y101.929 E37.17820 F1800.000
G1 X73.127 Y101.696 E37.18610
G1 X73.704 Y101.418 E37.19679
G1 X74.397 Y101.153 E37.20918
G1 X74.850 Y101.017 E37.21707
G1 X75.574 Y100.857 E37.22946
G1 X76.210 Y100.770 E37.24019
G1 X76.680 Y100.739 E37.24805
G1 X137.047 Y100.733 E38.25627
G1 X137.692 Y100.762 E38.26704 F1800.000
G1 X138.426 Y100.857 E38.27941
G1 X139.152 Y101.018 E38.29183
G1 X139.857 Y101.242 E38.30419
G1 X140.296 Y101.418 E38.31208
G1 X140.962 Y101.744 E38.32447
G1 X141.597 Y102.128 E38.33686
G1 X142.194 Y102.568 E38.34925
G1 X142.750 Y103.060 E38.36164
G1 X143.256 Y103.595 E38.37394
G1 X143.658 Y104.099 E38.38472
G1 X144.071 Y104.716 E38.39711
G1 X144.426 Y105.367 E38.40950
G1 X144.622 Y105.798 E38.41741
G1 X144.878 Y106.494 E38.42979
G1 X145.071 Y107.210 E38.44217
G1 X145.185 Y107.839 E38.45285
G1 X145.230 Y108.211 E38.45910
G1 X145.268 Y109.000 E38.47230
