; generated by Slic3r 1.2.9 on 2016-10-22 at 19:22:39

; external perimeters extrusion width = 0.40mm
; perimeters extrusion width = 0.48mm
; infill extrusion width = 0.48mm
; solid infill extrusion width = 0.48mm
; top infill extrusion width = 0.48mm

M107
M190 S60 ; set bed temperature
M104 S200 ; set temperature


M109 S200 ; wait for temperature to be reached
G21 ; set units to millimeters
G90 ; use absolute coordinates
M82 ; use absolute distances for extrusion
G92 E0
G1 E-4.00000 F840.00000
G92 E0
G1 Z0.500 F7800.000
G1 X71.419 Y101.181 F7800.000
G1 Z0.150 F7800.000
G1 E4.50000 F840.00000
G1 X72.004 Y100.795 E4.51169 F1800.000
G1 X72.519 Y100.503 E4.52160
G1 X73.150 Y100.199 E4.53329
G1 X73.955 Y99.889 E4.54769
G1 X74.522 Y99.719 E4.55759
G1 X75.205 Y99.563 E4.56929
G1 X76.058 Y99.440 E4.58367
G1 X76.650 Y99.400 E4.59358
G1 X137.075 Y99.394 E5.60277
G1 X137.783 Y99.426 E5.61460 F1800.000
G1 X138.636 Y99.534 E5.62895
G1 X139.480 Y99.719 E5.64340
G1 X140.300 Y99.978 E5.65775
G1 X141.095 Y100.310 E5.67214
G1 X141.857 Y100.712 E5.68654
G1 X142.581 Y101.181 E5.70095
G1 X143.259 Y101.713 E5.71533
G1 X143.887 Y102.303 E5.72973
G1 X144.288 Y102.741 E5.73964
G1 X144.819 Y103.419 E5.75403
G1 X145.288 Y104.143 E5.76842
G1 X145.690 Y104.905 E5.78282
G1 X146.022 Y105.700 E5.79721
G1 X146.281 Y106.523 E5.81161
G1 X146.466 Y107.364 E5.82601
G1 X146.575 Y108.220 E5.84040
G1 X146.607 Y109.000 E5.85345
G1 X146.607 Y131.000 E6.22088
G1 X146.212 Y132.640 E6.24905
G1 X145.115 Y133.921 E6.27722
G1 X143.000 Y134.607 E6.31436
G1 X71.000 Y134.607 E7.51686
G1 X69.360 Y134.212 E7.54503
G1 X68.079 Y133.115 E7.57320
G1 X67.393 Y131.000 E7.61034
G1 X67.393 Y109.000 E7.97777
G1 X67.407 Y108.496 E7.98619
G1 X67.440 Y108.058 E7.99353
G1 X67.534 Y107.364 E8.00522
G1 X67.652 Y106.789 E8.01503
G1 X67.761 Y106.367 E8.02230
G1 X67.889 Y105.955 E8.02952
G1 X68.135 Y105.299 E8.04121
G1 X68.310 Y104.905 E8.04841
G1 X68.579 Y104.377 E8.05832
G1 X68.795 Y104.004 E8.06551
G1 X69.181 Y103.419 E8.07721
G1 X69.439 Y103.074 E8.08441
G1 X69.816 Y102.622 E8.09424
G1 X70.113 Y102.303 E8.10151
G1 X70.619 Y101.819 E8.11321
G1 X71.371 Y101.216 E8.12930
G1 X71.572 Y101.401 F7800.000
G1 X72.146 Y101.022 E8.14080 F1800.000
G1 X72.641 Y100.741 E8.15030
G1 X73.399 Y100.384 E8.16429
G1 X74.043 Y100.142 E8.17579
G1 X74.588 Y99.978 E8.18529
G1 X75.259 Y99.825 E8.19678
G1 X76.088 Y99.706 E8.21076
G1 X76.656 Y99.668 E8.22028
G1 X137.070 Y99.662 E9.22927
G1 X137.765 Y99.693 E9.24089 F1800.000
G1 X138.594 Y99.798 E9.25485
G1 X139.415 Y99.979 E9.26889
G1 X140.211 Y100.231 E9.28283
G1 X140.984 Y100.554 E9.29683
G1 X141.725 Y100.945 E9.31083
G1 X142.429 Y101.402 E9.32483
G1 X143.088 Y101.918 E9.33881
G1 X143.698 Y102.493 E9.35281
G1 X144.082 Y102.913 E9.36232
G1 X144.599 Y103.572 E9.37630
G1 X145.055 Y104.275 E9.39030
G1 X145.446 Y105.016 E9.40429
G1 X145.769 Y105.789 E9.41829
G1 X146.022 Y106.588 E9.43228
G1 X146.202 Y107.406 E9.44628
G1 X146.307 Y108.238 E9.46027
G1 X146.339 Y109.000 E9.47302
G1 X146.339 Y131.000 E9.84045
G1 X145.945 Y132.574 E9.86754
G1 X144.856 Y133.776 E9.89463
G1 X143.000 Y134.339 E9.92702
G1 X71.000 Y134.339 E11.12952
G1 X69.426 Y133.945 E11.15661
G1 X68.224 Y132.856 E11.18370
G1 X67.661 Y131.000 E11.21610
G1 X67.661 Y109.000 E11.58353
G1 X67.674 Y108.513 E11.59166
G1 X67.706 Y108.091 E11.59874
G1 X67.798 Y107.406 E11.61027
G1 X67.911 Y106.854 E11.61969
G1 X68.018 Y106.444 E11.62676
G1 X68.142 Y106.043 E11.63377
G1 X68.384 Y105.399 E11.64527
G1 X68.554 Y105.016 E11.65227
G1 X68.812 Y104.509 E11.66177
G1 X69.165 Y103.919 E11.67325
G1 X69.401 Y103.572 E11.68026
G1 X69.652 Y103.236 E11.68726
G1 X70.014 Y102.803 E11.69669
G1 X70.302 Y102.493 E11.70376
G1 X70.800 Y102.017 E11.71525
G1 X71.523 Y101.436 E11.73075
G1 X71.724 Y101.621 F7800.000
G1 X72.289 Y101.249 E11.74204 F1800.000
G1 X72.762 Y100.980 E11.75114
G1 X73.372 Y100.687 E11.76243
G1 X74.132 Y100.395 E11.77603
G1 X74.653 Y100.238 E11.78513
G1 X75.313 Y100.088 E11.79642
G1 X76.118 Y99.972 E11.81000
G1 X76.662 Y99.936 E11.81911
G1 X137.064 Y99.929 E12.82791
G1 X137.746 Y99.960 E12.83932 F1800.000
G1 X138.552 Y100.063 E12.85288
G1 X139.349 Y100.239 E12.86651
G1 X140.123 Y100.484 E12.88006
G1 X140.873 Y100.798 E12.89366
G1 X141.593 Y101.178 E12.90725
G1 X142.276 Y101.622 E12.92085
G1 X142.916 Y102.124 E12.93444
G1 X143.508 Y102.682 E12.94803
G1 X143.877 Y103.085 E12.95714
G1 X144.379 Y103.724 E12.97072
G1 X144.822 Y104.407 E12.98432
G1 X145.202 Y105.126 E12.99791
G1 X145.516 Y105.877 E13.01150
G1 X145.762 Y106.653 E13.02510
G1 X145.937 Y107.448 E13.03869
G1 X146.040 Y108.256 E13.05229
G1 X146.071 Y109.000 E13.06473
G1 X146.071 Y131.000 E13.43216
G1 X145.678 Y132.504 E13.45812
G1 X144.598 Y133.623 E13.48409
G1 X143.000 Y134.071 E13.51181
G1 X71.000 Y134.071 E14.71431
G1 X69.496 Y133.678 E14.74027
G1 X68.377 Y132.598 E14.76624
G1 X67.929 Y131.000 E14.79396
G1 X67.929 Y109.000 E15.16139
G1 X67.960 Y108.256 E15.17383
G1 X68.088 Y107.313 E15.18973
G1 X68.172 Y106.914 E15.19654
G1 X68.352 Y106.263 E15.20782
G1 X68.632 Y105.498 E15.22141
G1 X69.045 Y104.641 E15.23731
G1 X69.392 Y104.061 E15.24859
G1 X69.621 Y103.724 E15.25540
G1 X70.212 Y102.983 E15.27123
G1 X70.492 Y102.682 E15.27809
G1 X70.980 Y102.215 E15.28938
G1 X71.676 Y101.657 E15.30427
G1 X71.877 Y101.841 F7800.000
G1 X72.431 Y101.476 E15.31537 F1800.000
G1 X72.884 Y101.219 E15.32406
G1 X73.482 Y100.930 E15.33516
G1 X74.220 Y100.648 E15.34835
G1 X74.719 Y100.498 E15.35705
G1 X75.366 Y100.350 E15.36814
G1 X76.148 Y100.238 E15.38132
G1 X76.668 Y100.203 E15.39003
G1 X137.058 Y100.197 E16.39863
G1 X137.728 Y100.227 E16.40983 F1800.000
G1 X138.510 Y100.328 E16.42299
G1 X139.284 Y100.498 E16.43623
G1 X140.034 Y100.736 E16.44938
G1 X140.763 Y101.042 E16.46257
G1 X141.461 Y101.411 E16.47576
G1 X142.124 Y101.842 E16.48896
G1 X142.744 Y102.330 E16.50215
G1 X143.319 Y102.871 E16.51534
G1 X143.671 Y103.256 E16.52405
G1 X144.159 Y103.877 E16.53723
G1 X144.589 Y104.539 E16.55042
G1 X144.958 Y105.237 E16.56361
G1 X145.263 Y105.966 E16.57680
G1 X145.502 Y106.719 E16.59000
G1 X145.672 Y107.490 E16.60319
G1 X145.773 Y108.274 E16.61638
G1 X145.803 Y109.000 E16.62853
G1 X145.803 Y131.000 E16.99596
G1 X145.411 Y132.431 E17.02074
G1 X144.342 Y133.461 E17.04553
G1 X143.000 Y133.803 E17.06866
G1 X71.000 Y133.803 E18.27116
G1 X69.569 Y133.411 E18.29595
G1 X68.539 Y132.342 E18.32073
G1 X68.197 Y131.000 E18.34387
G1 X68.197 Y109.000 E18.71130
G1 X68.227 Y108.274 E18.72344
G1 X68.350 Y107.366 E18.73873
G1 X68.432 Y106.979 E18.74534
G1 X68.609 Y106.340 E18.75642
G1 X68.881 Y105.598 E18.76961
G1 X69.278 Y104.773 E18.78490
G1 X69.476 Y104.431 E18.79150
G1 X69.841 Y103.877 E18.80259
G1 X70.410 Y103.163 E18.81783
G1 X70.681 Y102.871 E18.82448
G1 X71.161 Y102.412 E18.83557
G1 X71.828 Y101.877 E18.84986
G1 X72.029 Y102.062 F7800.000
G1 X72.574 Y101.702 E18.86076 F1800.000
G1 X73.006 Y101.457 E18.86905
G1 X73.593 Y101.174 E18.87994
G1 X74.308 Y100.900 E18.89274
G1 X74.784 Y100.757 E18.90103
G1 X75.420 Y100.612 E18.91192
G1 X76.178 Y100.505 E18.92470
G1 X76.674 Y100.471 E18.93301
G1 X137.053 Y100.465 E19.94142
G1 X137.710 Y100.494 E19.95241 F1800.000
G1 X138.468 Y100.592 E19.96517
G1 X139.218 Y100.758 E19.97800
G1 X139.946 Y100.989 E19.99075
G1 X140.652 Y101.286 E20.00355
G1 X141.329 Y101.644 E20.01634
G1 X141.971 Y102.062 E20.02914
G1 X142.573 Y102.535 E20.04192
G1 X143.130 Y103.061 E20.05471
G1 X143.465 Y103.428 E20.06302
G1 X143.938 Y104.029 E20.07580
G1 X144.356 Y104.671 E20.08859
G1 X144.714 Y105.348 E20.10138
G1 X145.011 Y106.054 E20.11417
G1 X145.243 Y106.784 E20.12696
G1 X145.408 Y107.532 E20.13975
G1 X145.506 Y108.292 E20.15254
G1 X145.536 Y109.000 E20.16438
G1 X145.536 Y131.000 E20.53181
G1 X145.144 Y132.355 E20.55536
G1 X144.088 Y133.290 E20.57892
G1 X143.000 Y133.536 E20.59755
G1 X71.000 Y133.536 E21.80005
G1 X69.645 Y133.144 E21.82360
G1 X68.710 Y132.088 E21.84715
G1 X68.464 Y131.000 E21.86579
G1 X68.464 Y109.000 E22.23322
G1 X68.494 Y108.292 E22.24506
G1 X68.612 Y107.420 E22.25975
G1 X68.692 Y107.045 E22.26616
G1 X68.865 Y106.417 E22.27704
G1 X69.129 Y105.698 E22.28983
G1 X69.511 Y104.905 E22.30452
G1 X69.702 Y104.574 E22.31091
G1 X70.062 Y104.029 E22.32180
G1 X70.608 Y103.344 E22.33644
G1 X70.870 Y103.061 E22.34289
G1 X71.342 Y102.610 E22.35378
G1 X71.981 Y102.097 E22.36747
G1 X72.182 Y102.282 F7800.000
G1 X72.716 Y101.929 E22.37816 F1800.000
G1 X73.127 Y101.696 E22.38606
G1 X73.704 Y101.418 E22.39675
G1 X74.397 Y101.153 E22.40914
G1 X74.850 Y101.017 E22.41703
G1 X75.574 Y100.857 E22.42942
G1 X76.210 Y100.770 E22.44015
G1 X76.680 Y100.739 E22.44801
G1 X137.047 Y100.733 E23.45623
G1 X137.692 Y100.762 E23.46700 F1800.000
G1 X138.426 Y100.857 E23.47937
G1 X139.152 Y101.018 E23.49179
G1 X139.857 Y101.242 E23.50415
G1 X140.296 Y101.418 E23.51204
G1 X140.962 Y101.744 E23.52443
G1 X141.597 Y102.128 E23.53682
G1 X142.194 Y102.568 E23.54921
G1 X142.750 Y103.060 E23.56160
G1 X143.256 Y103.595 E23.57390
G1 X143.658 Y104.099 E23.58468
G1 X144.071 Y104.716 E23.59707
G1 X144.426 Y105.367 E23.60946
G1 X144.622 Y105.798 E23.61737
G1 X144.878 Y106.494 E23.62975
G1 X145.071 Y107.210 E23.64214
G1 X145.185 Y107.839 E23.65282
G1 X145.230 Y108.211 E23.65907
G1 X145.268 Y109.000 E23.67226
G1 X145.268 Y131.000 E24.03969
G1 X144.877 Y132.273 E24.06194
G1 X143.838 Y133.107 E24.08419
G1 X143.000 Y133.268 E24.09844
G1 X71.000 Y133.268 E25.30093
G1 X69.727 Y132.877 E25.32318
G1 X68.893 Y131.838 E25.34543
G1 X68.732 Y131.000 E25.35968
G1 X68.732 Y109.000 E25.72711
G1 X68.761 Y108.310 E25.73865
G1 X68.875 Y107.474 E25.75274
G1 X68.952 Y107.110 E25.75894
G1 X69.122 Y106.494 E25.76962
G1 X69.418 Y105.704 E25.78371
G1 X69.744 Y105.038 E25.79610
G1 X70.072 Y104.488 E25.80678
G1 X70.282 Y104.182 E25.81299
G1 X70.806 Y103.524 E25.82703
G1 X71.060 Y103.250 E25.83327
G1 X71.522 Y102.808 E25.84396
G1 X72.133 Y102.317 E25.85705
G1 F6240
G1 X72.716 Y101.929 E25.76752
G1 F6240
G1 X73.127 Y101.696 E25.70706
G1 F6240
G1 X73.704 Y101.418 E25.62520
G1 F6240
G1 X74.397 Y101.153 E25.53033
G1 F6240
G1 X74.850 Y101.017 E25.46987
G1 F6240
G1 X75.574 Y100.857 E25.37500
G1 F6240
G1 X76.210 Y100.770 E25.29287
G1 F6240
G1 X76.680 Y100.739 E25.23268
G1 F6240
G1 X101.512 Y100.736 E22.05705
G1 E21.85705 F840.00000
G92 E0
G1 Z0.650 F7800.000
G1 X84.229 Y107.795 F7800.000
G1 Z0.150 F7800.000
G1 E4.50000 F840.00000
G1 X129.771 Y107.795 E5.26060 F1800.000
G1 X129.918 Y107.674 E5.26378
G1 X130.051 Y107.096 E5.27369
G1 X130.152 Y106.758 E5.27958
G1 X130.370 Y106.180 E5.28990
G1 X130.503 Y105.886 E5.29529
G1 X130.808 Y105.316 E5.30609
G1 X131.178 Y104.755 E5.31732
G1 X131.377 Y104.495 E5.32277
G1 X131.782 Y104.031 E5.33307
G1 X132.269 Y103.566 E5.34431
G1 X132.776 Y103.163 E5.35512
G1 X133.281 Y102.829 E5.36524
G1 X133.574 Y102.661 E5.37089
G1 X134.181 Y102.369 E5.38212
G1 X134.482 Y102.249 E5.38753
G1 X135.070 Y102.058 E5.39787
G1 X135.728 Y101.908 E5.40913
G1 X136.327 Y101.827 E5.41923
G1 X136.663 Y101.803 E5.42486
G1 X137.337 Y101.803 E5.43611
G1 X137.673 Y101.827 E5.44175
G1 X138.272 Y101.908 E5.45185
G1 X138.905 Y102.051 E5.46268
G1 X139.544 Y102.259 E5.47390
G1 X140.113 Y102.502 E5.48424
G1 X140.403 Y102.649 E5.48967
G1 X140.707 Y102.822 E5.49550
G1 X141.224 Y103.163 E5.50585
G1 X141.503 Y103.376 E5.51171
G1 X141.988 Y103.801 E5.52248
G1 X142.217 Y104.030 E5.52789
G1 X142.625 Y104.497 E5.53825
G1 X142.837 Y104.775 E5.54408
G1 X143.178 Y105.293 E5.55445
G1 X143.352 Y105.599 E5.56032
G1 X143.614 Y106.143 E5.57042
G1 X143.856 Y106.786 E5.58188
G1 X144.022 Y107.384 E5.59225
G1 X144.092 Y107.727 E5.59809
G1 X144.175 Y108.342 E5.60845
G1 X144.205 Y108.993 E5.61935
G1 X144.205 Y131.499 E5.99523
G1 X143.499 Y132.205 E6.01190
G1 X137.501 Y132.205 E6.11208
G1 X137.111 Y131.815 E6.12129
G1 X136.889 Y131.815 E6.12500
G1 X136.499 Y132.205 E6.13421
G1 X130.501 Y132.205 E6.23439
G1 X129.795 Y131.499 E6.25106
G1 X129.795 Y115.362 E6.52057
G1 X129.638 Y115.205 E6.52428
G1 X84.362 Y115.205 E7.28045
G1 X84.205 Y115.362 E7.28415
G1 X84.205 Y131.499 E7.55367
G1 X83.499 Y132.205 E7.57034
G1 X77.501 Y132.205 E7.67052
G1 X77.111 Y131.815 E7.67973
G1 X76.889 Y131.815 E7.68344
G1 X76.499 Y132.205 E7.69264
G1 X70.501 Y132.205 E7.79282
G1 X69.795 Y131.499 E7.80950
G1 X69.795 Y108.993 E8.18538
G1 X69.823 Y108.368 E8.19583
G1 X69.862 Y108.020 E8.20167
G1 X69.913 Y107.700 E8.20709
G1 X70.051 Y107.096 E8.21744
G1 X70.152 Y106.761 E8.22329
G1 X70.369 Y106.181 E8.23364
G1 X70.662 Y105.574 E8.24489
G1 X70.979 Y105.042 E8.25523
G1 X71.358 Y104.518 E8.26603
G1 X71.582 Y104.250 E8.27186
G1 X72.011 Y103.801 E8.28223
G1 X72.486 Y103.384 E8.29279
G1 X72.777 Y103.162 E8.29889
G1 X73.316 Y102.808 E8.30967
G1 X73.862 Y102.514 E8.32002
G1 X74.181 Y102.369 E8.32589
G1 X74.786 Y102.143 E8.33667
G1 X75.384 Y101.978 E8.34702
G1 X76.019 Y101.862 E8.35781
G1 X76.381 Y101.822 E8.36389
G1 X77.013 Y101.795 E8.37446
G1 X77.659 Y101.825 E8.38525
G1 X78.272 Y101.908 E8.39559
G1 X78.616 Y101.979 E8.40146
G1 X79.214 Y102.143 E8.41180
G1 X79.819 Y102.369 E8.42260
G1 X80.138 Y102.514 E8.42845
G1 X80.706 Y102.821 E8.43923
G1 X81.223 Y103.162 E8.44958
G1 X81.503 Y103.375 E8.45545
G1 X81.989 Y103.801 E8.46625
G1 X82.417 Y104.249 E8.47660
G1 X82.642 Y104.518 E8.48244
G1 X83.006 Y105.020 E8.49279
G1 X83.338 Y105.574 E8.50359
G1 X83.497 Y105.886 E8.50944
G1 X83.750 Y106.481 E8.52024
G1 X83.942 Y107.072 E8.53061
G1 X84.082 Y107.674 E8.54094
G1 X84.183 Y107.757 E8.54313
G1 X84.004 Y108.063 F7800.000
G1 X129.996 Y108.063 E9.31126 F1800.000
G1 X130.147 Y107.934 E9.31456
G1 X130.315 Y107.144 E9.32805
G1 X130.406 Y106.844 E9.33329
G1 X130.617 Y106.283 E9.34331
G1 X130.886 Y105.722 E9.35370
G1 X131.217 Y105.169 E9.36446
G1 X131.570 Y104.682 E9.37450
G1 X131.769 Y104.443 E9.37969
G1 X132.214 Y103.978 E9.39044
G1 X132.452 Y103.762 E9.39582
G1 X132.913 Y103.394 E9.40567
G1 X133.451 Y103.039 E9.41643
G1 X133.723 Y102.886 E9.42165
G1 X134.263 Y102.626 E9.43165
G1 X134.866 Y102.399 E9.44242
G1 X135.165 Y102.310 E9.44763
G1 X135.751 Y102.176 E9.45767
G1 X136.388 Y102.090 E9.46841
G1 X136.699 Y102.069 E9.47361
G1 X137.301 Y102.069 E9.48366
G1 X137.942 Y102.127 E9.49441
G1 X138.523 Y102.232 E9.50427
G1 X138.836 Y102.310 E9.50967
G1 X139.447 Y102.509 E9.52039
G1 X140.000 Y102.745 E9.53044
G1 X140.298 Y102.897 E9.53602
G1 X140.804 Y103.199 E9.54586
G1 X141.086 Y103.394 E9.55159
G1 X141.556 Y103.769 E9.56164
G1 X141.801 Y103.992 E9.56717
G1 X142.217 Y104.427 E9.57721
G1 X142.430 Y104.683 E9.58278
G1 X142.778 Y105.161 E9.59265
G1 X142.961 Y105.451 E9.59838
G1 X143.246 Y105.980 E9.60842
G1 X143.382 Y106.281 E9.61394
G1 X143.594 Y106.844 E9.62399
G1 X143.690 Y107.164 E9.62957
G1 X143.824 Y107.751 E9.63962
G1 X143.873 Y108.060 E9.64484
G1 X143.910 Y108.389 E9.65037
G1 X143.937 Y108.995 E9.66050
G1 X143.937 Y131.388 E10.03450
G1 X143.388 Y131.937 E10.04747
G1 X137.612 Y131.937 E10.14395
G1 X137.111 Y131.437 E10.15577
G1 X136.889 Y131.437 E10.15948
G1 X136.388 Y131.937 E10.17131
G1 X130.612 Y131.937 E10.26778
G1 X130.063 Y131.388 E10.28075
G1 X130.063 Y115.094 E10.55289
G1 X129.906 Y114.937 E10.55659
G1 X84.094 Y114.937 E11.32171
G1 X83.937 Y115.094 E11.32541
G1 X83.937 Y131.388 E11.59754
G1 X83.388 Y131.937 E11.61051
G1 X77.612 Y131.937 E11.70699
G1 X77.111 Y131.437 E11.71882
G1 X76.889 Y131.437 E11.72252
G1 X76.388 Y131.937 E11.73435
G1 X70.612 Y131.937 E11.83083
G1 X70.063 Y131.388 E11.84380
G1 X70.063 Y108.995 E12.21780
G1 X70.090 Y108.389 E12.22793
G1 X70.127 Y108.059 E12.23347
G1 X70.176 Y107.751 E12.23868
G1 X70.310 Y107.165 E12.24873
G1 X70.405 Y106.846 E12.25428
G1 X70.617 Y106.283 E12.26432
G1 X70.896 Y105.703 E12.27507
G1 X71.205 Y105.187 E12.28512
G1 X71.570 Y104.683 E12.29551
G1 X71.782 Y104.428 E12.30105
G1 X72.198 Y103.993 E12.31111
G1 X72.658 Y103.590 E12.32132
G1 X72.931 Y103.381 E12.32707
G1 X73.451 Y103.039 E12.33745
G1 X73.981 Y102.754 E12.34750
G1 X74.284 Y102.617 E12.35306
G1 X74.866 Y102.399 E12.36344
G1 X75.446 Y102.239 E12.37349
G1 X76.058 Y102.127 E12.38388
G1 X76.399 Y102.089 E12.38962
G1 X77.010 Y102.063 E12.39983
G1 X77.632 Y102.091 E12.41022
