; generated by Slic3r 1.35.5-prusa3d-linux64 on 2017-10-28 at 19:16:52

; 

; external perimeters extrusion width = 0.45mm
; perimeters extrusion width = 0.45mm
; infill extrusion width = 0.45mm
; solid infill extrusion width = 0.45mm
; top infill extrusion width = 0.40mm
; first layer extrusion width = 0.42mm

M107
M115 U3.0.9 ; tell printer latest fw version
M83  ; extruder relative mode
M104 S215 ; set extruder temp
M140 S65 ; set bed temp
M190 S65 ; wait for bed temp
M109 S215 ; wait for extruder temp
G28 W ; home all without mesh bed level
G80 ; mesh bed leveling
G1 Y-3.0 F1000.0 ; go outside pritn area
G1 X60.0 E9.0  F1000.0 ; intro line
G1 X100.0 E12.5  F1000.0 ; intro line
; Filament gcode

G21 ; set units to millimeters
G90 ; use absolute coordinates
M83 ; use relative distances for extrusion
G1 E-0.80000 F2100.00000
G1 Z0.200 F7200.000
G1 X79.173 Y106.887 F7200.000
G1 E0.80000 F2100.00000
M204 S1000
G1 F1500
G1 X80.579 Y106.177 E0.04939
G1 X82.130 Y105.731 E0.05062
G1 X83.699 Y105.586 E0.04940
G1 X144.764 Y106.938 E1.91512
G1 X146.097 Y107.113 E0.04215
G1 X147.373 Y107.490 E0.04173
G1 X148.582 Y108.066 E0.04199
G1 X149.690 Y108.828 E0.04215
G1 X150.789 Y109.898 E0.04810
G1 X151.662 Y111.120 E0.04708
G1 X152.318 Y112.507 E0.04810
G1 X152.710 Y113.966 E0.04736
G1 X154.338 Y135.650 E0.68180
G1 X153.580 Y156.389 E0.65071
G1 X153.369 Y157.579 E0.03789
G1 X152.978 Y158.762 E0.03907
G1 X152.419 Y159.875 E0.03905
G1 X151.727 Y160.864 E0.03786
G1 X151.092 Y161.564 E0.02961
G1 X150.412 Y162.167 E0.02850
G1 X149.638 Y162.714 E0.02973
G1 X148.836 Y163.159 E0.02873
G1 X147.966 Y163.523 E0.02958
G1 X147.089 Y163.783 E0.02868
G1 X146.154 Y163.951 E0.02978
G1 X145.207 Y164.014 E0.02976
G1 X84.434 Y163.656 E1.90554
G1 X83.094 Y163.503 E0.04230
G1 X81.755 Y163.124 E0.04361
G1 X80.492 Y162.531 E0.04374
G1 X79.369 Y161.760 E0.04273
G1 X78.162 Y160.562 E0.05331
G1 X77.216 Y159.145 E0.05345
G1 X76.571 Y157.566 E0.05346
G1 X76.253 Y155.891 E0.05346
G1 X74.965 Y135.095 E0.65332
G1 X75.211 Y113.437 E0.67910
G1 X75.478 Y111.883 E0.04945
G1 X76.038 Y110.382 E0.05022
G1 X76.852 Y109.037 E0.04930
G1 X77.903 Y107.861 E0.04943
G1 X79.125 Y106.923 E0.04831
G1 X79.354 Y107.221 F7200.000
G1 F1500
G1 X80.714 Y106.529 E0.04784
G1 X82.201 Y106.101 E0.04852
G1 X83.700 Y105.963 E0.04720
G1 X144.698 Y107.312 E1.91301
G1 X145.964 Y107.470 E0.04000
G1 X147.227 Y107.838 E0.04124
G1 X148.391 Y108.391 E0.04041
G1 X149.443 Y109.113 E0.04001
G1 X150.504 Y110.144 E0.04638
G1 X151.340 Y111.315 E0.04512
G1 X151.969 Y112.650 E0.04625
G1 X152.348 Y114.084 E0.04652
G1 X153.961 Y135.665 E0.67853
G1 X153.206 Y156.342 E0.64877
G1 X153.005 Y157.481 E0.03625
G1 X152.631 Y158.615 E0.03744
G1 X152.119 Y159.642 E0.03598
G1 X151.441 Y160.617 E0.03724
G1 X150.180 Y161.869 E0.05572
G1 X148.675 Y162.818 E0.05578
G1 X147.003 Y163.416 E0.05568
G1 X146.107 Y163.577 E0.02852
G1 X145.198 Y163.637 E0.02858
G1 X84.451 Y163.279 E1.90472
G1 X83.165 Y163.132 E0.04058
G1 X81.886 Y162.771 E0.04164
G1 X80.717 Y162.225 E0.04048
G1 X79.616 Y161.475 E0.04176
G1 X78.455 Y160.325 E0.05122
G1 X77.550 Y158.971 E0.05108
G1 X76.932 Y157.459 E0.05122
G1 X76.628 Y155.853 E0.05122
G1 X75.342 Y135.084 E0.65246
G1 X75.584 Y113.513 E0.67638
G1 X75.837 Y112.001 E0.04808
G1 X76.357 Y110.590 E0.04714
G1 X77.148 Y109.271 E0.04824
G1 X78.150 Y108.146 E0.04721
G1 X79.306 Y107.257 E0.04574
G1 X79.534 Y107.551 F7200.000
G1 F1500
G1 X80.852 Y106.879 E0.04641
G1 X82.271 Y106.472 E0.04628
G1 X83.696 Y106.340 E0.04488
G1 X144.674 Y107.689 E1.91238
G1 X145.876 Y107.837 E0.03796
G1 X147.047 Y108.173 E0.03821
G1 X148.148 Y108.687 E0.03809
G1 X149.163 Y109.372 E0.03841
G1 X150.183 Y110.350 E0.04430
G1 X151.011 Y111.500 E0.04443
G1 X151.615 Y112.779 E0.04436
G1 X151.977 Y114.152 E0.04450
G1 X153.584 Y135.675 E0.67674
G1 X152.836 Y156.249 E0.64551
G1 X152.655 Y157.328 E0.03429
G1 X152.309 Y158.407 E0.03553
G1 X151.804 Y159.433 E0.03585
G1 X151.183 Y160.337 E0.03441
G1 X149.954 Y161.567 E0.05450
G1 X148.517 Y162.475 E0.05332
G1 X146.916 Y163.049 E0.05330
G1 X145.197 Y163.260 E0.05430
G1 X84.471 Y162.903 E1.90407
G1 X83.250 Y162.765 E0.03854
G1 X82.066 Y162.435 E0.03852
G1 X80.920 Y161.907 E0.03958
G1 X79.896 Y161.216 E0.03873
G1 X78.754 Y160.094 E0.05019
G1 X77.883 Y158.793 E0.04910
G1 X77.292 Y157.347 E0.04897
G1 X77.000 Y155.778 E0.05005
G1 X75.719 Y135.074 E0.65040
G1 X75.959 Y113.557 E0.67468
G1 X76.201 Y112.101 E0.04628
G1 X76.694 Y110.759 E0.04481
G1 X77.450 Y109.497 E0.04614
G1 X78.404 Y108.424 E0.04502
G1 X79.486 Y107.588 E0.04287
G1 X79.717 Y107.888 F7200.000
G1 F1500
G1 X80.991 Y107.230 E0.04497
G1 X82.338 Y106.843 E0.04392
G1 X83.697 Y106.717 E0.04281
G1 X144.654 Y108.065 E1.91173
G1 X145.801 Y108.207 E0.03624
G1 X146.912 Y108.525 E0.03624
G1 X147.960 Y109.013 E0.03624
G1 X148.920 Y109.660 E0.03630
G1 X149.896 Y110.595 E0.04239
G1 X150.686 Y111.692 E0.04239
G1 X151.260 Y112.909 E0.04219
G1 X151.606 Y114.223 E0.04258
G1 X153.207 Y135.694 E0.67510
G1 X152.461 Y156.210 E0.64369
G1 X152.289 Y157.235 E0.03257
G1 X151.960 Y158.263 E0.03385
G1 X151.504 Y159.198 E0.03262
G1 X150.895 Y160.093 E0.03393
G1 X149.752 Y161.245 E0.05091
G1 X148.354 Y162.135 E0.05196
G1 X146.830 Y162.682 E0.05077
G1 X145.189 Y162.883 E0.05184
G1 X84.526 Y162.527 E1.90207
G1 X83.332 Y162.396 E0.03766
G1 X82.204 Y162.084 E0.03671
G1 X81.104 Y161.578 E0.03795
G1 X80.139 Y160.928 E0.03647
G1 X79.072 Y159.887 E0.04676
G1 X78.217 Y158.619 E0.04794
G1 X77.653 Y157.238 E0.04676
G1 X77.376 Y155.739 E0.04781
G1 X76.096 Y135.063 E0.64951
G1 X76.334 Y113.590 E0.67332
G1 X76.553 Y112.243 E0.04278
G1 X77.034 Y110.921 E0.04412
G1 X77.754 Y109.720 E0.04390
G1 X78.662 Y108.699 E0.04283
G1 X79.670 Y107.925 E0.03984
G1 F5760
G1 X80.991 Y107.230 E-0.51726
G1 F5760
G1 X81.665 Y107.036 E-0.24274
G1 E-0.04000 F2100.00000
G1 X84.270 Y150.385 F7200.000
G1 E0.80000 F2100.00000
G1 F600
G1 X84.767 Y150.363 E0.01561
G1 X85.230 Y150.389 E0.01453
G1 X85.684 Y150.459 E0.01441
G1 X86.129 Y150.572 E0.01440
G1 X86.601 Y150.744 E0.01575
G1 X87.015 Y150.944 E0.01440
G1 X87.407 Y151.182 E0.01440
G1 X87.805 Y151.481 E0.01561
G1 X88.146 Y151.796 E0.01453
G1 X88.452 Y152.139 E0.01441
G1 X88.723 Y152.509 E0.01440
G1 X88.976 Y152.938 E0.01561
G1 X89.170 Y153.359 E0.01453
G1 X89.322 Y153.793 E0.01441
G1 X89.431 Y154.239 E0.01441
G1 X89.497 Y154.693 E0.01440
G1 X89.519 Y155.195 E0.01575
G1 X89.493 Y155.654 E0.01440
G1 X89.423 Y156.108 E0.01441
G1 X89.310 Y156.553 E0.01440
G1 X89.138 Y157.025 E0.01575
G1 X88.939 Y157.438 E0.01440
G1 X88.700 Y157.831 E0.01441
G1 X88.426 Y158.199 E0.01440
G1 X88.086 Y158.570 E0.01575
G1 X87.744 Y158.875 E0.01440
G1 X87.373 Y159.147 E0.01440
G1 X86.941 Y159.402 E0.01575
G1 X86.524 Y159.594 E0.01440
G1 X86.090 Y159.745 E0.01441
G1 X85.643 Y159.855 E0.01441
G1 X85.189 Y159.921 E0.01440
G1 X84.687 Y159.942 E0.01575
G1 X84.229 Y159.916 E0.01440
G1 X83.775 Y159.847 E0.01440
G1 X83.293 Y159.722 E0.01561
G1 X82.858 Y159.562 E0.01453
G1 X82.444 Y159.362 E0.01441
G1 X82.051 Y159.124 E0.01441
G1 X81.683 Y158.849 E0.01440
G1 X81.313 Y158.510 E0.01575
G1 X81.007 Y158.167 E0.01440
G1 X80.735 Y157.797 E0.01441
G1 X80.501 Y157.402 E0.01440
G1 X80.288 Y156.947 E0.01575
G1 X80.137 Y156.514 E0.01438
G1 X80.021 Y156.030 E0.01561
G1 X79.958 Y155.570 E0.01453
G1 X79.940 Y155.111 E0.01441
G1 X79.966 Y154.652 E0.01441
G1 X80.036 Y154.198 E0.01441
G1 X80.149 Y153.753 E0.01440
G1 X80.321 Y153.281 E0.01575
G1 X80.520 Y152.867 E0.01440
G1 X80.758 Y152.475 E0.01440
G1 X81.058 Y152.077 E0.01561
G1 X81.372 Y151.737 E0.01453
G1 X81.715 Y151.431 E0.01441
G1 X82.086 Y151.159 E0.01441
G1 X82.480 Y150.924 E0.01440
G1 X82.936 Y150.712 E0.01575
G1 X83.369 Y150.560 E0.01440
G1 X83.815 Y150.451 E0.01441
G1 X84.211 Y150.394 E0.01252
G1 X84.501 Y150.712 F7200.000
G1 X84.265 Y150.767 F7200.000
G1 F600
G1 X84.765 Y150.741 E0.01571
G1 X85.191 Y150.765 E0.01337
G1 X85.609 Y150.829 E0.01327
G1 X86.018 Y150.933 E0.01323
G1 X86.455 Y151.092 E0.01456
G1 X86.835 Y151.275 E0.01323
G1 X87.196 Y151.494 E0.01324
G1 X87.563 Y151.771 E0.01443
G1 X87.877 Y152.060 E0.01337
G1 X88.158 Y152.376 E0.01327
G1 X88.408 Y152.717 E0.01324
G1 X88.642 Y153.113 E0.01443
G1 X88.820 Y153.500 E0.01337
G1 X88.960 Y153.900 E0.01327
G1 X89.061 Y154.311 E0.01327
G1 X89.121 Y154.729 E0.01323
G1 X89.141 Y155.193 E0.01456
G1 X89.117 Y155.614 E0.01323
G1 X89.053 Y156.033 E0.01327
G1 X88.949 Y156.442 E0.01323
G1 X88.790 Y156.878 E0.01456
G1 X88.607 Y157.258 E0.01323
G1 X88.387 Y157.620 E0.01327
G1 X88.135 Y157.958 E0.01323
G1 X87.821 Y158.301 E0.01456
G1 X87.506 Y158.582 E0.01323
G1 X87.166 Y158.831 E0.01323
G1 X86.766 Y159.067 E0.01456
G1 X86.382 Y159.244 E0.01323
G1 X85.983 Y159.383 E0.01327
G1 X85.571 Y159.484 E0.01327
G1 X85.154 Y159.545 E0.01323
G1 X84.690 Y159.565 E0.01456
G1 X84.268 Y159.541 E0.01323
G1 X83.851 Y159.477 E0.01324
G1 X83.405 Y159.362 E0.01443
G1 X83.005 Y159.214 E0.01337
G1 X82.624 Y159.030 E0.01327
G1 X82.262 Y158.811 E0.01327
G1 X81.924 Y158.558 E0.01323
G1 X81.582 Y158.245 E0.01456
G1 X81.300 Y157.930 E0.01323
G1 X81.050 Y157.588 E0.01327
G1 X80.834 Y157.225 E0.01323
G1 X80.638 Y156.805 E0.01456
G1 X80.499 Y156.407 E0.01320
G1 X80.392 Y155.960 E0.01443
G1 X80.334 Y155.537 E0.01337
G1 X80.317 Y155.114 E0.01327
G1 X80.341 Y154.692 E0.01327
G1 X80.406 Y154.273 E0.01327
G1 X80.510 Y153.864 E0.01323
G1 X80.668 Y153.428 E0.01456
G1 X80.852 Y153.048 E0.01323
G1 X81.071 Y152.687 E0.01324
G1 X81.348 Y152.319 E0.01443
G1 X81.637 Y152.006 E0.01337
G1 X81.953 Y151.724 E0.01327
G1 X82.294 Y151.474 E0.01327
G1 X82.657 Y151.258 E0.01323
G1 X83.078 Y151.062 E0.01456
G1 X83.476 Y150.922 E0.01323
G1 X83.888 Y150.822 E0.01327
G1 X84.205 Y150.776 E0.01007
G1 F5760
G1 X84.765 Y150.741 E-0.19427
G1 F5760
G1 X85.191 Y150.765 E-0.14766
G1 F5760
G1 X85.609 Y150.829 E-0.14659
G1 F5760
G1 X86.018 Y150.933 E-0.14620
G1 F5760
G1 X86.358 Y151.057 E-0.12528
G1 E-0.04000 F2100.00000
G1 X84.298 Y153.035 F7200.000
G1 E0.80000 F2100.00000
G1 F600
G1 X84.711 Y152.992 E0.01302
G1 X85.142 Y153.032 E0.01355
G1 X85.539 Y153.149 E0.01300
G1 X85.907 Y153.341 E0.01300
G1 X86.244 Y153.612 E0.01356
G1 X86.521 Y153.944 E0.01356
G1 X86.719 Y154.309 E0.01302
G1 X86.847 Y154.722 E0.01355
G1 X86.890 Y155.135 E0.01302
G1 X86.851 Y155.565 E0.01355
G1 X86.733 Y155.963 E0.01300
G1 X86.541 Y156.331 E0.01300
G1 X86.271 Y156.668 E0.01356
G1 X85.938 Y156.944 E0.01356
G1 X85.573 Y157.142 E0.01302
G1 X85.160 Y157.271 E0.01355
G1 X84.748 Y157.314 E0.01302
G1 X84.317 Y157.274 E0.01355
G1 X83.919 Y157.156 E0.01302
G1 X83.537 Y156.955 E0.01355
G1 X83.215 Y156.694 E0.01300
G1 X82.948 Y156.376 E0.01300
G1 X82.740 Y155.997 E0.01356
G1 X82.612 Y155.584 E0.01356
G1 X82.569 Y155.172 E0.01300
G1 X82.605 Y154.758 E0.01300
G1 X82.726 Y154.343 E0.01356
G1 X82.927 Y153.960 E0.01356
G1 X83.189 Y153.638 E0.01302
G1 X83.521 Y153.362 E0.01355
G1 X83.886 Y153.163 E0.01302
G1 X84.241 Y153.053 E0.01167
G1 X84.425 Y152.656 F7200.000
G1 X84.222 Y152.664 F7200.000
G1 F600
G1 X84.709 Y152.613 E0.01535
G1 X85.213 Y152.659 E0.01588
G1 X85.681 Y152.798 E0.01531
G1 X86.114 Y153.024 E0.01531
G1 X86.510 Y153.341 E0.01592
G1 X86.835 Y153.732 E0.01592
G1 X87.068 Y154.162 E0.01535
G1 X87.218 Y154.646 E0.01588
G1 X87.269 Y155.132 E0.01535
G1 X87.223 Y155.637 E0.01588
G1 X87.084 Y156.105 E0.01531
G1 X86.859 Y156.538 E0.01531
G1 X86.541 Y156.933 E0.01592
G1 X86.150 Y157.258 E0.01592
G1 X85.720 Y157.492 E0.01535
G1 X85.237 Y157.642 E0.01588
G1 X84.750 Y157.693 E0.01535
G1 X84.246 Y157.646 E0.01588
G1 X83.776 Y157.507 E0.01535
G1 X83.328 Y157.272 E0.01587
G1 X82.949 Y156.964 E0.01531
G1 X82.635 Y156.590 E0.01531
G1 X82.391 Y156.145 E0.01592
G1 X82.241 Y155.660 E0.01592
G1 X82.190 Y155.175 E0.01531
G1 X82.232 Y154.689 E0.01531
G1 X82.374 Y154.201 E0.01592
G1 X82.611 Y153.752 E0.01592
G1 X82.919 Y153.372 E0.01535
G1 X83.308 Y153.048 E0.01588
G1 X83.738 Y152.814 E0.01535
G1 X84.165 Y152.682 E0.01400
G1 F5760
G1 X84.709 Y152.613 E-0.18995
G1 F5760
G1 X85.213 Y152.659 E-0.17538
G1 F5760
G1 X85.681 Y152.798 E-0.16907
G1 F5760
G1 X86.114 Y153.024 E-0.16908
G1 F5760
G1 X86.241 Y153.126 E-0.05652
G1 E-0.04000 F2100.00000
G1 X86.779 Y151.374 F7200.000
G1 E0.80000 F2100.00000
G1 F1200
G1 X88.499 Y153.094 E0.07940
G1 F5760
G1 X86.948 Y151.543 E-0.76000
G1 E-0.04000 F2100.00000
G1 X88.874 Y154.024 F7200.000
G1 E0.80000 F2100.00000
G1 F1200
G1 X86.122 Y151.272 E0.12703
G1 X85.935 Y151.204 E0.00649
G1 X85.374 Y151.079 E0.01875
G1 X88.804 Y154.509 E0.15829
G1 X88.839 Y154.755 E0.00813
G1 X88.855 Y155.115 E0.01176
G1 X84.764 Y151.024 E0.18884
G1 X84.332 Y151.043 E0.01411
G1 X84.241 Y151.056 E0.00300
G1 X85.691 Y152.506 E0.06692
G1 X85.267 Y152.380 E0.01443
G1 X84.984 Y152.354 E0.00927
G1 X83.771 Y151.141 E0.05599
G1 X83.343 Y151.268 E0.01457
G1 X84.432 Y152.358 E0.05028
G1 X84.165 Y152.386 E0.00878
G1 X83.967 Y152.447 E0.00677
G1 X82.952 Y151.432 E0.04685
G1 X82.789 Y151.508 E0.00585
G1 X82.591 Y151.626 E0.00755
G1 X83.556 Y152.592 E0.04456
G1 X83.196 Y152.787 E0.01336
G1 X82.259 Y151.850 E0.04325
G1 X81.955 Y152.101 E0.01287
G1 X82.886 Y153.032 E0.04295
G1 X82.717 Y153.172 E0.00717
G1 X82.607 Y153.308 E0.00570
G1 X81.678 Y152.379 E0.04289
G1 X81.427 Y152.683 E0.01287
G1 X82.362 Y153.618 E0.04313
G1 X82.170 Y153.982 E0.01341
G1 X81.203 Y153.014 E0.04466
G1 X81.008 Y153.375 E0.01337
G1 X82.025 Y154.391 E0.04691
G1 X81.953 Y154.636 E0.00833
G1 X81.934 Y154.855 E0.00718
G1 X80.846 Y153.767 E0.05022
G1 X80.718 Y154.194 E0.01455
G1 X81.930 Y155.406 E0.05595
G1 X81.962 Y155.718 E0.01021
G1 X82.087 Y156.119 E0.01370
G1 X80.632 Y154.664 E0.06716
G1 X80.603 Y155.190 E0.01721
G1 X84.695 Y159.282 E0.18885
G1 X85.218 Y159.250 E0.01710
G1 X83.768 Y157.800 E0.06692
G1 X84.192 Y157.925 E0.01444
G1 X84.475 Y157.951 E0.00927
G1 X85.688 Y159.164 E0.05599
G1 X86.116 Y159.037 E0.01457
G1 X85.027 Y157.948 E0.05028
G1 X85.294 Y157.920 E0.00878
G1 X85.492 Y157.859 E0.00677
G1 X86.508 Y158.875 E0.04690
G1 X86.868 Y158.679 E0.01336
G1 X85.903 Y157.714 E0.04453
G1 X86.263 Y157.519 E0.01336
G1 X87.200 Y158.456 E0.04325
G1 X87.504 Y158.205 E0.01287
G1 X86.573 Y157.274 E0.04295
G1 X86.744 Y157.133 E0.00723
G1 X86.852 Y156.998 E0.00565
G1 X87.780 Y157.926 E0.04286
G1 X88.032 Y157.623 E0.01287
G1 X87.098 Y156.689 E0.04310
G1 X87.289 Y156.324 E0.01343
G1 X88.256 Y157.292 E0.04465
G1 X88.358 Y157.123 E0.00643
G1 X88.451 Y156.931 E0.00695
G1 X87.435 Y155.916 E0.04688
G1 X87.502 Y155.690 E0.00768
G1 X87.524 Y155.450 E0.00789
G1 X88.613 Y156.539 E0.05026
G1 X88.741 Y156.112 E0.01455
G1 X87.529 Y154.900 E0.05595
G1 X87.496 Y154.588 E0.01022
G1 X87.372 Y154.187 E0.01370
G1 X88.976 Y155.791 E0.07403
G1 F5760
G1 X87.424 Y154.240 E-0.76000
G1 E-0.04000 F2100.00000
G1 X84.287 Y159.429 F7200.000
G1 E0.80000 F2100.00000
G1 F1200
G1 X80.655 Y155.797 E0.16765
G1 X80.771 Y156.327 E0.01773
G1 X80.846 Y156.543 E0.00747
G1 X83.598 Y159.295 E0.12699
G1 X82.680 Y158.932 F7200.000
G1 F1200
G1 X80.955 Y157.207 E0.07961
G1 F5760
G1 X82.507 Y158.759 E-0.76000
G1 E-0.04000 F2100.00000
G1 X100.087 Y154.947 F7200.000
G1 E0.80000 F2100.00000
G1 F600
G1 X100.069 Y154.488 E0.01441
G1 X100.095 Y154.029 E0.01441
G1 X100.165 Y153.574 E0.01441
G1 X100.278 Y153.129 E0.01440
G1 X100.450 Y152.657 E0.01575
G1 X100.650 Y152.244 E0.01440
G1 X100.888 Y151.851 E0.01440
G1 X101.187 Y151.454 E0.01561
G1 X101.502 Y151.113 E0.01453
G1 X101.845 Y150.807 E0.01441
G1 X102.215 Y150.535 E0.01441
G1 X102.610 Y150.301 E0.01440
G1 X103.065 Y150.088 E0.01575
G1 X103.498 Y149.937 E0.01440
G1 X103.945 Y149.828 E0.01441
G1 X104.399 Y149.762 E0.01440
G1 X104.897 Y149.740 E0.01561
G1 X105.360 Y149.766 E0.01453
G1 X105.814 Y149.836 E0.01441
G1 X106.259 Y149.949 E0.01440
G1 X106.731 Y150.121 E0.01575
G1 X107.144 Y150.320 E0.01440
G1 X107.537 Y150.558 E0.01440
G1 X107.935 Y150.858 E0.01561
G1 X108.275 Y151.172 E0.01453
G1 X108.581 Y151.515 E0.01441
G1 X108.853 Y151.885 E0.01440
G1 X109.106 Y152.314 E0.01561
G1 X109.300 Y152.735 E0.01453
G1 X109.451 Y153.169 E0.01441
G1 X109.561 Y153.615 E0.01441
G1 X109.626 Y154.070 E0.01440
G1 X109.648 Y154.572 E0.01575
G1 X109.622 Y155.030 E0.01440
