; generated by Slic3r 1.35.5-prusa3d-linux64 on 2017-10-28 at 23:30:28

; 

; external perimeters extrusion width = 0.45mm
; perimeters extrusion width = 0.45mm
; infill extrusion width = 0.45mm
; solid infill extrusion width = 0.45mm
; top infill extrusion width = 0.40mm
; first layer extrusion width = 0.42mm

M107
M115 U3.0.9 ; tell printer latest fw version
M83  ; extruder relative mode
M104 S215 ; set extruder temp
M140 S65 ; set bed temp
M190 S65 ; wait for bed temp
M109 S215 ; wait for extruder temp
G28 W ; home all without mesh bed level
G80 ; mesh bed leveling
G1 Y-3.0 F1000.0 ; go outside pritn area
G1 X60.0 E9.0  F1000.0 ; intro line
G1 X100.0 E12.5  F1000.0 ; intro line
; Filament gcode

G21 ; set units to millimeters
G90 ; use absolute coordinates
M83 ; use relative distances for extrusion
G1 E-0.80000 F2100.00000
G1 Z0.200 F7200.000
G1 X111.389 Y93.987 F7200.000
G1 E0.80000 F2100.00000
M204 S1000
G1 F1500
G1 X112.465 Y92.780 E0.05071
G1 X113.432 Y91.858 E0.04190
G1 X114.471 Y91.014 E0.04196
G1 X115.707 Y90.164 E0.04703
G1 X117.105 Y89.373 E0.05036
G1 X118.471 Y88.755 E0.04703
G1 X119.886 Y88.255 E0.04703
G1 X121.442 Y87.859 E0.05036
G1 X122.924 Y87.618 E0.04708
G1 X124.256 Y87.507 E0.04190
G1 X125.599 Y87.504 E0.04210
G1 X127.205 Y87.631 E0.05051
G1 X128.688 Y87.884 E0.04718
G1 X130.139 Y88.263 E0.04703
G1 X131.651 Y88.806 E0.05036
G1 X133.014 Y89.436 E0.04708
G1 X134.179 Y90.091 E0.04190
G1 X135.301 Y90.845 E0.04239
G1 X136.556 Y91.847 E0.05036
G1 X137.640 Y92.885 E0.04703
G1 X138.633 Y94.015 E0.04718
G1 X139.581 Y95.312 E0.05036
G1 X140.285 Y96.461 E0.04225
G1 X140.890 Y97.654 E0.04196
G1 X141.461 Y99.041 E0.04703
G1 X141.938 Y100.570 E0.05022
G1 X142.256 Y102.040 E0.04718
G1 X142.446 Y103.528 E0.04703
G1 X142.506 Y105.133 E0.05036
G1 X142.429 Y106.633 E0.04708
G1 X142.257 Y107.958 E0.04190
G1 X141.975 Y109.280 E0.04239
G1 X141.513 Y110.819 E0.05036
G1 X140.954 Y112.211 E0.04703
G1 X140.276 Y113.554 E0.04718
G1 X139.429 Y114.913 E0.05022
G1 X138.526 Y116.113 E0.04708
G1 X137.641 Y117.114 E0.04190
G1 X136.670 Y118.049 E0.04225
G1 X135.423 Y119.068 E0.05051
G1 X134.180 Y119.908 E0.04703
G1 X132.871 Y120.639 E0.04703
G1 X131.403 Y121.293 E0.05036
G1 X129.984 Y121.781 E0.04708
G1 X128.689 Y122.115 E0.04190
G1 X127.362 Y122.346 E0.04225
G1 X125.762 Y122.492 E0.05036
G1 X124.272 Y122.493 E0.04674
G1 X122.777 Y122.367 E0.04703
G1 X121.299 Y122.113 E0.04703
G1 X119.856 Y121.736 E0.04674
G1 X118.335 Y121.187 E0.05071
G1 X117.118 Y120.634 E0.04190
G1 X115.949 Y119.984 E0.04196
G1 X114.699 Y119.155 E0.04703
G1 X113.444 Y118.153 E0.05036
G1 X112.351 Y117.105 E0.04747
G1 X111.367 Y115.985 E0.04674
G1 X110.419 Y114.688 E0.05036
G1 X109.715 Y113.539 E0.04225
G1 X109.110 Y112.346 E0.04196
G1 X108.539 Y110.959 E0.04703
G1 X108.060 Y109.426 E0.05036
G1 X107.744 Y107.960 E0.04703
G1 X107.554 Y106.472 E0.04703
G1 X107.494 Y104.867 E0.05036
G1 X107.571 Y103.367 E0.04708
G1 X107.743 Y102.042 E0.04190
G1 X108.022 Y100.733 E0.04196
G1 X108.482 Y99.194 E0.05036
G1 X108.998 Y97.900 E0.04370
G1 X109.708 Y96.474 E0.04993
G1 X110.496 Y95.193 E0.04718
G1 X111.353 Y94.035 E0.04515
G1 X111.656 Y94.260 F7200.000
G1 F1500
G1 X112.726 Y93.052 E0.05058
G1 X113.680 Y92.141 E0.04137
G1 X114.708 Y91.308 E0.04148
G1 X115.914 Y90.479 E0.04586
G1 X117.274 Y89.710 E0.04901
G1 X118.611 Y89.105 E0.04600
G1 X119.994 Y88.616 E0.04600
G1 X121.509 Y88.230 E0.04901
G1 X122.956 Y87.993 E0.04597
G1 X124.271 Y87.884 E0.04137
G1 X125.599 Y87.881 E0.04162
G1 X127.161 Y88.006 E0.04915
G1 X128.607 Y88.253 E0.04600
G1 X130.027 Y88.623 E0.04600
G1 X131.499 Y89.151 E0.04901
G1 X132.830 Y89.765 E0.04597
G1 X133.981 Y90.411 E0.04137
G1 X135.086 Y91.155 E0.04176
G1 X136.307 Y92.130 E0.04901
G1 X137.367 Y93.145 E0.04600
G1 X138.336 Y94.247 E0.04600
G1 X139.259 Y95.508 E0.04901
G1 X139.955 Y96.644 E0.04176
G1 X140.553 Y97.824 E0.04148
G1 X141.111 Y99.181 E0.04600
G1 X141.575 Y100.669 E0.04888
G1 X141.885 Y102.103 E0.04600
G1 X142.070 Y103.558 E0.04600
G1 X142.129 Y105.121 E0.04901
G1 X142.055 Y106.585 E0.04597
G1 X141.885 Y107.893 E0.04137
G1 X141.607 Y109.196 E0.04176
G1 X141.158 Y110.693 E0.04901
G1 X140.611 Y112.055 E0.04600
G1 X139.950 Y113.365 E0.04600
G1 X139.124 Y114.692 E0.04901
G1 X138.243 Y115.864 E0.04597
G1 X137.369 Y116.852 E0.04137
G1 X136.410 Y117.776 E0.04176
G1 X135.199 Y118.765 E0.04901
G1 X133.984 Y119.587 E0.04600
G1 X132.702 Y120.302 E0.04600
G1 X131.275 Y120.939 E0.04901
G1 X129.889 Y121.417 E0.04597
G1 X128.607 Y121.747 E0.04151
G1 X127.299 Y121.974 E0.04162
G1 X125.742 Y122.115 E0.04901
G1 X124.288 Y122.116 E0.04559
G1 X122.826 Y121.993 E0.04600
G1 X121.380 Y121.744 E0.04600
G1 X119.969 Y121.376 E0.04573
G1 X118.490 Y120.844 E0.04926
G1 X117.289 Y120.298 E0.04137
G1 X116.133 Y119.655 E0.04148
G1 X114.911 Y118.843 E0.04600
G1 X113.690 Y117.867 E0.04901
G1 X112.624 Y116.846 E0.04628
G1 X111.661 Y115.750 E0.04573
G1 X110.739 Y114.488 E0.04901
G1 X110.045 Y113.356 E0.04162
G1 X109.447 Y112.176 E0.04148
G1 X108.889 Y110.819 E0.04600
G1 X108.425 Y109.331 E0.04888
G1 X108.115 Y107.897 E0.04600
G1 X107.930 Y106.442 E0.04600
G1 X107.871 Y104.879 E0.04901
G1 X107.945 Y103.415 E0.04597
G1 X108.115 Y102.107 E0.04137
G1 X108.391 Y100.813 E0.04148
G1 X108.840 Y99.315 E0.04901
G1 X109.346 Y98.046 E0.04285
G1 X110.039 Y96.654 E0.04874
G1 X110.808 Y95.405 E0.04600
G1 X111.620 Y94.308 E0.04280
G1 X111.923 Y94.532 F7200.000
G1 F1500
G1 X112.987 Y93.324 E0.05046
G1 X113.929 Y92.425 E0.04086
G1 X114.945 Y91.601 E0.04099
G1 X116.124 Y90.792 E0.04484
G1 X117.448 Y90.044 E0.04767
G1 X118.755 Y89.453 E0.04498
G1 X120.104 Y88.977 E0.04485
G1 X121.577 Y88.601 E0.04767
G1 X122.988 Y88.369 E0.04485
G1 X124.287 Y88.261 E0.04086
G1 X125.598 Y88.258 E0.04112
G1 X127.118 Y88.380 E0.04780
G1 X128.528 Y88.621 E0.04485
G1 X129.916 Y88.983 E0.04498
G1 X131.343 Y89.495 E0.04754
G1 X132.646 Y90.095 E0.04497
G1 X133.786 Y90.734 E0.04099
G1 X134.874 Y91.467 E0.04112
G1 X136.061 Y92.416 E0.04767
G1 X137.094 Y93.406 E0.04485
G1 X138.042 Y94.483 E0.04498
G1 X138.940 Y95.709 E0.04767
G1 X139.681 Y96.932 E0.04485
G1 X140.266 Y98.097 E0.04086
G1 X140.759 Y99.317 E0.04125
G1 X141.211 Y100.768 E0.04767
G1 X141.513 Y102.166 E0.04485
G1 X141.695 Y103.589 E0.04498
G1 X141.752 Y105.104 E0.04754
G1 X141.681 Y106.537 E0.04497
G1 X141.514 Y107.829 E0.04086
G1 X141.239 Y109.116 E0.04125
G1 X140.801 Y110.572 E0.04767
G1 X140.268 Y111.899 E0.04485
G1 X139.622 Y113.180 E0.04498
G1 X138.818 Y114.471 E0.04767
G1 X137.960 Y115.615 E0.04485
G1 X137.094 Y116.594 E0.04099
G1 X136.149 Y117.503 E0.04112
G1 X134.971 Y118.464 E0.04767
G1 X133.786 Y119.266 E0.04485
G1 X132.534 Y119.965 E0.04498
G1 X131.149 Y120.583 E0.04754
G1 X129.794 Y121.052 E0.04497
G1 X128.532 Y121.378 E0.04086
G1 X127.236 Y121.603 E0.04125
G1 X125.721 Y121.739 E0.04767
G1 X124.299 Y121.739 E0.04459
G1 X122.874 Y121.619 E0.04485
G1 X121.460 Y121.376 E0.04498
G1 X120.084 Y121.017 E0.04459
G1 X118.646 Y120.500 E0.04793
G1 X117.455 Y119.959 E0.04099
G1 X116.317 Y119.326 E0.04086
G1 X115.126 Y118.533 E0.04484
G1 X113.939 Y117.584 E0.04767
G1 X112.900 Y116.588 E0.04510
G1 X111.958 Y115.517 E0.04472
G1 X111.060 Y114.291 E0.04767
G1 X110.319 Y113.068 E0.04485
G1 X109.732 Y111.899 E0.04099
G1 X109.241 Y110.683 E0.04112
G1 X108.789 Y109.232 E0.04767
G1 X108.487 Y107.834 E0.04485
G1 X108.305 Y106.411 E0.04498
G1 X108.248 Y104.896 E0.04754
G1 X108.319 Y103.463 E0.04497
G1 X108.487 Y102.167 E0.04099
G1 X108.759 Y100.892 E0.04086
G1 X109.197 Y99.436 E0.04767
G1 X109.693 Y98.191 E0.04202
G1 X110.368 Y96.838 E0.04741
G1 X111.120 Y95.616 E0.04498
G1 X111.887 Y94.580 E0.04043
G1 X112.190 Y94.804 F7200.000
G1 F1500
G1 X113.248 Y93.597 E0.05033
G1 X114.179 Y92.707 E0.04036
G1 X115.182 Y91.895 E0.04048
G1 X116.335 Y91.105 E0.04382
G1 X117.619 Y90.381 E0.04621
G1 X118.895 Y89.803 E0.04394
G1 X120.210 Y89.339 E0.04371
G1 X121.641 Y88.973 E0.04633
G1 X123.020 Y88.745 E0.04382
G1 X124.303 Y88.638 E0.04036
G1 X125.598 Y88.636 E0.04060
G1 X127.071 Y88.754 E0.04633
G1 X128.448 Y88.990 E0.04383
G1 X129.801 Y89.342 E0.04383
G1 X131.192 Y89.840 E0.04633
G1 X132.462 Y90.424 E0.04382
G1 X133.585 Y91.053 E0.04036
G1 X134.659 Y91.777 E0.04060
G1 X135.813 Y92.700 E0.04633
G1 X136.822 Y93.667 E0.04382
G1 X137.746 Y94.716 E0.04383
G1 X138.619 Y95.908 E0.04633
G1 X139.297 Y97.011 E0.04060
G1 X139.880 Y98.163 E0.04048
G1 X140.409 Y99.457 E0.04382
G1 X140.846 Y100.864 E0.04621
G1 X141.141 Y102.230 E0.04383
G1 X141.319 Y103.621 E0.04394
G1 X141.375 Y105.093 E0.04621
G1 X141.307 Y106.489 E0.04382
G1 X141.142 Y107.766 E0.04036
G1 X140.870 Y109.036 E0.04072
G1 X140.445 Y110.447 E0.04621
G1 X139.924 Y111.744 E0.04382
G1 X139.293 Y112.995 E0.04394
G1 X138.515 Y114.247 E0.04621
G1 X137.743 Y115.287 E0.04060
G1 X136.892 Y116.258 E0.04048
G1 X135.889 Y117.231 E0.04382
G1 X134.746 Y118.161 E0.04621
G1 X133.588 Y118.945 E0.04383
G1 X132.368 Y119.626 E0.04383
G1 X131.019 Y120.229 E0.04633
G1 X129.698 Y120.687 E0.04382
G1 X128.448 Y121.010 E0.04048
G1 X127.176 Y121.230 E0.04048
G1 X125.705 Y121.362 E0.04633
G1 X124.311 Y121.363 E0.04371
G1 X122.914 Y121.244 E0.04394
G1 X121.459 Y120.988 E0.04633
G1 X120.109 Y120.628 E0.04382
G1 X118.895 Y120.197 E0.04036
G1 X117.718 Y119.667 E0.04048
G1 X116.421 Y118.951 E0.04645
G1 X115.269 Y118.173 E0.04359
G1 X114.181 Y117.295 E0.04383
G1 X113.173 Y116.328 E0.04382
G1 X112.252 Y115.281 E0.04371
G1 X111.381 Y114.092 E0.04621
G1 X110.703 Y112.989 E0.04060
G1 X110.120 Y111.837 E0.04048
G1 X109.591 Y110.543 E0.04382
G1 X109.154 Y109.136 E0.04621
G1 X108.859 Y107.770 E0.04383
G1 X108.681 Y106.383 E0.04383
G1 X108.625 Y104.907 E0.04633
G1 X108.693 Y103.511 E0.04382
G1 X108.859 Y102.230 E0.04048
G1 X109.128 Y100.972 E0.04036
G1 X109.554 Y99.557 E0.04633
G1 X110.043 Y98.333 E0.04132
G1 X110.698 Y97.021 E0.04597
G1 X111.433 Y95.828 E0.04394
G1 X112.154 Y94.852 E0.03804
G1 F5760
G1 X113.248 Y93.597 E-0.57669
G1 F5760
G1 X113.630 Y93.231 E-0.18331
G1 E-0.04000 F2100.00000
G1 X118.803 Y99.802 F7200.000
G1 E0.80000 F2100.00000
G1 F1200
G1 X119.450 Y99.117 E0.02954
G1 X120.170 Y98.512 E0.02949
G1 X120.956 Y97.996 E0.02949
G1 X121.796 Y97.573 E0.02949
G1 X122.680 Y97.252 E0.02949
G1 X123.596 Y97.035 E0.02949
G1 X124.530 Y96.926 E0.02949
G1 X125.470 Y96.926 E0.02949
G1 X126.404 Y97.035 E0.02949
G1 X127.320 Y97.252 E0.02949
G1 X128.204 Y97.573 E0.02949
G1 X129.044 Y97.996 E0.02949
G1 X129.830 Y98.512 E0.02949
G1 X130.550 Y99.117 E0.02949
G1 X131.196 Y99.801 E0.02949
G1 X131.757 Y100.556 E0.02949
G1 X132.228 Y101.370 E0.02949
G1 X132.600 Y102.234 E0.02949
G1 X132.870 Y103.135 E0.02949
G1 X133.020 Y103.987 E0.02713
G1 X133.088 Y105.000 E0.03184
G1 X133.020 Y106.013 E0.03184
G1 X132.870 Y106.865 E0.02713
G1 X132.600 Y107.766 E0.02949
G1 X132.228 Y108.630 E0.02949
G1 X131.757 Y109.444 E0.02949
G1 X131.196 Y110.199 E0.02949
G1 X130.550 Y110.883 E0.02949
G1 X129.830 Y111.488 E0.02949
G1 X129.044 Y112.004 E0.02949
G1 X128.204 Y112.427 E0.02949
G1 X127.320 Y112.748 E0.02949
G1 X126.404 Y112.965 E0.02949
G1 X125.470 Y113.074 E0.02949
G1 X124.530 Y113.074 E0.02949
G1 X123.596 Y112.965 E0.02949
G1 X122.680 Y112.748 E0.02949
G1 X121.796 Y112.427 E0.02949
G1 X120.956 Y112.004 E0.02949
G1 X120.170 Y111.488 E0.02949
G1 X119.450 Y110.883 E0.02949
G1 X118.804 Y110.199 E0.02949
G1 X118.243 Y109.444 E0.02949
G1 X117.772 Y108.630 E0.02949
G1 X117.400 Y107.766 E0.02949
G1 X117.130 Y106.865 E0.02949
G1 X116.967 Y105.939 E0.02949
G1 X116.912 Y105.000 E0.02949
G1 X116.967 Y104.061 E0.02949
G1 X117.130 Y103.135 E0.02949
G1 X117.400 Y102.234 E0.02949
G1 X117.772 Y101.370 E0.02949
G1 X118.243 Y100.556 E0.02949
G1 X118.767 Y99.850 E0.02756
G1 X119.070 Y100.076 F7200.000
G1 F900
G1 X119.709 Y99.392 E0.02935
G1 X120.396 Y98.815 E0.02811
G1 X121.145 Y98.323 E0.02811
G1 X121.946 Y97.920 E0.02811
G1 X122.789 Y97.614 E0.02811
G1 X123.661 Y97.407 E0.02811
G1 X124.552 Y97.303 E0.02811
G1 X125.448 Y97.303 E0.02811
G1 X126.339 Y97.407 E0.02811
G1 X127.211 Y97.614 E0.02811
G1 X128.054 Y97.920 E0.02811
G1 X128.855 Y98.323 E0.02811
G1 X129.604 Y98.815 E0.02811
G1 X130.291 Y99.392 E0.02811
G1 X130.906 Y100.044 E0.02811
G1 X131.442 Y100.763 E0.02811
G1 X131.890 Y101.540 E0.02811
G1 X132.245 Y102.363 E0.02811
G1 X132.503 Y103.222 E0.02811
G1 X132.645 Y104.032 E0.02580
G1 X132.710 Y105.000 E0.03041
G1 X132.645 Y105.968 E0.03041
G1 X132.503 Y106.778 E0.02580
G1 X132.245 Y107.637 E0.02811
G1 X131.890 Y108.460 E0.02811
G1 X131.442 Y109.237 E0.02811
G1 X130.906 Y109.956 E0.02811
G1 X130.291 Y110.608 E0.02811
G1 X129.604 Y111.185 E0.02811
G1 X128.855 Y111.677 E0.02811
G1 X128.054 Y112.080 E0.02811
G1 X127.211 Y112.386 E0.02811
G1 X126.339 Y112.593 E0.02811
G1 X125.448 Y112.697 E0.02811
G1 X124.552 Y112.697 E0.02811
G1 X123.661 Y112.593 E0.02811
G1 X122.789 Y112.386 E0.02811
G1 X121.946 Y112.080 E0.02811
G1 X121.145 Y111.677 E0.02811
G1 X120.396 Y111.185 E0.02811
G1 X119.709 Y110.608 E0.02811
G1 X119.094 Y109.956 E0.02811
G1 X118.558 Y109.237 E0.02811
G1 X118.110 Y108.460 E0.02811
G1 X117.755 Y107.637 E0.02811
G1 X117.497 Y106.778 E0.02811
G1 X117.342 Y105.895 E0.02811
G1 X117.290 Y105.000 E0.02811
G1 X117.342 Y104.105 E0.02811
G1 X117.497 Y103.222 E0.02811
G1 X117.755 Y102.363 E0.02811
G1 X118.110 Y101.540 E0.02811
G1 X118.558 Y100.763 E0.02811
G1 X119.034 Y100.124 E0.02499
G1 X118.932 Y99.700 F7200.000
G1 F5760
G1 X119.709 Y99.392 E-0.34483
G1 F5760
G1 X120.396 Y98.815 E-0.31055
G1 F5760
G1 X120.648 Y98.649 E-0.10462
G1 E-0.04000 F2100.00000
G1 X114.755 Y96.358 F7200.000
G1 E0.80000 F2100.00000
G1 F1200
G1 X115.317 Y95.719 E0.02666
G1 X116.139 Y94.932 E0.03570
G1 X117.025 Y94.216 E0.03570
G1 X117.968 Y93.579 E0.03570
G1 X118.962 Y93.024 E0.03570
G1 X119.999 Y92.555 E0.03570
G1 X121.073 Y92.176 E0.03570
G1 X122.174 Y91.889 E0.03570
G1 X123.296 Y91.696 E0.03570
G1 X124.431 Y91.600 E0.03570
G1 X125.569 Y91.600 E0.03570
G1 X126.704 Y91.696 E0.03570
G1 X127.826 Y91.889 E0.03570
G1 X128.927 Y92.176 E0.03570
G1 X130.001 Y92.555 E0.03570
G1 X131.038 Y93.024 E0.03570
G1 X132.032 Y93.579 E0.03570
G1 X132.975 Y94.216 E0.03570
G1 X133.861 Y94.932 E0.03570
G1 X134.683 Y95.719 E0.03570
G1 X135.435 Y96.574 E0.03570
G1 X136.112 Y97.489 E0.03570
G1 X136.709 Y98.459 E0.03570
G1 X137.222 Y99.475 E0.03570
G1 X137.646 Y100.532 E0.03570
G1 X137.929 Y101.455 E0.03027
G1 X137.980 Y101.620 E0.00543
G1 X138.219 Y102.733 E0.03570
G1 X138.364 Y103.863 E0.03570
G1 X138.412 Y105.000 E0.03570
G1 X138.364 Y106.137 E0.03570
G1 X138.219 Y107.267 E0.03570
G1 X137.980 Y108.380 E0.03570
G1 X137.646 Y109.468 E0.03570
G1 X137.222 Y110.525 E0.03570
G1 X136.709 Y111.541 E0.03570
G1 X136.112 Y112.511 E0.03570
G1 X135.435 Y113.426 E0.03570
G1 X134.683 Y114.281 E0.03570
G1 X133.861 Y115.068 E0.03570
G1 X132.975 Y115.784 E0.03570
G1 X132.032 Y116.421 E0.03570
G1 X131.038 Y116.976 E0.03570
G1 X130.001 Y117.445 E0.03570
G1 X128.927 Y117.824 E0.03570
G1 X127.826 Y118.111 E0.03570
G1 X126.704 Y118.304 E0.03570
G1 X125.569 Y118.400 E0.03570
G1 X124.431 Y118.400 E0.03570
G1 X123.296 Y118.304 E0.03570
G1 X122.174 Y118.111 E0.03570
G1 X121.073 Y117.824 E0.03570
G1 X119.999 Y117.445 E0.03570
G1 X118.962 Y116.976 E0.03570
G1 X117.968 Y116.421 E0.03570
G1 X117.025 Y115.784 E0.03570
G1 X116.139 Y115.068 E0.03570
G1 X115.317 Y114.281 E0.03570
G1 X114.565 Y113.426 E0.03570
G1 X113.888 Y112.511 E0.03570
G1 X113.291 Y111.541 E0.03570
G1 X112.778 Y110.525 E0.03570
G1 X112.354 Y109.468 E0.03570
G1 X112.020 Y108.380 E0.03570
G1 X111.781 Y107.267 E0.03570
G1 X111.636 Y106.137 E0.03570
G1 X111.588 Y105.000 E0.03570
G1 X111.636 Y103.863 E0.03570
G1 X111.781 Y102.733 E0.03570
G1 X112.020 Y101.620 E0.03570
G1 X112.354 Y100.532 E0.03570
G1 X112.778 Y99.475 E0.03570
G1 X113.291 Y98.459 E0.03570
G1 X113.888 Y97.489 E0.03570
G1 X114.565 Y96.574 E0.03570
G1 X114.715 Y96.403 E0.00715
G1 X114.432 Y96.154 F7200.000
G1 F900
G1 X115.044 Y95.458 E0.02904
G1 X115.889 Y94.648 E0.03670
G1 X116.800 Y93.913 E0.03670
G1 X117.770 Y93.258 E0.03670
G1 X118.792 Y92.687 E0.03670
G1 X119.858 Y92.205 E0.03670
G1 X120.962 Y91.815 E0.03670
G1 X122.095 Y91.520 E0.03670
