; generated by Slic3r 1.2.9 on 2016-10-22 at 22:42:30

; external perimeters extrusion width = 0.40mm
; perimeters extrusion width = 0.48mm
; infill extrusion width = 0.48mm
; solid infill extrusion width = 0.48mm
; top infill extrusion width = 0.48mm

M107
M190 S60 ; set bed temperature
M104 S200 ; set temperature


M109 S200 ; wait for temperature to be reached
G21 ; set units to millimeters
G90 ; use absolute coordinates
M82 ; use absolute distances for extrusion
G92 E0
G1 E-4.00000 F840.00000
G92 E0
G1 Z0.500 F7800.000
G1 X68.895 Y97.412 F7800.000
G1 Z0.150 F7800.000
G1 E4.50000 F840.00000
G1 X69.733 Y96.868 E4.51669 F1800.000
G1 X70.480 Y96.451 E4.53097
G1 X71.018 Y96.186 E4.54099
G1 X71.567 Y95.943 E4.55102
G1 X72.452 Y95.610 E4.56682
G1 X73.270 Y95.359 E4.58110
G1 X73.852 Y95.213 E4.59112
G1 X74.440 Y95.092 E4.60115
G1 X75.375 Y94.952 E4.61694
G1 X75.966 Y94.896 E4.62686
G1 X76.572 Y94.865 E4.63700
G1 X137.167 Y94.859 E5.64900
G1 X137.773 Y94.879 E5.65913 F1800.000
G1 X138.371 Y94.925 E5.66916
G1 X138.968 Y94.996 E5.67918
G1 X139.560 Y95.092 E5.68921
G1 X140.148 Y95.213 E5.69923
G1 X140.730 Y95.359 E5.70926
G1 X141.862 Y95.720 E5.72910
G1 X142.433 Y95.943 E5.73934
G1 X142.982 Y96.186 E5.74936
G1 X144.030 Y96.729 E5.76907
G1 X144.550 Y97.042 E5.77920
G1 X145.062 Y97.381 E5.78946
G1 X145.547 Y97.734 E5.79949
G1 X146.018 Y98.107 E5.80952
G1 X146.460 Y98.488 E5.81927
G1 X146.909 Y98.910 E5.82956
G1 X147.316 Y99.327 E5.83929
G1 X147.729 Y99.787 E5.84962
G1 X148.111 Y100.251 E5.85965
G1 X148.472 Y100.730 E5.86967
G1 X148.812 Y101.225 E5.87970
G1 X149.132 Y101.733 E5.88973
G1 X149.429 Y102.254 E5.89975
G1 X149.704 Y102.788 E5.90978
G1 X149.956 Y103.333 E5.91980
G1 X150.185 Y103.888 E5.92983
G1 X150.391 Y104.453 E5.93987
G1 X150.641 Y105.269 E5.95412
G1 X150.787 Y105.852 E5.96417
G1 X150.908 Y106.440 E5.97419
G1 X151.004 Y107.033 E5.98422
G1 X151.075 Y107.629 E5.99424
G1 X151.121 Y108.227 E6.00426
G1 X151.142 Y109.000 E6.01718
G1 X151.142 Y131.000 E6.38461
G1 X150.745 Y133.513 E6.42710
G1 X149.591 Y135.781 E6.46960
G1 X147.794 Y137.582 E6.51209
G1 X145.528 Y138.740 E6.55459
G1 X143.000 Y139.142 E6.59734
G1 X71.000 Y139.142 E7.79984
G1 X68.487 Y138.745 E7.84234
G1 X66.219 Y137.591 E7.88483
G1 X64.418 Y135.794 E7.92733
G1 X63.260 Y133.528 E7.96982
G1 X62.858 Y131.000 E8.01258
G1 X62.858 Y109.000 E8.38001
G1 X62.896 Y107.973 E8.39717
G1 X62.996 Y107.033 E8.41297
G1 X63.092 Y106.440 E8.42300
G1 X63.213 Y105.852 E8.43302
G1 X63.429 Y105.025 E8.44730
G1 X63.611 Y104.448 E8.45740
G1 X63.943 Y103.567 E8.47312
G1 X64.296 Y102.788 E8.48740
G1 X64.739 Y101.953 E8.50320
G1 X65.049 Y101.439 E8.51323
G1 X65.528 Y100.730 E8.52750
G1 X65.893 Y100.247 E8.53763
G1 X66.499 Y99.528 E8.55333
G1 X67.091 Y98.911 E8.56761
G1 X67.529 Y98.498 E8.57766
G1 X68.251 Y97.889 E8.59343
G1 X68.846 Y97.447 E8.60582
G1 X69.049 Y97.631 F7800.000
G1 X69.869 Y97.099 E8.62212 F1800.000
G1 X70.605 Y96.688 E8.63621
G1 X71.133 Y96.427 E8.64605
G1 X71.672 Y96.190 E8.65589
G1 X72.536 Y95.864 E8.67130
G1 X73.343 Y95.617 E8.68539
G1 X74.491 Y95.355 E8.70506
G1 X75.404 Y95.218 E8.72048
G1 X75.983 Y95.163 E8.73020
G1 X76.578 Y95.133 E8.74015
G1 X137.161 Y95.127 E9.75197
G1 X137.756 Y95.147 E9.76190 F1800.000
G1 X138.343 Y95.191 E9.77174
G1 X138.928 Y95.261 E9.78158
G1 X139.509 Y95.355 E9.79141
G1 X140.086 Y95.474 E9.80125
G1 X140.657 Y95.617 E9.81109
G1 X141.768 Y95.971 E9.83055
G1 X142.328 Y96.190 E9.84059
G1 X142.867 Y96.427 E9.85043
G1 X143.895 Y96.960 E9.86977
G1 X144.405 Y97.267 E9.87971
G1 X144.907 Y97.600 E9.88977
G1 X145.845 Y98.311 E9.90944
G1 X146.279 Y98.686 E9.91901
G1 X146.720 Y99.100 E9.92911
G1 X147.119 Y99.509 E9.93865
G1 X147.524 Y99.960 E9.94878
G1 X147.899 Y100.415 E9.95862
G1 X148.253 Y100.885 E9.96846
G1 X148.587 Y101.370 E9.97829
G1 X148.901 Y101.869 E9.98813
G1 X149.463 Y102.904 E10.00780
G1 X149.935 Y103.983 E10.02747
G1 X150.136 Y104.537 E10.03732
G1 X150.383 Y105.342 E10.05138
G1 X150.526 Y105.914 E10.06123
G1 X150.645 Y106.491 E10.07106
G1 X150.739 Y107.072 E10.08090
G1 X150.809 Y107.657 E10.09074
G1 X150.853 Y108.244 E10.10057
G1 X150.875 Y109.000 E10.11320
G1 X150.875 Y131.000 E10.48063
G1 X150.477 Y133.470 E10.52242
G1 X149.325 Y135.691 E10.56420
G1 X147.534 Y137.438 E10.60599
G1 X145.286 Y138.536 E10.64777
G1 X143.000 Y138.875 E10.68637
G1 X71.000 Y138.875 E11.88886
G1 X68.530 Y138.477 E11.93065
G1 X66.309 Y137.325 E11.97244
G1 X64.562 Y135.534 E12.01422
G1 X63.464 Y133.286 E12.05601
G1 X63.125 Y131.000 E12.09460
G1 X63.125 Y109.000 E12.46203
G1 X63.163 Y107.990 E12.47891
G1 X63.261 Y107.072 E12.49433
G1 X63.355 Y106.491 E12.50416
G1 X63.532 Y105.667 E12.51824
G1 X63.686 Y105.098 E12.52809
G1 X63.865 Y104.532 E12.53800
G1 X64.190 Y103.672 E12.55334
G1 X64.537 Y102.904 E12.56743
G1 X64.970 Y102.088 E12.58285
G1 X65.274 Y101.584 E12.59269
G1 X65.747 Y100.885 E12.60677
G1 X66.105 Y100.410 E12.61670
G1 X66.696 Y99.709 E12.63203
G1 X67.280 Y99.100 E12.64612
G1 X67.710 Y98.695 E12.65598
G1 X68.415 Y98.101 E12.67137
G1 X69.001 Y97.665 E12.68357
G1 X69.204 Y97.849 F7800.000
G1 X70.004 Y97.330 E12.69950 F1800.000
G1 X70.731 Y96.924 E12.71339
G1 X71.777 Y96.436 E12.73268
G1 X72.620 Y96.118 E12.74772
G1 X73.416 Y95.875 E12.76162
G1 X74.542 Y95.618 E12.78091
G1 X75.432 Y95.485 E12.79595
G1 X76.584 Y95.400 E12.81523
G1 X137.156 Y95.395 E13.82687
G1 X138.315 Y95.458 E13.84625 F1800.000
G1 X139.458 Y95.618 E13.86554
G1 X140.584 Y95.875 E13.88483
G1 X141.673 Y96.222 E13.90392
G1 X142.751 Y96.669 E13.92341
G1 X143.760 Y97.192 E13.94238
G1 X144.260 Y97.492 E13.95213
G1 X144.752 Y97.818 E13.96199
G1 X145.673 Y98.516 E13.98128
G1 X146.530 Y99.289 E14.00056
G1 X147.320 Y100.133 E14.01985
G1 X148.035 Y101.040 E14.03914
G1 X148.670 Y102.004 E14.05843
G1 X149.221 Y103.019 E14.07772
G1 X149.684 Y104.077 E14.09701
G1 X149.882 Y104.621 E14.10667
G1 X150.125 Y105.415 E14.12054
G1 X150.382 Y106.541 E14.13984
G1 X150.542 Y107.685 E14.15913
G1 X150.586 Y108.261 E14.16878
G1 X150.607 Y109.000 E14.18112
G1 X150.607 Y131.000 E14.54855
G1 X150.209 Y133.426 E14.58962
G1 X149.059 Y135.599 E14.63068
G1 X147.275 Y137.292 E14.67175
G1 X145.045 Y138.327 E14.71281
G1 X143.000 Y138.607 E14.74728
G1 X71.000 Y138.607 E15.94978
G1 X68.574 Y138.209 E15.99084
G1 X66.401 Y137.059 E16.03191
G1 X64.708 Y135.275 E16.07297
G1 X63.673 Y133.045 E16.11404
G1 X63.393 Y131.000 E16.14851
G1 X63.393 Y109.000 E16.51594
G1 X63.430 Y108.007 E16.53254
G1 X63.526 Y107.112 E16.54757
G1 X63.618 Y106.542 E16.55722
G1 X63.793 Y105.727 E16.57113
G1 X64.038 Y104.862 E16.58616
G1 X64.315 Y104.078 E16.60004
G1 X64.536 Y103.543 E16.60971
G1 X64.924 Y102.731 E16.62474
G1 X65.201 Y102.224 E16.63439
G1 X65.499 Y101.729 E16.64403
G1 X65.965 Y101.040 E16.65793
G1 X66.317 Y100.574 E16.66767
G1 X66.894 Y99.890 E16.68262
G1 X67.470 Y99.289 E16.69652
G1 X67.891 Y98.893 E16.70619
G1 X68.579 Y98.313 E16.72120
G1 X69.155 Y97.884 E16.73321
G1 X69.359 Y98.068 F7800.000
G1 X70.140 Y97.561 E16.74875 F1800.000
G1 X70.856 Y97.161 E16.76246
G1 X71.883 Y96.682 E16.78137
G1 X72.704 Y96.373 E16.79603
G1 X73.489 Y96.132 E16.80974
G1 X74.592 Y95.881 E16.82865
G1 X75.460 Y95.751 E16.84331
G1 X76.590 Y95.668 E16.86222
G1 X137.150 Y95.662 E17.87366
G1 X138.286 Y95.724 E17.89266 F1800.000
G1 X139.408 Y95.881 E17.91157
G1 X140.511 Y96.132 E17.93048
G1 X141.579 Y96.472 E17.94920
G1 X142.636 Y96.911 E17.96830
G1 X143.625 Y97.423 E17.98690
G1 X144.598 Y98.037 E18.00612
G1 X145.500 Y98.721 E18.02503
G1 X146.341 Y99.479 E18.04393
G1 X147.115 Y100.305 E18.06284
G1 X147.816 Y101.194 E18.08176
G1 X148.439 Y102.140 E18.10067
G1 X148.980 Y103.135 E18.11958
G1 X149.434 Y104.172 E18.13848
G1 X149.628 Y104.704 E18.14795
G1 X149.868 Y105.488 E18.16163
G1 X150.119 Y106.592 E18.18055
G1 X150.276 Y107.714 E18.19946
G1 X150.319 Y108.278 E18.20892
G1 X150.339 Y109.000 E18.22098
G1 X150.339 Y131.000 E18.58841
G1 X149.942 Y133.382 E18.62874
G1 X148.793 Y135.506 E18.66907
G1 X147.017 Y137.142 E18.70940
G1 X144.806 Y138.113 E18.74973
G1 X143.000 Y138.339 E18.78013
G1 X71.000 Y138.339 E19.98263
G1 X68.618 Y137.942 E20.02296
G1 X66.494 Y136.793 E20.06329
G1 X64.858 Y135.017 E20.10362
G1 X63.887 Y132.806 E20.14395
G1 X63.661 Y131.000 E20.17435
G1 X63.663 Y108.844 E20.54438
G1 X63.697 Y108.024 E20.55809
G1 X63.790 Y107.152 E20.57275
G1 X63.929 Y106.342 E20.58646
G1 X64.054 Y105.789 E20.59593
G1 X64.293 Y104.946 E20.61057
G1 X64.566 Y104.172 E20.62427
G1 X64.783 Y103.648 E20.63374
G1 X65.161 Y102.856 E20.64840
G1 X65.561 Y102.140 E20.66210
G1 X65.865 Y101.656 E20.67164
G1 X66.369 Y100.944 E20.68622
G1 X66.885 Y100.305 E20.69993
G1 X67.479 Y99.659 E20.71459
G1 X68.072 Y99.090 E20.72832
G1 X68.742 Y98.525 E20.74295
G1 X69.310 Y98.103 E20.75477
G1 X69.513 Y98.287 F7800.000
G1 X70.275 Y97.792 E20.76994 F1800.000
G1 X70.982 Y97.397 E20.78346
G1 X71.753 Y97.029 E20.79774
G1 X72.788 Y96.627 E20.81627
G1 X73.562 Y96.390 E20.82979
G1 X74.643 Y96.144 E20.84831
G1 X75.489 Y96.017 E20.86259
G1 X76.595 Y95.936 E20.88112
G1 X137.145 Y95.930 E21.89238
G1 X138.258 Y95.990 E21.91100 F1800.000
G1 X139.357 Y96.144 E21.92953
G1 X140.439 Y96.390 E21.94806
G1 X141.485 Y96.723 E21.96640
G1 X142.520 Y97.152 E21.98512
G1 X143.490 Y97.654 E22.00335
G1 X144.443 Y98.256 E22.02218
G1 X145.327 Y98.926 E22.04071
G1 X146.152 Y99.668 E22.05923
G1 X146.910 Y100.478 E22.07776
G1 X147.597 Y101.349 E22.09629
G1 X148.208 Y102.275 E22.11483
G1 X148.738 Y103.250 E22.13336
G1 X149.183 Y104.266 E22.15188
G1 X149.373 Y104.788 E22.16116
G1 X149.610 Y105.561 E22.17466
G1 X149.856 Y106.643 E22.19320
G1 X150.010 Y107.742 E22.21173
G1 X150.051 Y108.295 E22.22099
G1 X150.071 Y109.000 E22.23277
G1 X150.071 Y131.000 E22.60020
G1 X149.674 Y133.337 E22.63978
G1 X148.527 Y135.411 E22.67936
G1 X146.759 Y136.989 E22.71894
G1 X144.569 Y137.895 E22.75853
G1 X143.000 Y138.071 E22.78490
G1 X71.000 Y138.071 E23.98740
G1 X68.663 Y137.674 E24.02698
G1 X66.589 Y136.527 E24.06656
G1 X65.011 Y134.759 E24.10615
G1 X64.105 Y132.569 E24.14573
G1 X63.929 Y131.000 E24.17210
G1 X63.930 Y108.850 E24.54204
G1 X63.965 Y108.041 E24.55556
G1 X64.055 Y107.191 E24.56984
G1 X64.192 Y106.393 E24.58336
G1 X64.314 Y105.851 E24.59264
G1 X64.547 Y105.029 E24.60690
G1 X64.817 Y104.267 E24.62041
G1 X65.029 Y103.753 E24.62969
G1 X65.397 Y102.982 E24.64397
G1 X65.792 Y102.275 E24.65748
G1 X66.090 Y101.802 E24.66683
G1 X66.581 Y101.108 E24.68103
G1 X67.090 Y100.478 E24.69455
G1 X67.668 Y99.848 E24.70883
G1 X68.254 Y99.287 E24.72237
G1 X68.906 Y98.737 E24.73663
G1 X69.464 Y98.321 E24.74825
G1 X69.668 Y98.505 F7800.000
G1 X70.411 Y98.023 E24.76304 F1800.000
G1 X71.108 Y97.634 E24.77637
G1 X71.858 Y97.275 E24.79027
G1 X72.871 Y96.881 E24.80842
G1 X73.634 Y96.648 E24.82175
G1 X74.694 Y96.407 E24.83990
G1 X75.517 Y96.283 E24.85380
G1 X76.601 Y96.204 E24.87195
G1 X137.139 Y96.198 E25.88302
G1 X138.230 Y96.256 E25.90125 F1800.000
G1 X139.306 Y96.407 E25.91940
G1 X140.366 Y96.648 E25.93756
G1 X141.402 Y96.978 E25.95572
G1 X142.142 Y97.275 E25.96903
G1 X142.635 Y97.504 E25.97811
G1 X143.589 Y98.023 E25.99626
G1 X144.496 Y98.621 E26.01441
G1 X145.349 Y99.295 E26.03256
G1 X146.153 Y100.048 E26.05095
G1 X146.870 Y100.845 E26.06886
G1 X147.533 Y101.723 E26.08723
G1 X148.106 Y102.631 E26.10516
G1 X148.606 Y103.595 E26.12331
G1 X148.825 Y104.093 E26.13238
G1 X149.112 Y104.850 E26.14591
G1 X149.419 Y105.887 E26.16398
G1 X149.638 Y106.950 E26.18210
G1 X149.768 Y108.058 E26.20073
G1 X149.803 Y109.000 E26.21648
G1 X149.803 Y131.000 E26.58391
G1 X149.406 Y133.290 E26.62273
G1 X148.262 Y135.313 E26.66155
G1 X146.503 Y136.833 E26.70037
G1 X144.335 Y137.671 E26.73919
G1 X143.000 Y137.803 E26.76159
G1 X71.000 Y137.803 E27.96409
G1 X68.710 Y137.406 E28.00291
G1 X66.687 Y136.262 E28.04173
G1 X65.167 Y134.503 E28.08055
G1 X64.329 Y132.335 E28.11937
G1 X64.197 Y131.000 E28.14177
G1 X64.204 Y108.601 E28.51586
G1 X64.256 Y107.774 E28.52970
G1 X64.358 Y106.980 E28.54308
G1 X64.455 Y106.444 E28.55217
G1 X64.648 Y105.634 E28.56607
G1 X64.881 Y104.872 E28.57938
G1 X65.068 Y104.359 E28.58851
G1 X65.394 Y103.595 E28.60237
G1 X65.753 Y102.883 E28.61570
G1 X66.175 Y102.165 E28.62960
G1 X66.621 Y101.504 E28.64293
G1 X66.952 Y101.066 E28.65208
G1 X67.485 Y100.434 E28.66590
G1 X68.038 Y99.857 E28.67923
G1 X68.435 Y99.485 E28.68833
G1 X69.070 Y98.949 E28.70221
G1 X69.619 Y98.540 E28.71365
G1 X69.823 Y98.724 F7800.000
G1 X70.546 Y98.254 E28.72806 F1800.000
G1 X71.233 Y97.870 E28.74120
G1 X72.198 Y97.421 E28.75897
G1 X72.955 Y97.136 E28.77249
G1 X73.707 Y96.905 E28.78563
G1 X74.745 Y96.670 E28.80339
G1 X75.546 Y96.550 E28.81691
G1 X76.607 Y96.471 E28.83468
G1 X137.134 Y96.466 E29.84557
G1 X138.201 Y96.523 E29.86342 F1800.000
G1 X139.255 Y96.670 E29.88119
G1 X140.293 Y96.905 E29.89896
G1 X141.045 Y97.136 E29.91210
G1 X141.545 Y97.318 E29.92099
G1 X142.519 Y97.746 E29.93876
G1 X143.220 Y98.117 E29.95201
G1 X143.681 Y98.394 E29.96098
G1 X144.565 Y99.005 E29.97893
G1 X145.376 Y99.674 E29.99649
G1 X146.135 Y100.417 E30.01423
G1 X146.839 Y101.234 E30.03225
G1 X147.462 Y102.096 E30.05002
G1 X148.010 Y103.008 E30.06778
G1 X148.479 Y103.963 E30.08555
G1 X148.865 Y104.956 E30.10334
G1 X149.095 Y105.707 E30.11645
G1 X149.224 Y106.224 E30.12536
G1 X149.415 Y107.270 E30.14313
G1 X149.501 Y108.075 E30.15664
G1 X149.536 Y109.000 E30.17210
G1 X149.536 Y131.000 E30.53953
G1 X149.139 Y133.243 E30.57757
G1 X147.996 Y135.213 E30.61561
G1 X146.247 Y136.672 E30.65366
G1 X143.000 Y137.536 E30.70976
G1 X71.000 Y137.536 E31.91226
G1 X68.757 Y137.139 E31.95030
G1 X66.787 Y135.996 E31.98835
G1 X65.328 Y134.247 E32.02639
G1 X64.464 Y131.000 E32.08250
G1 X64.471 Y108.607 E32.45650
G1 X64.522 Y107.802 E32.46996
G1 X64.623 Y107.019 E32.48314
G1 X64.718 Y106.495 E32.49204
G1 X64.905 Y105.707 E32.50556
G1 X65.135 Y104.956 E32.51869
G1 X65.319 Y104.453 E32.52762
G1 X65.636 Y103.711 E32.54111
G1 X65.990 Y103.008 E32.55425
G1 X66.400 Y102.310 E32.56777
G1 X66.840 Y101.658 E32.58090
G1 X67.164 Y101.230 E32.58987
G1 X67.683 Y100.615 E32.60331
G1 X68.227 Y100.047 E32.61645
G1 X68.616 Y99.682 E32.62536
G1 X69.234 Y99.161 E32.63886
G1 X69.774 Y98.758 E32.65010
G1 X69.977 Y98.942 F7800.000
G1 X70.682 Y98.485 E32.66413 F1800.000
G1 X71.359 Y98.107 E32.67708
G1 X72.069 Y97.768 E32.69022
G1 X73.039 Y97.390 E32.70761
G1 X73.780 Y97.163 E32.72056
G1 X74.796 Y96.933 E32.73795
G1 X75.574 Y96.816 E32.75109
G1 X76.612 Y96.739 E32.76848
G1 X137.128 Y96.734 E33.77918
G1 X138.173 Y96.789 E33.79665 F1800.000
G1 X139.204 Y96.933 E33.81404
G1 X140.220 Y97.163 E33.83143
G1 X140.961 Y97.390 E33.84438
G1 X141.450 Y97.569 E33.85308
G1 X142.404 Y97.987 E33.87047
G1 X143.085 Y98.348 E33.88335
G1 X143.536 Y98.619 E33.89213
G1 X144.401 Y99.217 E33.90970
G1 X145.195 Y99.871 E33.92688
G1 X145.938 Y100.598 E33.94425
G1 X146.627 Y101.398 E33.96187
G1 X147.237 Y102.241 E33.97926
G1 X147.774 Y103.134 E33.99665
G1 X148.232 Y104.069 E34.01404
G1 X148.610 Y105.040 E34.03144
G1 X148.837 Y105.780 E34.04437
G1 X148.963 Y106.286 E34.05308
G1 X149.150 Y107.310 E34.07047
G1 X149.233 Y108.092 E34.08361
G1 X149.268 Y109.000 E34.09878
G1 X149.268 Y131.000 E34.46621
G1 X148.871 Y133.195 E34.50346
G1 X147.731 Y135.112 E34.54071
G1 X145.992 Y136.508 E34.57796
G1 X143.000 Y137.268 E34.62951
G1 X71.000 Y137.268 E35.83201
G1 X68.805 Y136.871 E35.86925
G1 X66.888 Y135.731 E35.90650
G1 X65.492 Y133.992 E35.94375
G1 X64.732 Y131.000 E35.99530
G1 X64.739 Y108.612 E36.36921
G1 X64.789 Y107.830 E36.38230
G1 X64.887 Y107.059 E36.39528
G1 X64.981 Y106.546 E36.40400
G1 X65.163 Y105.780 E36.41713
G1 X65.390 Y105.040 E36.43007
G1 X65.569 Y104.548 E36.43881
G1 X65.877 Y103.826 E36.45192
G1 X66.226 Y103.134 E36.46487
G1 X66.625 Y102.455 E36.47801
G1 X66.912 Y102.021 E36.48671
G1 X67.375 Y101.394 E36.49973
G1 X67.880 Y100.796 E36.51280
G1 X68.416 Y100.236 E36.52575
G1 X68.797 Y99.879 E36.53446
G1 X69.398 Y99.373 E36.54758
G1 X69.928 Y98.977 E36.55864
G1 F6240
G1 X70.682 Y98.485 E36.44355
G1 F6240
G1 X71.359 Y98.107 E36.34439
G1 F6240
G1 X72.069 Y97.768 E36.24378
G1 F6240
G1 X73.039 Y97.390 E36.11061
G1 F6240
G1 X73.780 Y97.163 E36.01145
G1 F6240
