; generated by Slic3r 1.2.9 on 2016-10-24 at 09:11:39

; external perimeters extrusion width = 0.40mm
; perimeters extrusion width = 0.48mm
; infill extrusion width = 0.48mm
; solid infill extrusion width = 0.48mm
; top infill extrusion width = 0.48mm

M107
M190 S60 ; set bed temperature
M104 S200 ; set temperature


M109 S200 ; wait for temperature to be reached
G21 ; set units to millimeters
G90 ; use absolute coordinates
M82 ; use absolute distances for extrusion
G92 E0
G1 E-4.00000 F840.00000
G92 E0
G1 Z0.500 F6000.000
G1 X67.838 Y81.552 F6000.000
G1 Z0.150 F6000.000
G1 E4.50000 F840.00000
G1 X69.493 Y80.571 E4.53214 F1800.000
G1 X71.000 Y80.322 E4.55765
G1 X143.000 Y80.322 E5.76014
G1 X144.883 Y80.718 E5.79228
G1 X146.448 Y81.838 E5.82442 F1800.000
G1 X147.429 Y83.493 E5.85655
G1 X147.678 Y85.000 E5.88206
G1 X147.677 Y107.092 E6.25103
G1 X146.672 Y144.324 E6.87308
G1 X146.628 Y144.972 E6.88392
G1 X146.485 Y145.919 E6.89993
G1 X146.250 Y146.845 E6.91589
G1 X145.926 Y147.738 E6.93174
G1 X145.616 Y148.406 E6.94404
G1 X145.142 Y149.230 E6.95992
G1 X144.587 Y150.008 E6.97588
G1 X144.127 Y150.547 E6.98772
G1 X143.446 Y151.218 E7.00368
G1 X142.703 Y151.818 E7.01964
G1 X141.904 Y152.343 E7.03560
G1 X141.266 Y152.686 E7.04771
G1 X140.388 Y153.065 E7.06367
G1 X139.480 Y153.354 E7.07960
G1 X138.786 Y153.511 E7.09147
G1 X137.839 Y153.641 E7.10743
G1 X137.000 Y153.678 E7.12146
G1 X76.638 Y153.671 E8.12960
G1 X75.686 Y153.588 E8.14556
G1 X74.746 Y153.411 E8.16152
G1 X74.064 Y153.221 E8.17335
G1 X73.168 Y152.886 E8.18932
G1 X72.310 Y152.465 E8.20528
G1 X71.500 Y151.962 E8.22121
G1 X70.740 Y151.380 E8.23720
G1 X70.043 Y150.727 E8.25316
G1 X69.413 Y150.007 E8.26912
G1 X68.858 Y149.230 E8.28508
G1 X68.382 Y148.402 E8.30103
G1 X68.075 Y147.742 E8.31318
G1 X67.750 Y146.845 E8.32911
G1 X67.567 Y146.161 E8.34095
G1 X67.400 Y145.220 E8.35691
G1 X67.328 Y144.324 E8.37192
G1 X66.323 Y107.092 E8.99397
G1 X66.322 Y85.000 E9.36294
G1 X66.718 Y83.117 E9.39507
G1 X67.803 Y81.601 E9.42621
G1 X68.066 Y81.723 F6000.000
G1 X68.101 Y81.677 E9.42716 F1800.000
G1 X69.736 Y80.775 E9.45836
G1 X71.000 Y80.590 E9.47969
G1 X143.000 Y80.590 E10.68219
G1 X144.825 Y80.985 E10.71338
G1 X146.323 Y82.101 E10.74457 F1800.000
G1 X147.225 Y83.736 E10.77577
G1 X147.410 Y85.000 E10.79710
G1 X147.409 Y107.086 E11.16597
G1 X146.405 Y144.317 E11.78799
G1 X146.362 Y144.941 E11.79845
G1 X146.223 Y145.863 E11.81401
G1 X145.995 Y146.763 E11.82953
G1 X145.681 Y147.631 E11.84495
G1 X145.376 Y148.287 E11.85702
G1 X144.915 Y149.088 E11.87246
G1 X144.375 Y149.844 E11.88798
G1 X143.932 Y150.363 E11.89938
G1 X143.271 Y151.016 E11.91489
G1 X142.548 Y151.600 E11.93041
G1 X141.771 Y152.110 E11.94593
G1 X141.145 Y152.448 E11.95782
G1 X140.291 Y152.815 E11.97334
G1 X139.408 Y153.096 E11.98882
G1 X138.740 Y153.247 E12.00025
G1 X137.820 Y153.374 E12.01577
G1 X137.000 Y153.410 E12.02948
G1 X76.644 Y153.403 E13.03750
G1 X75.719 Y153.322 E13.05302
G1 X74.805 Y153.150 E13.06854
G1 X74.146 Y152.966 E13.07997
G1 X73.277 Y152.642 E13.09546
G1 X72.443 Y152.233 E13.11097
G1 X71.655 Y151.744 E13.12646
G1 X70.916 Y151.178 E13.14201
G1 X70.238 Y150.543 E13.15753
G1 X69.625 Y149.844 E13.17305
G1 X69.085 Y149.088 E13.18857
G1 X68.622 Y148.283 E13.20408
G1 X68.321 Y147.635 E13.21600
G1 X68.005 Y146.763 E13.23149
G1 X67.829 Y146.104 E13.24289
G1 X67.666 Y145.189 E13.25841
G1 X67.595 Y144.317 E13.27303
G1 X66.591 Y107.087 E13.89505
G1 X66.590 Y85.000 E14.26393
G1 X66.985 Y83.175 E14.29512
G1 X68.031 Y81.771 E14.32435
G1 X68.291 Y81.897 F6000.000
G1 X68.363 Y81.805 E14.32630 F1800.000
G1 X69.976 Y80.986 E14.35652
G1 X71.000 Y80.858 E14.37375
G1 X143.000 Y80.858 E15.57625
G1 X144.766 Y81.253 E15.60647
G1 X146.195 Y82.363 E15.63669 F1800.000
G1 X147.014 Y83.976 E15.66691
G1 X147.142 Y85.000 E15.68414
G1 X147.142 Y107.081 E16.05293
G1 X146.137 Y144.309 E16.67492
G1 X146.096 Y144.911 E16.68499
G1 X145.962 Y145.806 E16.70011
G1 X145.740 Y146.681 E16.71519
G1 X145.435 Y147.525 E16.73017
G1 X145.136 Y148.168 E16.74201
G1 X144.688 Y148.946 E16.75701
G1 X144.163 Y149.680 E16.77209
G1 X143.737 Y150.179 E16.78304
G1 X143.095 Y150.814 E16.79812
G1 X142.393 Y151.382 E16.81320
G1 X141.639 Y151.878 E16.82827
G1 X141.024 Y152.209 E16.83994
G1 X140.194 Y152.566 E16.85501
G1 X139.336 Y152.838 E16.87006
G1 X138.694 Y152.983 E16.88105
G1 X137.800 Y153.107 E16.89613
G1 X137.000 Y153.142 E16.90950
G1 X76.651 Y153.135 E17.91741
G1 X75.751 Y153.056 E17.93249
G1 X74.864 Y152.889 E17.94756
G1 X74.233 Y152.713 E17.95852
G1 X73.386 Y152.397 E17.97360
G1 X72.576 Y152.000 E17.98868
G1 X71.810 Y151.526 E18.00373
G1 X71.092 Y150.976 E18.01883
G1 X70.432 Y150.359 E18.03391
G1 X69.837 Y149.680 E18.04899
G1 X69.312 Y148.946 E18.06406
G1 X68.862 Y148.164 E18.07913
G1 X68.567 Y147.529 E18.09083
G1 X68.260 Y146.681 E18.10588
G1 X68.090 Y146.048 E18.11684
G1 X67.932 Y145.159 E18.13192
G1 X67.863 Y144.309 E18.14615
G1 X66.858 Y107.081 E18.76814
G1 X66.858 Y85.000 E19.13693
G1 X67.253 Y83.234 E19.16715
G1 X68.255 Y81.945 E19.19442
G1 X68.512 Y82.077 F6000.000
G1 X68.624 Y81.939 E19.19739 F1800.000
G1 X71.000 Y81.125 E19.23933
G1 X143.000 Y81.125 E20.44183
G1 X144.704 Y81.520 E20.47104
G1 X146.061 Y82.624 E20.50025 F1800.000
G1 X146.875 Y85.000 E20.54220
G1 X146.874 Y107.076 E20.91089
G1 X145.869 Y144.302 E21.53285
G1 X145.830 Y144.881 E21.54254
G1 X145.700 Y145.750 E21.55721
G1 X145.485 Y146.599 E21.57184
G1 X145.189 Y147.419 E21.58639
G1 X144.897 Y148.049 E21.59800
G1 X144.461 Y148.804 E21.61256
G1 X143.951 Y149.517 E21.62720
G1 X143.542 Y149.996 E21.63771
G1 X142.919 Y150.612 E21.65235
G1 X142.238 Y151.163 E21.66698
G1 X141.506 Y151.645 E21.68162
G1 X140.903 Y151.970 E21.69306
G1 X140.097 Y152.316 E21.70770
G1 X139.264 Y152.580 E21.72230
G1 X138.648 Y152.720 E21.73285
G1 X137.780 Y152.840 E21.74749
G1 X137.000 Y152.875 E21.76052
G1 X76.657 Y152.867 E22.76833
G1 X75.784 Y152.790 E22.78296
G1 X74.923 Y152.628 E22.79760
G1 X74.315 Y152.458 E22.80815
G1 X73.496 Y152.153 E22.82275
G1 X72.709 Y151.767 E22.83739
G1 X71.965 Y151.307 E22.85200
G1 X71.267 Y150.774 E22.86666
G1 X70.627 Y150.175 E22.88129
G1 X70.049 Y149.517 E22.89593
G1 X69.539 Y148.804 E22.91056
G1 X69.102 Y148.046 E22.92519
G1 X68.812 Y147.422 E22.93667
G1 X68.515 Y146.599 E22.95128
G1 X68.352 Y145.991 E22.96179
G1 X68.198 Y145.129 E22.97643
G1 X68.131 Y144.302 E22.99028
G1 X67.126 Y107.076 E23.61223
G1 X67.125 Y85.000 E23.98093
G1 X67.520 Y83.296 E24.01015
G1 X68.474 Y82.124 E24.03539
G1 X68.728 Y82.262 F6000.000
G1 X68.885 Y82.079 E24.03942 F1800.000
G1 X71.000 Y81.393 E24.07655
G1 X143.000 Y81.393 E25.27905
G1 X144.640 Y81.788 E25.30722
G1 X145.921 Y82.885 E25.33540 F1800.000
G1 X146.607 Y85.000 E25.37253
G1 X146.606 Y107.071 E25.74114
G1 X145.602 Y144.295 E26.36307
G1 X145.564 Y144.851 E26.37237
G1 X145.438 Y145.693 E26.38660
G1 X145.230 Y146.517 E26.40079
G1 X144.943 Y147.312 E26.41490
G1 X144.657 Y147.930 E26.42628
G1 X144.234 Y148.662 E26.44041
G1 X143.739 Y149.353 E26.45460
G1 X143.347 Y149.812 E26.46467
G1 X142.743 Y150.410 E26.47887
G1 X142.083 Y150.945 E26.49306
G1 X141.373 Y151.412 E26.50725
G1 X140.781 Y151.731 E26.51848
G1 X140.000 Y152.066 E26.53267
G1 X139.192 Y152.322 E26.54683
G1 X138.602 Y152.456 E26.55694
G1 X137.760 Y152.573 E26.57113
G1 X137.000 Y152.607 E26.58384
G1 X76.664 Y152.600 E27.59153
G1 X75.817 Y152.525 E27.60573
G1 X74.982 Y152.366 E27.61992
G1 X74.401 Y152.205 E27.62999
G1 X73.605 Y151.908 E27.64419
G1 X72.841 Y151.535 E27.65838
G1 X72.120 Y151.089 E27.67255
G1 X71.443 Y150.572 E27.68677
G1 X70.822 Y149.992 E27.70096
G1 X70.261 Y149.353 E27.71516
G1 X69.766 Y148.662 E27.72935
G1 X69.342 Y147.927 E27.74354
G1 X69.058 Y147.315 E27.75479
G1 X68.770 Y146.517 E27.76896
G1 X68.614 Y145.935 E27.77904
G1 X68.464 Y145.098 E27.79323
G1 X68.398 Y144.295 E27.80669
G1 X67.394 Y107.071 E28.42861
G1 X67.393 Y85.000 E28.79722
G1 X67.788 Y83.360 E28.82540
G1 X68.689 Y82.307 E28.84854
G1 X68.938 Y82.452 F6000.000
G1 X69.144 Y82.224 E28.85367 F1800.000
G1 X71.000 Y81.661 E28.88606
G1 X143.000 Y81.661 E30.08856
G1 X144.574 Y82.055 E30.11565
G1 X145.776 Y83.144 E30.14274 F1800.000
G1 X146.339 Y85.000 E30.17514
G1 X146.338 Y107.065 E30.54366
G1 X145.334 Y144.288 E31.16555
G1 X145.298 Y144.821 E31.17447
G1 X145.176 Y145.637 E31.18825
G1 X144.975 Y146.435 E31.20201
G1 X144.698 Y147.206 E31.21568
G1 X144.417 Y147.811 E31.22682
G1 X144.007 Y148.521 E31.24051
G1 X143.527 Y149.190 E31.25427
G1 X143.152 Y149.628 E31.26390
G1 X142.567 Y150.208 E31.27765
G1 X141.928 Y150.727 E31.29140
G1 X141.240 Y151.180 E31.30515
G1 X140.660 Y151.492 E31.31616
G1 X139.903 Y151.817 E31.32991
G1 X139.120 Y152.064 E31.34364
G1 X138.556 Y152.192 E31.35329
G1 X137.740 Y152.306 E31.36705
G1 X137.000 Y152.339 E31.37942
G1 X76.671 Y152.332 E32.38700
G1 X75.850 Y152.259 E32.40076
G1 X75.042 Y152.105 E32.41451
G1 X74.486 Y151.950 E32.42414
G1 X73.714 Y151.664 E32.43789
G1 X72.974 Y151.302 E32.45165
G1 X72.275 Y150.870 E32.46538
G1 X71.619 Y150.370 E32.47915
G1 X71.017 Y149.808 E32.49290
G1 X70.473 Y149.190 E32.50666
G1 X69.993 Y148.521 E32.52041
G1 X69.582 Y147.808 E32.53415
G1 X69.304 Y147.209 E32.54518
G1 X69.025 Y146.435 E32.55891
G1 X68.876 Y145.878 E32.56855
G1 X68.730 Y145.068 E32.58230
G1 X68.666 Y144.288 E32.59537
G1 X67.662 Y107.066 E33.21726
G1 X67.661 Y85.000 E33.58578
G1 X68.055 Y83.426 E33.61287
G1 X68.897 Y82.496 E33.63383
G1 X69.141 Y82.648 F6000.000
G1 X69.402 Y82.377 E33.64011 F1800.000
G1 X71.000 Y81.929 E33.66784
G1 X143.000 Y81.929 E34.87033
G1 X144.504 Y82.322 E34.89630
G1 X145.623 Y83.402 E34.92226 F1800.000
G1 X146.071 Y85.000 E34.94999
G1 X146.071 Y107.060 E35.31842
G1 X145.066 Y144.280 E35.94028
G1 X145.032 Y144.790 E35.94881
G1 X144.914 Y145.580 E35.96215
G1 X144.720 Y146.353 E35.97546
G1 X144.452 Y147.099 E35.98870
G1 X144.177 Y147.692 E35.99961
G1 X143.779 Y148.379 E36.01286
G1 X143.315 Y149.026 E36.02618
G1 X142.957 Y149.445 E36.03537
G1 X142.391 Y150.006 E36.04868
G1 X141.892 Y150.419 E36.05950
G1 X141.237 Y150.869 E36.07277
G1 X140.539 Y151.253 E36.08608
G1 X139.807 Y151.567 E36.09939
G1 X139.048 Y151.806 E36.11267
G1 X138.510 Y151.928 E36.12189
G1 X137.720 Y152.038 E36.13520
G1 X137.000 Y152.071 E36.14725
G1 X76.677 Y152.064 E37.15472
G1 X75.883 Y151.993 E37.16803
G1 X75.101 Y151.844 E37.18134
G1 X74.570 Y151.696 E37.19053
G1 X73.823 Y151.419 E37.20384
G1 X73.107 Y151.070 E37.21715
G1 X72.430 Y150.652 E37.23044
G1 X71.795 Y150.168 E37.24377
G1 X71.212 Y149.624 E37.25708
G1 X70.685 Y149.026 E37.27039
G1 X70.220 Y148.379 E37.28371
G1 X69.822 Y147.689 E37.29701
G1 X69.549 Y147.102 E37.30782
G1 X69.280 Y146.353 E37.32111
G1 X69.138 Y145.822 E37.33030
G1 X68.996 Y145.038 E37.34361
G1 X68.934 Y144.280 E37.35629
G1 X67.929 Y107.060 E37.97815
G1 X67.929 Y85.000 E38.34658
G1 X68.322 Y83.496 E38.37255
G1 X69.099 Y82.691 E38.39123
G1 X69.335 Y82.850 F6000.000
G1 X69.658 Y82.539 E38.39872 F1800.000
G1 X71.000 Y82.197 E38.42185
G1 X143.000 Y82.197 E39.62435
G1 X144.431 Y82.589 E39.64913
G1 X145.461 Y83.658 E39.67392 F1800.000
G1 X145.803 Y85.000 E39.69705
G1 X145.803 Y107.055 E40.06540
G1 X144.799 Y144.273 E40.68722
G1 X144.766 Y144.760 E40.69537
G1 X144.653 Y145.524 E40.70827
G1 X144.465 Y146.271 E40.72114
G1 X144.206 Y146.993 E40.73394
G1 X143.937 Y147.573 E40.74462
G1 X143.552 Y148.237 E40.75744
G1 X143.102 Y148.863 E40.77031
G1 X142.762 Y149.261 E40.77905
G1 X142.216 Y149.804 E40.79192
G1 X141.618 Y150.290 E40.80479
G1 X140.975 Y150.715 E40.81766
G1 X140.418 Y151.014 E40.82822
G1 X139.710 Y151.317 E40.84109
G1 X138.976 Y151.548 E40.85393
G1 X138.464 Y151.664 E40.86271
G1 X137.701 Y151.771 E40.87558
G1 X137.000 Y151.803 E40.88729
G1 X76.684 Y151.796 E41.89465
G1 X75.916 Y151.727 E41.90752
G1 X75.160 Y151.583 E41.92039
G1 X74.653 Y151.442 E41.92917
G1 X73.932 Y151.175 E41.94201
G1 X73.240 Y150.837 E41.95488
G1 X72.585 Y150.433 E41.96773
G1 X71.971 Y149.966 E41.98061
G1 X71.407 Y149.441 E41.99348
G1 X70.898 Y148.863 E42.00635
G1 X70.448 Y148.237 E42.01922
G1 X70.062 Y147.570 E42.03208
G1 X69.795 Y146.996 E42.04267
G1 X69.535 Y146.271 E42.05552
G1 X69.399 Y145.765 E42.06427
G1 X69.262 Y145.007 E42.07714
G1 X69.201 Y144.273 E42.08944
G1 X68.197 Y107.055 E42.71126
G1 X68.197 Y85.000 E43.07961
G1 X68.589 Y83.569 E43.10439
G1 X69.292 Y82.891 E43.12070
G1 X69.520 Y83.057 F6000.000
G1 X69.912 Y82.710 E43.12945 F1800.000
G1 X71.000 Y82.464 E43.14808
G1 X143.000 Y82.464 E44.35058
G1 X144.355 Y82.856 E44.37413
G1 X145.290 Y83.912 E44.39768 F1800.000
G1 X145.536 Y85.000 E44.41632
G1 X145.535 Y107.050 E44.78458
G1 X144.531 Y144.266 E45.40636
G1 X144.500 Y144.730 E45.41413
G1 X144.391 Y145.468 E45.42658
G1 X144.210 Y146.189 E45.43901
G1 X143.960 Y146.887 E45.45138
G1 X143.697 Y147.454 E45.46182
G1 X143.325 Y148.095 E45.47420
G1 X142.890 Y148.699 E45.48663
G1 X142.568 Y149.077 E45.49494
G1 X142.040 Y149.602 E45.50736
G1 X141.463 Y150.071 E45.51979
G1 X140.842 Y150.482 E45.53222
G1 X140.297 Y150.776 E45.54256
G1 X139.613 Y151.068 E45.55499
G1 X138.904 Y151.290 E45.56739
G1 X138.418 Y151.401 E45.57572
G1 X137.681 Y151.504 E45.58815
G1 X137.000 Y151.536 E45.59953
G1 X76.690 Y151.529 E46.60678
G1 X75.949 Y151.462 E46.61921
G1 X75.219 Y151.322 E46.63164
G1 X74.739 Y151.188 E46.63995
G1 X74.042 Y150.930 E46.65237
G1 X73.372 Y150.604 E46.66480
G1 X72.740 Y150.215 E46.67721
G1 X72.147 Y149.764 E46.68965
G1 X71.602 Y149.257 E46.70208
G1 X71.110 Y148.699 E46.71451
G1 X70.675 Y148.095 E46.72694
G1 X70.302 Y147.452 E46.73936
G1 X70.041 Y146.889 E46.74972
G1 X69.790 Y146.189 E46.76213
G1 X69.661 Y145.709 E46.77044
G1 X69.528 Y144.977 E46.78286
G1 X69.469 Y144.266 E46.79478
G1 X68.465 Y107.050 E47.41656
G1 X68.464 Y85.000 E47.78482
G1 X68.856 Y83.645 E47.80838
G1 X69.475 Y83.097 E47.82218
G1 X69.691 Y83.271 F6000.000
G1 X70.162 Y82.893 E47.83226 F1800.000
G1 X71.000 Y82.732 E47.84651
G1 X143.000 Y82.732 E49.04901
G1 X144.273 Y83.123 E49.07126
G1 X145.107 Y84.162 E49.09350 F1800.000
G1 X145.268 Y85.000 E49.10776
G1 X145.268 Y107.000 E49.47518
G1 X144.263 Y144.259 E50.09768
G1 X144.234 Y144.700 E50.10507
G1 X144.129 Y145.411 E50.11707
G1 X143.955 Y146.107 E50.12906
G1 X143.715 Y146.780 E50.14099
G1 X143.457 Y147.335 E50.15120
G1 X143.098 Y147.953 E50.16315
G1 X142.678 Y148.535 E50.17513
G1 X142.373 Y148.894 E50.18300
G1 X141.864 Y149.400 E50.19498
G1 X141.396 Y149.787 E50.20513
G1 X140.805 Y150.192 E50.21709
G1 X140.176 Y150.537 E50.22907
G1 X139.516 Y150.818 E50.24106
G1 X138.833 Y151.032 E50.25301
G1 X138.372 Y151.137 E50.26091
G1 X137.661 Y151.237 E50.27290
G1 X137.000 Y151.268 E50.28395
G1 X76.697 Y151.261 E51.29109
G1 X75.982 Y151.196 E51.30307
G1 X75.278 Y151.060 E51.31506
G1 X74.823 Y150.934 E51.32294
G1 X74.151 Y150.685 E51.33491
G1 X73.505 Y150.372 E51.34690
G1 X72.895 Y149.997 E51.35887
G1 X72.409 Y149.633 E51.36900
G1 X71.875 Y149.153 E51.38099
G1 X71.392 Y148.622 E51.39297
G1 X71.104 Y148.248 E51.40086
G1 X70.714 Y147.647 E51.41282
G1 X70.385 Y147.010 E51.42481
G1 X70.121 Y146.342 E51.43679
G1 X69.923 Y145.652 E51.44878
G1 X69.795 Y144.946 E51.46077
G1 X69.737 Y144.259 E51.47229
G1 X68.732 Y107.000 E52.09479
G1 X68.732 Y85.000 E52.46222
G1 X69.123 Y83.727 E52.48447
G1 X69.644 Y83.308 E52.49562
G1 F4800
G1 X70.162 Y82.893 E52.38523
G1 F4800
G1 X71.000 Y82.732 E52.24337
G1 F4800
G1 X92.340 Y82.732 E48.69562
G1 E48.49562 F840.00000
G92 E0
G1 Z0.650 F6000.000
G1 X84.898 Y100.259 F6000.000
G1 Z0.150 F6000.000
G1 E4.50000 F840.00000
G1 X129.102 Y100.259 E5.23828 F1800.000
G1 X129.259 Y100.102 E5.24198
G1 X129.259 Y84.279 E5.50626
G1 X130.279 Y83.259 E5.53034
G1 X136.721 Y83.259 E5.63793
G1 X136.889 Y83.427 E5.64190
G1 X137.111 Y83.427 E5.64561
G1 X137.279 Y83.259 E5.64958
G1 X143.721 Y83.259 E5.75717
G1 X144.741 Y84.279 E5.78125
G1 X144.741 Y107.009 E6.16087
G1 X144.708 Y107.716 E6.17270
G1 X144.594 Y108.499 E6.18591
G1 X144.435 Y109.154 E6.19717
G1 X144.325 Y109.502 E6.20327
G1 X144.045 Y110.207 E6.21593
G1 X143.693 Y110.889 E6.22875
G1 X143.293 Y111.507 E6.24105
G1 X143.071 Y111.802 E6.24720
G1 X142.628 Y112.314 E6.25852
G1 X142.064 Y112.854 E6.27156
G1 X141.778 Y113.090 E6.27775
