; generated by Slic3r 1.35.5-prusa3d-linux64 on 2017-10-28 at 14:14:20

; 

; external perimeters extrusion width = 0.45mm
; perimeters extrusion width = 0.45mm
; infill extrusion width = 0.45mm
; solid infill extrusion width = 0.45mm
; top infill extrusion width = 0.45mm
; first layer extrusion width = 0.42mm

M107
M104 S215 ; set extruder temp
M140 S50 ; set bed temp
M190 S50 ; wait for bed temp
M109 S215 ; wait for extruder temp
G90
M82 ; use absolute distances for extrusion
G92 E0
G0 X10.0 Y4.0 Z0.2 F2000
G1 Y4.0 F1000.0 ; go outside pritn area
G1 X70.0 E9  F1000.0 ; intro line
G1 X100.0 E12.5  F1000.0 ; intro line

; Filament gcode

G21 ; set units to millimeters
G90 ; use absolute coordinates
M82 ; use absolute distances for extrusion
G92 E0
G1 E-4.00000 F1440.00000
G92 E0
G1 Z0.500 F9000.000
G1 X88.487 Y85.945 F9000.000
G1 Z0.200 F9000.000
G1 E4.00000 F1440.00000
M204 S3000
G1 F1500
G1 X89.184 Y85.382 E4.02809
G1 X89.983 Y84.976 E4.05619
G1 X90.719 Y84.770 E4.08015
G1 X91.480 Y84.698 E4.10410
G1 X158.505 Y84.697 E6.20564
G1 X159.712 Y84.873 E6.24389
G1 X160.824 Y85.387 E6.28230
G1 X161.745 Y86.196 E6.32071
G1 X162.397 Y87.233 E6.35912
G1 X168.647 Y107.541 E7.02535
G1 X168.761 Y108.425 E7.05329
G1 X168.762 Y112.491 E7.18078
G1 X168.588 Y113.657 E7.21776
G1 X168.206 Y114.557 E7.24840
G1 X167.628 Y115.345 E7.27904
G1 X166.887 Y115.982 E7.30968
G1 X166.015 Y116.434 E7.34048
G1 X136.262 Y127.121 E8.33171
G1 X135.149 Y127.310 E8.36711
G1 X130.878 Y127.311 E8.50104
G1 X130.039 Y127.203 E8.52755
G1 X84.389 Y116.565 E9.99721
G1 X83.459 Y116.192 E10.02864
G1 X82.641 Y115.612 E10.06007
G1 X81.982 Y114.857 E10.09151
G1 X81.515 Y113.964 E10.12310
G1 X81.314 Y113.253 E10.14626
G1 X81.238 Y112.518 E10.16942
G1 X81.240 Y108.387 E10.29895
G1 X81.408 Y107.332 E10.33244
G1 X87.519 Y87.435 E10.98506
G1 X87.923 Y86.641 E11.01300
G1 X88.449 Y85.991 E11.03921
G1 X88.741 Y86.227 F9000.000
G1 F1500
G1 X89.399 Y85.692 E11.06581
G1 X90.138 Y85.321 E11.09171
G1 X90.798 Y85.138 E11.11322
G1 X91.486 Y85.075 E11.13487
G1 X158.505 Y85.075 E13.23620
G1 X159.614 Y85.238 E13.27134
G1 X160.634 Y85.713 E13.30664
G1 X161.472 Y86.458 E13.34179
G1 X162.065 Y87.415 E13.37709
G1 X168.281 Y107.630 E14.04021
G1 X168.384 Y108.440 E14.06582
G1 X168.385 Y112.479 E14.19246
G1 X168.236 Y113.517 E14.22534
G1 X167.888 Y114.351 E14.25367
G1 X167.357 Y115.083 E14.28201
G1 X166.668 Y115.674 E14.31049
G1 X165.864 Y116.088 E14.33883
G1 X136.152 Y126.761 E15.32871
G1 X135.128 Y126.933 E15.36129
G1 X130.893 Y126.934 E15.49407
G1 X130.126 Y126.836 E15.51831
G1 X84.496 Y116.203 E16.98734
G1 X83.643 Y115.863 E17.01614
G1 X82.890 Y115.328 E17.04508
G1 X82.285 Y114.632 E17.07402
G1 X81.861 Y113.812 E17.10296
G1 X81.682 Y113.170 E17.12385
G1 X81.615 Y112.507 E17.14475
G1 X81.616 Y108.408 E17.27326
G1 X81.769 Y107.439 E17.30402
G1 X87.866 Y87.586 E17.95519
G1 X88.236 Y86.852 E17.98094
G1 X88.703 Y86.274 E18.00427
G1 X88.995 Y86.510 F9000.000
G1 F1500
G1 X89.610 Y86.004 E18.02922
G1 X90.284 Y85.669 E18.05283
G1 X90.877 Y85.507 E18.07210
G1 X91.489 Y85.452 E18.09137
G1 X158.505 Y85.452 E20.19259
G1 X159.513 Y85.601 E20.22454
G1 X160.439 Y86.036 E20.25664
G1 X161.201 Y86.720 E20.28873
G1 X161.732 Y87.595 E20.32083
G1 X167.912 Y107.711 E20.98063
G1 X168.008 Y108.453 E21.00409
G1 X168.008 Y112.469 E21.13000
G1 X167.885 Y113.374 E21.15865
G1 X167.572 Y114.144 E21.18470
G1 X167.088 Y114.819 E21.21076
G1 X166.458 Y115.361 E21.23681
G1 X165.718 Y115.740 E21.26287
G1 X136.042 Y126.400 E22.25157
G1 X135.109 Y126.557 E22.28123
G1 X130.912 Y126.557 E22.41281
G1 X130.211 Y126.468 E22.43497
G1 X84.601 Y115.841 E23.90336
G1 X83.824 Y115.532 E23.92955
G1 X83.140 Y115.045 E23.95590
G1 X82.593 Y114.414 E23.98210
G1 X82.209 Y113.666 E24.00844
G1 X82.051 Y113.091 E24.02713
G1 X81.992 Y112.498 E24.04583
G1 X81.993 Y108.428 E24.17345
G1 X82.129 Y107.552 E24.20123
G1 X88.213 Y87.734 E24.85123
G1 X88.550 Y87.061 E24.87483
G1 X88.958 Y86.556 E24.89518
G1 F7200
G1 X89.610 Y86.004 E24.73278
G1 F7200
G1 X90.284 Y85.669 E24.58975
G1 F7200
G1 X90.877 Y85.507 E24.47296
G1 F7200
G1 X91.489 Y85.452 E24.35618
G1 F7200
G1 X108.652 Y85.452 E21.09518
G1 E20.89518 F1440.00000
G92 E0
G1 Z0.700 F9000.000
G1 X90.425 Y86.019 F9000.000
G1 Z0.200 F9000.000
G1 E4.00000 F1440.00000
G1 F1500
G1 X91.491 Y85.829 E4.03396
G1 X158.504 Y85.829 E6.13510
G1 X159.413 Y85.965 E6.16392
G1 X160.244 Y86.359 E6.19274
G1 X160.924 Y86.977 E6.22156
G1 X161.395 Y87.766 E6.25037
G1 X167.545 Y107.797 E6.90735
G1 X167.631 Y108.468 E6.92855
G1 X167.631 Y112.459 E7.05369
G1 X167.531 Y113.237 E7.07830
G1 X167.254 Y113.939 E7.10196
G1 X166.818 Y114.555 E7.12561
G1 X166.248 Y115.048 E7.14927
G1 X165.575 Y115.391 E7.17292
G1 X135.930 Y126.040 E8.16057
G1 X135.088 Y126.180 E8.18735
G1 X130.930 Y126.180 E8.31772
G1 X130.294 Y126.101 E8.33783
G1 X84.709 Y115.480 E9.80539
G1 X84.007 Y115.202 E9.82904
G1 X83.392 Y114.766 E9.85270
G1 X82.899 Y114.194 E9.87635
G1 X82.558 Y113.521 E9.90001
G1 X82.369 Y112.486 E9.93302
G1 X82.370 Y108.446 E10.05967
G1 X82.490 Y107.662 E10.08455
G1 X88.559 Y87.884 E10.73320
G1 X88.861 Y87.274 E10.75455
G1 X89.285 Y86.747 E10.77575
G1 X89.815 Y86.321 E10.79709
G1 X90.371 Y86.046 E10.81655
G1 X90.537 Y86.384 F9000.000
G1 F1500
G1 X91.495 Y86.206 E10.84710
G1 X158.504 Y86.206 E12.94814
G1 X159.308 Y86.327 E12.97362
G1 X160.045 Y86.680 E12.99924
G1 X160.643 Y87.230 E13.02473
G1 X161.056 Y87.935 E13.05034
G1 X167.177 Y107.880 E13.70449
G1 X167.254 Y108.476 E13.72334
G1 X167.254 Y112.450 E13.84794
G1 X167.176 Y113.100 E13.86846
G1 X166.936 Y113.735 E13.88974
G1 X166.548 Y114.292 E13.91103
G1 X166.035 Y114.737 E13.93231
G1 X165.431 Y115.042 E13.95353
G1 X135.823 Y125.678 E14.93998
G1 X135.073 Y125.803 E14.96381
G1 X130.943 Y125.804 E15.09331
G1 X130.378 Y125.733 E15.11115
G1 X84.811 Y115.117 E16.57812
G1 X84.191 Y114.873 E16.59903
G1 X83.644 Y114.485 E16.62006
G1 X83.209 Y113.979 E16.64096
G1 X82.908 Y113.380 E16.66199
G1 X82.746 Y112.476 E16.69078
G1 X82.747 Y108.464 E16.81660
G1 X82.851 Y107.772 E16.83852
G1 X88.910 Y88.024 E17.48619
G1 X89.177 Y87.481 E17.50518
G1 X89.556 Y87.009 E17.52417
G1 X90.026 Y86.633 E17.54303
G1 X90.483 Y86.410 E17.55896
G1 X90.706 Y86.719 F9000.000
G1 F1500
G1 X91.494 Y86.583 E17.58404
G1 X158.504 Y86.583 E19.68509
G1 X159.205 Y86.690 E19.70734
G1 X159.844 Y86.999 E19.72958
G1 X160.363 Y87.483 E19.75183
G1 X160.716 Y88.099 E19.77408
G1 X166.778 Y107.846 E20.42177
G1 X166.877 Y108.477 E20.44177
G1 X166.875 Y112.541 E20.56922
G1 X166.782 Y113.115 E20.58745
G1 X166.550 Y113.652 E20.60579
G1 X166.036 Y114.265 E20.63087
G1 X165.343 Y114.673 E20.65607
G1 X135.793 Y125.291 E21.64059
G1 X135.035 Y125.427 E21.66473
G1 X130.970 Y125.427 E21.79221
G1 X130.467 Y125.367 E21.80806
G1 X84.909 Y114.752 E23.27478
G1 X84.368 Y114.540 E23.29300
G1 X83.897 Y114.205 E23.31111
G1 X83.519 Y113.764 E23.32934
G1 X83.259 Y113.244 E23.34757
G1 X83.123 Y112.471 E23.37218
G1 X83.123 Y108.479 E23.49732
G1 X83.212 Y107.882 E23.51626
G1 X89.260 Y88.165 E24.16289
G1 X89.488 Y87.693 E24.17934
G1 X89.818 Y87.280 E24.19590
G1 X90.231 Y86.950 E24.21247
G1 X90.652 Y86.746 E24.22715
G1 F7200
G1 X91.494 Y86.583 E24.06419
G1 F7200
G1 X110.636 Y86.583 E20.42715
G1 E20.22715 F1440.00000
G92 E0
G1 Z0.700 F9000.000
G1 X138.283 Y97.950 F9000.000
G1 Z0.200 F9000.000
G1 E4.00000 F1440.00000
G1 F900
G1 X138.513 Y97.091 E4.02787
G1 X139.141 Y96.463 E4.05575
G1 X140.000 Y96.233 E4.08362
G1 X140.859 Y96.463 E4.11149
G1 X141.487 Y97.091 E4.13937
G1 X141.717 Y97.950 E4.16724
G1 X141.487 Y98.809 E4.19512
G1 X140.859 Y99.437 E4.22299
G1 X140.000 Y99.667 E4.25086
G1 X139.141 Y99.437 E4.27874
G1 X138.513 Y98.809 E4.30661
G1 X138.298 Y98.008 E4.33260
G1 X137.936 Y97.750 F9000.000
G1 F7200
G1 X138.513 Y97.091 E4.15373
G1 F7200
G1 X139.141 Y96.463 E3.98483
G1 F7200
G1 X140.000 Y96.233 E3.81592
G1 F7200
G1 X140.859 Y96.463 E3.64700
G1 F7200
G1 X141.487 Y97.091 E3.47811
G1 F7200
G1 X141.717 Y97.950 E3.30920
G1 F7200
G1 X141.487 Y98.809 E3.14028
G1 F7200
G1 X140.859 Y99.437 E2.97139
G1 F7200
G1 X140.000 Y99.667 E2.80248
G1 F7200
G1 X139.141 Y99.437 E2.63356
G1 F7200
G1 X138.513 Y98.809 E2.46467
G1 F7200
G1 X138.298 Y98.008 E2.30715
G1 E0.33260 F1440.00000
G92 E0
G1 Z0.700 F9000.000
G1 X137.587 Y106.437 F9000.000
G1 Z0.200 F9000.000
G1 E4.00000 F1440.00000
G1 F1500
G1 X137.587 Y96.047 E4.32577
G1 X139.024 Y96.047 E4.37082
G1 X138.175 Y96.896 E4.40847
G1 X137.892 Y97.950 E4.44268
G1 X138.175 Y99.004 E4.47689
G1 X138.946 Y99.775 E4.51110
G1 X140.000 Y100.058 E4.54531
G1 X141.054 Y99.775 E4.57952
G1 X141.825 Y99.004 E4.61372
G1 X142.108 Y97.950 E4.64793
G1 X141.825 Y96.896 E4.68214
G1 X140.976 Y96.047 E4.71979
G1 X142.413 Y96.047 E4.76484
G1 X142.413 Y106.437 E5.09061
G1 X147.834 Y106.437 E5.26058
G1 X148.035 Y106.214 E5.26998
G1 X149.795 Y104.935 E5.33822
G1 X150.185 Y104.761 E5.35161
G1 X151.197 Y103.750 E5.39646
G1 X152.006 Y102.595 E5.44067
G1 X152.601 Y101.317 E5.48488
G1 X152.966 Y99.955 E5.52910
G1 X153.073 Y98.737 E5.56742
G1 X153.087 Y98.737 E5.56786
G1 X153.087 Y89.547 E5.85601
G1 X157.913 Y89.547 E6.00732
G1 X157.913 Y103.915 E6.45781
G1 X160.205 Y104.935 E6.53647
G1 X161.965 Y106.214 E6.60470
G1 X163.422 Y107.831 E6.67293
G1 X163.913 Y108.682 E6.70374
G1 X163.913 Y111.863 E6.80347
G1 X162.819 Y111.863 E6.83776
G1 X162.008 Y109.904 E6.90424
G1 X160.722 Y108.228 E6.97048
G1 X159.038 Y106.939 E7.03697
G1 X157.094 Y106.134 E7.10294
G1 X155.000 Y105.858 E7.16917
G1 X152.906 Y106.134 E7.23540
G1 X150.954 Y106.942 E7.30164
G1 X149.278 Y108.228 E7.36788
G1 X147.992 Y109.904 E7.43411
G1 X147.181 Y111.863 E7.50059
G1 X146.087 Y111.863 E7.53488
G1 X146.087 Y110.263 E7.58505
G1 X134.413 Y110.263 E7.95108
G1 X134.413 Y122.463 E8.33361
G1 X131.587 Y122.463 E8.42221
G1 X131.587 Y110.263 E8.80473
G1 X103.913 Y110.263 E9.67243
G1 X103.913 Y111.863 E9.72260
G1 X102.819 Y111.863 E9.75689
G1 X102.008 Y109.904 E9.82337
G1 X100.722 Y108.228 E9.88961
G1 X99.046 Y106.942 E9.95584
G1 X97.094 Y106.134 E10.02208
G1 X95.000 Y105.858 E10.08831
G1 X92.906 Y106.134 E10.15454
G1 X90.954 Y106.942 E10.22078
G1 X89.278 Y108.228 E10.28702
G1 X87.992 Y109.904 E10.35325
G1 X87.181 Y111.863 E10.41973
G1 X86.087 Y111.863 E10.45402
G1 X86.087 Y108.682 E10.55375
G1 X86.578 Y107.831 E10.58456
G1 X88.035 Y106.214 E10.65279
G1 X89.795 Y104.935 E10.72102
G1 X92.087 Y103.915 E10.79969
G1 X92.087 Y89.547 E11.25017
G1 X96.913 Y89.547 E11.40148
G1 X96.913 Y98.737 E11.68963
G1 X96.927 Y98.737 E11.69007
G1 X97.034 Y99.955 E11.72840
G1 X97.399 Y101.317 E11.77261
G1 X97.994 Y102.595 E11.81682
G1 X98.803 Y103.750 E11.86103
G1 X99.815 Y104.761 E11.90588
G1 X100.205 Y104.935 E11.91927
G1 X101.965 Y106.214 E11.98751
G1 X102.166 Y106.437 E11.99691
G1 X137.527 Y106.437 E13.10563
G1 X137.210 Y106.060 F9000.000
G1 F1200
G1 X137.210 Y95.670 E13.43140
G1 X142.790 Y95.670 E13.60636
G1 X142.790 Y106.060 E13.93213
G1 X147.666 Y106.060 E14.08501
G1 X147.781 Y105.932 E14.09040
G1 X149.606 Y104.607 E14.16112
G1 X149.968 Y104.445 E14.17355
G1 X150.907 Y103.506 E14.21518
G1 X151.678 Y102.405 E14.25733
G1 X152.246 Y101.187 E14.29947
G1 X152.594 Y99.889 E14.34161
G1 X152.711 Y98.550 E14.38375
G1 X152.694 Y98.360 E14.38973
G1 X152.710 Y98.360 E14.39023
G1 X152.710 Y89.170 E14.67838
G1 X158.290 Y89.170 E14.85333
G1 X158.290 Y103.670 E15.30796
G1 X160.394 Y104.607 E15.38019
G1 X162.219 Y105.932 E15.45091
G1 X163.728 Y107.608 E15.52163
G1 X164.290 Y108.581 E15.55685
G1 X164.290 Y112.240 E15.67157
G1 X162.487 Y112.240 E15.72811
G1 X162.449 Y111.954 E15.73715
G1 X161.679 Y110.094 E15.80027
G1 X160.453 Y108.497 E15.86340
G1 X158.848 Y107.268 E15.92677
G1 X156.996 Y106.501 E15.98963
G1 X155.000 Y106.238 E16.05275
G1 X153.004 Y106.501 E16.11587
G1 X151.144 Y107.271 E16.17900
G1 X149.547 Y108.497 E16.24212
G1 X148.321 Y110.094 E16.30524
G1 X147.551 Y111.954 E16.36836
G1 X147.513 Y112.240 E16.37741
G1 X145.710 Y112.240 E16.43395
G1 X145.710 Y110.640 E16.48412
G1 X134.790 Y110.640 E16.82650
G1 X134.790 Y122.840 E17.20903
G1 X131.210 Y122.840 E17.32128
G1 X131.210 Y110.640 E17.70380
G1 X104.290 Y110.640 E18.54786
G1 X104.290 Y112.240 E18.59802
G1 X102.487 Y112.240 E18.65456
G1 X102.449 Y111.954 E18.66361
G1 X101.679 Y110.094 E18.72673
G1 X100.453 Y108.497 E18.78985
G1 X98.856 Y107.271 E18.85297
G1 X96.996 Y106.501 E18.91610
G1 X95.000 Y106.238 E18.97922
G1 X93.004 Y106.501 E19.04234
G1 X91.144 Y107.271 E19.10546
G1 X89.547 Y108.497 E19.16858
G1 X88.321 Y110.094 E19.23171
G1 X87.551 Y111.954 E19.29483
G1 X87.513 Y112.240 E19.30387
G1 X85.710 Y112.240 E19.36041
G1 X85.710 Y108.581 E19.47513
G1 X86.272 Y107.608 E19.51035
G1 X87.781 Y105.932 E19.58107
G1 X89.606 Y104.607 E19.65179
G1 X91.710 Y103.670 E19.72402
G1 X91.710 Y89.170 E20.17864
G1 X97.290 Y89.170 E20.35360
G1 X97.290 Y98.360 E20.64175
G1 X97.306 Y98.360 E20.64225
G1 X97.289 Y98.550 E20.64823
G1 X97.406 Y99.889 E20.69037
G1 X97.754 Y101.187 E20.73251
G1 X98.322 Y102.405 E20.77465
G1 X99.093 Y103.506 E20.81680
G1 X100.032 Y104.445 E20.85843
G1 X100.394 Y104.607 E20.87086
G1 X102.219 Y105.932 E20.94158
G1 X102.334 Y106.060 E20.94697
G1 X137.150 Y106.060 E22.03860
G1 X137.610 Y106.060 F9000.000
G1 F7200
G1 X137.210 Y95.670 E20.06445
G1 F7200
G1 X142.790 Y95.670 E19.00425
G1 F7200
G1 X142.790 Y99.700 E18.23860
G1 E18.03860 F1440.00000
G92 E0
G1 Z0.700 F9000.000
G1 X142.224 Y103.305 F9000.000
G1 Z0.200 F9000.000
G1 E4.00000 F1440.00000
G1 F600
G1 X139.109 Y100.190 E4.13833
G1 X139.839 Y100.386 E4.16205
G1 X142.055 Y102.601 E4.26044
G1 X142.055 Y102.067 E4.27721
G1 X140.328 Y100.341 E4.35388
G1 X140.749 Y100.228 E4.36757
G1 X142.055 Y101.533 E4.42554
G1 X142.055 Y100.999 E4.44231
G1 X141.171 Y100.115 E4.48156
G1 X141.239 Y100.096 E4.48380
G1 X141.463 Y99.873 E4.49372
G1 X142.055 Y100.465 E4.52001
G1 X142.055 Y99.931 E4.53678
G1 X141.730 Y99.606 E4.55120
G1 X141.997 Y99.339 E4.56306
G1 X142.224 Y99.566 E4.57316
G1 X142.129 Y98.967 F9000.000
G1 F1200
G1 X142.178 Y98.595 E4.57671
G1 F1200
G1 X142.202 Y98.410 E4.57738
G1 F7200
G1 X142.178 Y98.595 E4.54180
G1 E0.57738 F1440.00000
G92 E0
G1 Z0.700 F9000.000
G1 X142.202 Y97.490 F9000.000
G1 Z0.200 F9000.000
G1 E4.00000 F1440.00000
G1 F1200
G1 X142.155 Y97.129 E4.00162
G1 F1200
G1 X142.107 Y96.768 E4.00601
G1 F1200
G1 X141.962 Y96.236 E4.01641
G1 F7200
G1 X142.107 Y96.768 E3.91151
G1 E0.01641 F1440.00000
G92 E0
G1 Z0.700 F9000.000
G1 X140.701 Y96.039 F9000.000
G1 Z0.200 F9000.000
G1 E4.00000 F1440.00000
G1 F1200
G1 X140.249 Y95.979 E4.00962
G1 F1200
G1 X139.976 Y95.949 E4.01367
G1 X139.525 Y96.009 E4.02040
G1 F1200
G1 X139.299 Y96.039 E4.02521
G1 F7200
G1 X139.525 Y96.009 E3.98191
G1 E0.02521 F1440.00000
G92 E0
G1 Z0.700 F9000.000
G1 X138.038 Y96.236 F9000.000
G1 Z0.200 F9000.000
G1 E4.00000 F1440.00000
G1 F1200
G1 X137.893 Y96.768 E4.01040
G1 X137.869 Y96.949 E4.01383
G1 F1200
G1 X137.821 Y97.310 E4.01823
G1 F1200
G1 X137.798 Y97.490 E4.01903
G1 F7200
G1 X137.821 Y97.310 E3.98444
G1 E0.01903 F1440.00000
G92 E0
G1 Z0.700 F9000.000
G1 X137.798 Y98.410 F9000.000
G1 Z0.200 F9000.000
G1 E4.00000 F1440.00000
G1 F1200
G1 X137.822 Y98.595 E4.00067
G1 F1200
G1 X137.871 Y98.967 E4.00422
G1 X137.776 Y99.390 F9000.000
G1 F600
G1 X142.055 Y103.669 E4.19425
G1 X142.055 Y104.203 E4.21102
G1 X137.945 Y100.094 E4.39351
G1 X137.945 Y100.628 E4.41028
G1 X142.055 Y104.737 E4.59278
G1 X142.055 Y105.272 E4.60955
G1 X137.945 Y101.162 E4.79204
G1 X137.945 Y101.696 E4.80881
G1 X142.055 Y105.806 E4.99130
G1 X142.055 Y106.340 E5.00808
G1 X137.945 Y102.230 E5.19057
G1 X137.945 Y102.764 E5.20734
G1 X145.086 Y109.905 E5.52443
G1 X145.620 Y109.905 E5.54120
G1 X142.510 Y106.795 E5.67929
G1 X143.044 Y106.795 E5.69606
G1 X147.179 Y110.930 E5.87968
G1 X147.336 Y110.552 E5.89252
G1 X143.578 Y106.795 E6.05937
G1 X144.113 Y106.795 E6.07614
G1 X147.492 Y110.175 E6.22622
G1 X147.648 Y109.797 E6.23905
G1 X144.647 Y106.795 E6.37236
G1 X145.181 Y106.795 E6.38913
G1 X147.866 Y109.480 E6.50837
G1 X148.098 Y109.178 E6.52033
G1 X145.715 Y106.795 E6.62614
G1 X146.249 Y106.795 E6.64291
G1 X148.329 Y108.876 E6.73530
G1 X148.561 Y108.574 E6.74727
