; generated by Slic3r 1.35.5-prusa3d-linux64 on 2017-10-28 at 13:55:27

; 

; external perimeters extrusion width = 0.45mm
; perimeters extrusion width = 0.45mm
; infill extrusion width = 0.45mm
; solid infill extrusion width = 0.45mm
; top infill extrusion width = 0.40mm
; first layer extrusion width = 0.42mm

M107
M104 S215 ; set extruder temp
M140 S50 ; set bed temp
M190 S50 ; wait for bed temp
M109 S215 ; wait for extruder temp
G90
M82 ; use absolute distances for extrusion
G92 E0
G0 X10.0 Y4.0 Z0.2 F2000
G1 Y4.0 F1000.0 ; go outside pritn area
G1 X70.0 E9  F1000.0 ; intro line
G1 X100.0 E12.5  F1000.0 ; intro line

; Filament gcode

G21 ; set units to millimeters
G90 ; use absolute coordinates
M82 ; use absolute distances for extrusion
G92 E0
G1 E-4.00000 F1440.00000
G92 E0
G1 Z0.500 F7200.000
G1 X89.023 Y86.475 F7200.000
G1 Z0.200 F7200.000
G1 E4.00000 F1440.00000
M204 S1000
G1 F1500
G1 X89.610 Y86.004 E4.02360
G1 X90.284 Y85.669 E4.04721
G1 X90.877 Y85.507 E4.06648
G1 X91.489 Y85.452 E4.08575
G1 X158.505 Y85.452 E6.18697
G1 X159.513 Y85.601 E6.21892
G1 X160.439 Y86.036 E6.25102
G1 X161.201 Y86.720 E6.28311
G1 X161.732 Y87.595 E6.31521
G1 X167.912 Y107.711 E6.97501
G1 X168.008 Y108.453 E6.99847
G1 X168.008 Y112.469 E7.12438
G1 X167.885 Y113.374 E7.15303
G1 X167.572 Y114.144 E7.17908
G1 X167.088 Y114.819 E7.20514
G1 X166.458 Y115.361 E7.23119
G1 X165.718 Y115.740 E7.25725
G1 X136.042 Y126.400 E8.24595
G1 X135.109 Y126.557 E8.27561
G1 X130.912 Y126.557 E8.40719
G1 X130.211 Y126.468 E8.42935
G1 X84.601 Y115.841 E9.89774
G1 X83.824 Y115.532 E9.92394
G1 X83.140 Y115.045 E9.95028
G1 X82.593 Y114.414 E9.97648
G1 X82.209 Y113.666 E10.00282
G1 X82.051 Y113.091 E10.02151
G1 X81.992 Y112.498 E10.04021
G1 X81.993 Y108.428 E10.16783
G1 X82.129 Y107.552 E10.19561
G1 X88.213 Y87.734 E10.84561
G1 X88.550 Y87.061 E10.86921
G1 X88.985 Y86.522 E10.89094
G1 F5760
G1 X89.610 Y86.004 E10.69820
G1 F5760
G1 X90.284 Y85.669 E10.51940
G1 F5760
G1 X90.877 Y85.507 E10.37342
G1 F5760
G1 X91.489 Y85.452 E10.22744
G1 F5760
G1 X104.696 Y85.452 E7.09094
G1 E6.89094 F1440.00000
G92 E0
G1 Z0.700 F7200.000
G1 X90.425 Y86.019 F7200.000
G1 Z0.200 F7200.000
G1 E4.00000 F1440.00000
G1 F1500
G1 X91.491 Y85.829 E4.03396
G1 X158.504 Y85.829 E6.13510
G1 X159.413 Y85.965 E6.16392
G1 X160.244 Y86.359 E6.19274
G1 X160.924 Y86.977 E6.22156
G1 X161.395 Y87.766 E6.25037
G1 X167.545 Y107.797 E6.90735
G1 X167.631 Y108.468 E6.92855
G1 X167.631 Y112.459 E7.05369
G1 X167.531 Y113.237 E7.07830
G1 X167.254 Y113.939 E7.10196
G1 X166.818 Y114.555 E7.12561
G1 X166.248 Y115.048 E7.14927
G1 X165.575 Y115.391 E7.17292
G1 X135.930 Y126.040 E8.16057
G1 X135.088 Y126.180 E8.18735
G1 X130.930 Y126.180 E8.31772
G1 X130.294 Y126.101 E8.33783
G1 X84.709 Y115.480 E9.80539
G1 X84.007 Y115.202 E9.82904
G1 X83.392 Y114.766 E9.85270
G1 X82.899 Y114.194 E9.87635
G1 X82.558 Y113.521 E9.90001
G1 X82.369 Y112.486 E9.93302
G1 X82.370 Y108.446 E10.05967
G1 X82.490 Y107.662 E10.08455
G1 X88.559 Y87.884 E10.73320
G1 X88.861 Y87.274 E10.75455
G1 X89.285 Y86.747 E10.77575
G1 X89.815 Y86.321 E10.79709
G1 X90.371 Y86.046 E10.81655
G1 X90.537 Y86.384 F7200.000
G1 F1500
G1 X91.495 Y86.206 E10.84710
G1 X158.504 Y86.206 E12.94814
G1 X159.308 Y86.327 E12.97362
G1 X160.045 Y86.680 E12.99924
G1 X160.643 Y87.230 E13.02473
G1 X161.056 Y87.935 E13.05034
G1 X167.177 Y107.880 E13.70449
G1 X167.254 Y108.476 E13.72334
G1 X167.254 Y112.450 E13.84794
G1 X167.176 Y113.100 E13.86846
G1 X166.936 Y113.735 E13.88974
G1 X166.548 Y114.292 E13.91103
G1 X166.035 Y114.737 E13.93231
G1 X165.431 Y115.042 E13.95353
G1 X135.823 Y125.678 E14.93998
G1 X135.073 Y125.803 E14.96381
G1 X130.943 Y125.804 E15.09331
G1 X130.378 Y125.733 E15.11115
G1 X84.811 Y115.117 E16.57812
G1 X84.191 Y114.873 E16.59903
G1 X83.644 Y114.485 E16.62006
G1 X83.209 Y113.979 E16.64096
G1 X82.908 Y113.380 E16.66199
G1 X82.746 Y112.476 E16.69078
G1 X82.747 Y108.464 E16.81660
G1 X82.851 Y107.772 E16.83852
G1 X88.910 Y88.024 E17.48619
G1 X89.177 Y87.481 E17.50518
G1 X89.556 Y87.009 E17.52417
G1 X90.026 Y86.633 E17.54303
G1 X90.483 Y86.410 E17.55896
G1 X90.706 Y86.719 F7200.000
G1 F1500
G1 X91.494 Y86.583 E17.58404
G1 X158.504 Y86.583 E19.68509
G1 X159.205 Y86.690 E19.70734
G1 X159.844 Y86.999 E19.72958
G1 X160.363 Y87.483 E19.75183
G1 X160.716 Y88.099 E19.77408
G1 X166.778 Y107.846 E20.42177
G1 X166.877 Y108.477 E20.44177
G1 X166.875 Y112.541 E20.56922
G1 X166.782 Y113.115 E20.58745
G1 X166.550 Y113.652 E20.60579
G1 X166.036 Y114.265 E20.63087
G1 X165.343 Y114.673 E20.65607
G1 X135.793 Y125.291 E21.64059
G1 X135.035 Y125.427 E21.66473
G1 X130.970 Y125.427 E21.79221
G1 X130.467 Y125.367 E21.80806
G1 X84.909 Y114.752 E23.27478
G1 X84.368 Y114.540 E23.29300
G1 X83.897 Y114.205 E23.31111
G1 X83.519 Y113.764 E23.32934
G1 X83.259 Y113.244 E23.34757
G1 X83.123 Y112.471 E23.37218
G1 X83.123 Y108.479 E23.49732
G1 X83.212 Y107.882 E23.51626
G1 X89.260 Y88.165 E24.16289
G1 X89.488 Y87.693 E24.17934
G1 X89.818 Y87.280 E24.19590
G1 X90.231 Y86.950 E24.21247
G1 X90.652 Y86.746 E24.22715
G1 F5760
G1 X91.494 Y86.583 E24.02345
G1 F5760
G1 X106.636 Y86.583 E20.42715
G1 E20.22715 F1440.00000
G92 E0
G1 Z0.700 F7200.000
G1 X138.283 Y97.950 F7200.000
G1 Z0.200 F7200.000
G1 E4.00000 F1440.00000
G1 F600
G1 X138.513 Y97.091 E4.02787
G1 X139.141 Y96.463 E4.05575
G1 X140.000 Y96.233 E4.08362
G1 X140.859 Y96.463 E4.11149
G1 X141.487 Y97.091 E4.13937
G1 X141.717 Y97.950 E4.16724
G1 X141.487 Y98.809 E4.19512
G1 X140.859 Y99.437 E4.22299
G1 X140.000 Y99.667 E4.25086
G1 X139.141 Y99.437 E4.27874
G1 X138.513 Y98.809 E4.30661
G1 X138.298 Y98.008 E4.33260
G1 X137.936 Y97.750 F7200.000
G1 F5760
G1 X138.513 Y97.091 E4.10901
G1 F5760
G1 X139.141 Y96.463 E3.89789
G1 F5760
G1 X140.000 Y96.233 E3.68675
G1 F5760
G1 X140.859 Y96.463 E3.47561
G1 F5760
G1 X141.487 Y97.091 E3.26448
G1 F5760
G1 X141.717 Y97.950 E3.05334
G1 F5760
G1 X141.487 Y98.809 E2.84220
G1 F5760
G1 X140.859 Y99.437 E2.63108
G1 F5760
G1 X140.000 Y99.667 E2.41994
G1 F5760
G1 X139.141 Y99.437 E2.20880
G1 F5760
G1 X138.513 Y98.809 E1.99768
G1 F5760
G1 X138.298 Y98.008 E1.80079
G1 E0.33260 F1440.00000
G92 E0
G1 Z0.700 F7200.000
G1 X137.587 Y106.437 F7200.000
G1 Z0.200 F7200.000
G1 E4.00000 F1440.00000
G1 F1200
G1 X137.587 Y96.047 E4.32577
G1 X139.236 Y96.047 E4.37747
G1 X138.946 Y96.125 E4.38687
G1 X138.175 Y96.896 E4.42108
G1 X137.892 Y97.950 E4.45529
G1 X138.175 Y99.004 E4.48950
G1 X138.946 Y99.775 E4.52370
G1 X140.000 Y100.058 E4.55791
G1 X141.054 Y99.775 E4.59213
G1 X141.825 Y99.004 E4.62633
G1 X142.108 Y97.950 E4.66054
G1 X141.825 Y96.896 E4.69475
G1 X141.054 Y96.125 E4.72896
G1 X140.764 Y96.047 E4.73836
G1 X142.413 Y96.047 E4.79006
G1 X142.413 Y106.437 E5.11583
G1 X147.834 Y106.437 E5.28579
G1 X148.035 Y106.214 E5.29520
G1 X149.795 Y104.935 E5.36344
G1 X150.185 Y104.761 E5.37682
G1 X151.197 Y103.750 E5.42168
G1 X152.006 Y102.595 E5.46589
G1 X152.601 Y101.317 E5.51010
G1 X152.966 Y99.955 E5.55431
G1 X153.073 Y98.737 E5.59264
G1 X153.087 Y98.737 E5.59308
G1 X153.087 Y89.547 E5.88123
G1 X157.913 Y89.547 E6.03254
G1 X157.913 Y103.915 E6.48302
G1 X160.205 Y104.935 E6.56168
G1 X161.965 Y106.214 E6.62992
G1 X163.422 Y107.831 E6.69815
G1 X163.913 Y108.682 E6.72896
G1 X163.913 Y111.863 E6.82869
G1 X162.817 Y111.863 E6.86304
G1 X162.008 Y109.904 E6.92950
G1 X160.722 Y108.228 E6.99574
G1 X159.038 Y106.939 E7.06222
G1 X157.094 Y106.134 E7.12819
G1 X155.000 Y105.858 E7.19443
G1 X152.906 Y106.134 E7.26066
G1 X150.954 Y106.942 E7.32690
G1 X149.278 Y108.228 E7.39313
G1 X147.992 Y109.904 E7.45937
G1 X147.183 Y111.863 E7.52583
G1 X146.087 Y111.863 E7.56018
G1 X146.087 Y110.263 E7.61035
G1 X134.413 Y110.263 E7.97638
G1 X134.413 Y122.463 E8.35890
G1 X131.587 Y122.463 E8.44751
G1 X131.587 Y110.263 E8.83003
G1 X103.913 Y110.263 E9.69773
G1 X103.913 Y111.863 E9.74790
G1 X102.817 Y111.863 E9.78225
G1 X102.008 Y109.904 E9.84871
G1 X100.722 Y108.228 E9.91494
G1 X99.046 Y106.942 E9.98118
G1 X97.094 Y106.134 E10.04741
G1 X95.000 Y105.858 E10.11365
G1 X92.906 Y106.134 E10.17988
G1 X90.954 Y106.942 E10.24612
G1 X89.278 Y108.228 E10.31235
G1 X87.992 Y109.904 E10.37859
G1 X87.183 Y111.863 E10.44505
G1 X86.087 Y111.863 E10.47940
G1 X86.087 Y108.682 E10.57912
G1 X86.578 Y107.831 E10.60993
G1 X88.035 Y106.214 E10.67817
G1 X89.795 Y104.935 E10.74640
G1 X92.087 Y103.915 E10.82506
G1 X92.087 Y89.547 E11.27555
G1 X96.913 Y89.547 E11.42686
G1 X96.913 Y98.737 E11.71501
G1 X96.927 Y98.737 E11.71545
G1 X97.034 Y99.955 E11.75377
G1 X97.399 Y101.317 E11.79799
G1 X97.994 Y102.595 E11.84220
G1 X98.803 Y103.750 E11.88641
G1 X99.815 Y104.761 E11.93126
G1 X100.205 Y104.935 E11.94465
G1 X101.965 Y106.214 E12.01288
G1 X102.166 Y106.437 E12.02229
G1 X137.527 Y106.437 E13.13100
G1 X137.210 Y106.060 F7200.000
G1 F900
G1 X137.210 Y95.670 E13.45678
G1 X142.790 Y95.670 E13.63173
G1 X142.790 Y106.060 E13.95751
G1 X147.666 Y106.060 E14.11039
G1 X147.781 Y105.932 E14.11577
G1 X149.606 Y104.607 E14.18649
G1 X149.968 Y104.445 E14.19893
G1 X150.907 Y103.506 E14.24056
G1 X151.678 Y102.405 E14.28270
G1 X152.246 Y101.187 E14.32484
G1 X152.594 Y99.889 E14.36699
G1 X152.711 Y98.550 E14.40913
G1 X152.694 Y98.360 E14.41511
G1 X152.710 Y98.360 E14.41561
G1 X152.710 Y89.170 E14.70376
G1 X158.290 Y89.170 E14.87871
G1 X158.290 Y103.670 E15.33334
G1 X160.394 Y104.607 E15.40557
G1 X162.219 Y105.932 E15.47629
G1 X163.728 Y107.608 E15.54701
G1 X164.290 Y108.581 E15.58223
G1 X164.290 Y112.240 E15.69694
G1 X162.487 Y112.240 E15.75349
G1 X162.449 Y111.954 E15.76253
G1 X161.679 Y110.094 E15.82565
G1 X160.453 Y108.497 E15.88878
G1 X158.848 Y107.268 E15.95215
G1 X156.996 Y106.501 E16.01501
G1 X155.000 Y106.238 E16.07813
G1 X153.004 Y106.501 E16.14125
G1 X151.144 Y107.271 E16.20437
G1 X149.547 Y108.497 E16.26750
G1 X148.321 Y110.094 E16.33062
G1 X147.551 Y111.954 E16.39374
G1 X147.513 Y112.240 E16.40278
G1 X145.710 Y112.240 E16.45933
G1 X145.710 Y110.640 E16.50949
G1 X134.790 Y110.640 E16.85188
G1 X134.790 Y122.840 E17.23440
G1 X131.210 Y122.840 E17.34665
G1 X131.210 Y110.640 E17.72917
G1 X104.290 Y110.640 E18.57323
G1 X104.290 Y112.240 E18.62340
G1 X102.487 Y112.240 E18.67994
G1 X102.449 Y111.954 E18.68899
G1 X101.679 Y110.094 E18.75211
G1 X100.453 Y108.497 E18.81523
G1 X98.856 Y107.271 E18.87835
G1 X96.996 Y106.501 E18.94147
G1 X95.000 Y106.238 E19.00460
G1 X93.004 Y106.501 E19.06772
G1 X91.144 Y107.271 E19.13084
G1 X89.547 Y108.497 E19.19396
G1 X88.321 Y110.094 E19.25708
G1 X87.551 Y111.954 E19.32021
G1 X87.513 Y112.240 E19.32925
G1 X85.710 Y112.240 E19.38579
G1 X85.710 Y108.581 E19.50051
G1 X86.272 Y107.608 E19.53573
G1 X87.781 Y105.932 E19.60645
G1 X89.606 Y104.607 E19.67717
G1 X91.710 Y103.670 E19.74939
G1 X91.710 Y89.170 E20.20402
G1 X97.290 Y89.170 E20.37898
G1 X97.290 Y98.360 E20.66713
G1 X97.306 Y98.360 E20.66762
G1 X97.289 Y98.550 E20.67360
G1 X97.406 Y99.889 E20.71575
G1 X97.754 Y101.187 E20.75789
G1 X98.322 Y102.405 E20.80003
G1 X99.093 Y103.506 E20.84217
G1 X100.032 Y104.445 E20.88380
G1 X100.394 Y104.607 E20.89624
G1 X102.219 Y105.932 E20.96696
G1 X102.334 Y106.060 E20.97235
G1 X137.150 Y106.060 E22.06397
G1 X137.610 Y106.060 F7200.000
G1 F5760
G1 X137.210 Y95.670 E19.59630
G1 F5760
G1 X142.790 Y95.670 E18.27104
G1 F5760
G1 X142.790 Y95.700 E18.26397
G1 E18.06397 F1440.00000
G92 E0
G1 Z0.700 F7200.000
G1 X142.300 Y103.323 F7200.000
G1 Z0.200 F7200.000
G1 E4.00000 F1440.00000
G1 F1200
G1 X139.081 Y100.104 E4.14343
G1 X139.812 Y100.300 E4.16730
G1 X142.130 Y102.618 E4.27055
G1 X142.130 Y102.082 E4.28743
G1 X140.314 Y100.266 E4.36833
G1 X140.737 Y100.153 E4.38211
G1 X142.130 Y101.546 E4.44419
G1 X142.130 Y101.011 E4.46107
G1 X141.159 Y100.040 E4.50431
G1 X141.200 Y100.029 E4.50565
G1 X141.442 Y99.787 E4.51643
G1 X142.130 Y100.475 E4.54707
G1 X142.130 Y99.939 E4.56395
G1 X141.710 Y99.519 E4.58266
G1 X141.978 Y99.251 E4.59460
G1 X142.300 Y99.573 E4.60893
G1 X142.129 Y98.967 F7200.000
G1 F1200
G1 X142.178 Y98.595 E4.61248
G1 F1200
G1 X142.202 Y98.410 E4.61315
G1 F5760
G1 X142.178 Y98.595 E4.56867
G1 E0.61315 F1440.00000
G92 E0
G1 Z0.700 F7200.000
G1 X142.202 Y97.490 F7200.000
G1 Z0.200 F7200.000
G1 E4.00000 F1440.00000
G1 F1200
G1 X142.154 Y97.119 E4.00134
G1 F1200
G1 X142.129 Y96.933 E4.00311
G1 X142.157 Y96.816 F7200.000
G1 F1200
G1 X141.501 Y96.160 E4.03349
G1 F5760
G1 X142.157 Y96.816 E3.81336
G1 E0.03349 F1440.00000
G92 E0
G1 Z0.700 F7200.000
G1 X140.577 Y96.022 F7200.000
G1 Z0.200 F7200.000
G1 E4.00000 F1440.00000
G1 F1200
G1 X140.208 Y95.974 E4.00765
G1 F1200
G1 X139.976 Y95.949 E4.01104
G1 X139.607 Y95.998 E4.01646
G1 F1200
G1 X139.423 Y96.022 E4.02029
G1 F5760
G1 X139.607 Y95.998 E3.97607
G1 E0.02029 F1440.00000
G92 E0
G1 Z0.700 F7200.000
G1 X138.336 Y96.575 F7200.000
G1 Z0.200 F7200.000
G1 E4.00000 F1440.00000
G1 F1200
G1 X137.922 Y96.160 E4.02053
G1 F5760
G1 X138.336 Y96.575 E3.88129
G1 E0.02053 F1440.00000
G92 E0
G1 Z0.700 F7200.000
G1 X137.871 Y96.933 F7200.000
G1 Z0.200 F7200.000
G1 E4.00000 F1440.00000
G1 F1200
G1 X137.822 Y97.305 E4.00355
G1 F1200
G1 X137.798 Y97.490 E4.00422
G1 F5760
G1 X137.822 Y97.305 E3.95974
G1 E0.00422 F1440.00000
G92 E0
G1 Z0.700 F7200.000
G1 X137.798 Y98.410 F7200.000
G1 Z0.200 F7200.000
G1 E4.00000 F1440.00000
G1 F1200
G1 X137.822 Y98.595 E4.00067
G1 F1200
G1 X137.871 Y98.967 E4.00422
G1 X137.700 Y99.260 F7200.000
G1 F1200
G1 X142.130 Y103.690 E4.20158
G1 X142.130 Y104.225 E4.21846
G1 X137.870 Y99.965 E4.40826
G1 X137.870 Y100.501 E4.42514
G1 X142.130 Y104.761 E4.61494
G1 X142.130 Y105.297 E4.63182
G1 X137.870 Y101.037 E4.82163
G1 X137.870 Y101.572 E4.83850
G1 X142.130 Y105.833 E5.02831
G1 X142.130 Y106.369 E5.04519
G1 X137.870 Y102.108 E5.23499
G1 X137.870 Y102.644 E5.25187
G1 X145.206 Y109.980 E5.57870
G1 X145.742 Y109.980 E5.59558
G1 X142.481 Y106.720 E5.74083
G1 X143.017 Y106.720 E5.75771
G1 X147.252 Y110.955 E5.94637
G1 X147.409 Y110.575 E5.95930
G1 X143.553 Y106.720 E6.13107
G1 X144.089 Y106.720 E6.14795
G1 X147.565 Y110.196 E6.30283
G1 X147.722 Y109.817 E6.31575
G1 X144.625 Y106.720 E6.45374
G1 X145.160 Y106.720 E6.47062
G1 X147.943 Y109.503 E6.59460
G1 X148.176 Y109.200 E6.60664
G1 X145.696 Y106.720 E6.71712
G1 X146.232 Y106.720 E6.73400
G1 X148.409 Y108.896 E6.83097
G1 X148.641 Y108.593 E6.84301
G1 X146.768 Y106.720 E6.92647
G1 X147.304 Y106.720 E6.94335
G1 X148.874 Y108.290 E7.01331
G1 X149.116 Y107.996 E7.02530
G1 X147.839 Y106.720 E7.08216
G1 X147.960 Y106.720 E7.08594
G1 X148.157 Y106.501 E7.09521
G1 X149.419 Y107.763 E7.15145
G1 X149.722 Y107.531 E7.16349
G1 X148.452 Y106.261 E7.22008
G1 X148.762 Y106.035 E7.23217
G1 X150.025 Y107.298 E7.28844
G1 X150.328 Y107.066 E7.30048
G1 X149.072 Y105.810 E7.35643
G1 X149.383 Y105.584 E7.36852
G1 X150.632 Y106.833 E7.42415
G1 X150.811 Y106.695 E7.43129
G1 X150.965 Y106.631 E7.43655
G1 X149.693 Y105.359 E7.49324
G1 X149.937 Y105.181 E7.50275
G1 X150.016 Y105.146 E7.50547
G1 X151.344 Y106.474 E7.56464
G1 X151.723 Y106.317 E7.57756
G1 X150.376 Y104.970 E7.63757
G1 X150.644 Y104.702 E7.64951
G1 X152.102 Y106.160 E7.71447
G1 X152.481 Y106.003 E7.72739
G1 X150.912 Y104.434 E7.79729
G1 X151.180 Y104.167 E7.80922
G1 X152.867 Y105.853 E7.88438
G1 X153.340 Y105.791 E7.89942
G1 X151.442 Y103.893 E7.98400
G1 X151.663 Y103.578 E7.99612
G1 X153.814 Y105.729 E8.09196
G1 X154.287 Y105.666 E8.10701
G1 X151.883 Y103.262 E8.21411
G1 X152.104 Y102.947 E8.22623
G1 X154.761 Y105.604 E8.34460
G1 X155.000 Y105.573 E8.35220
G1 X155.305 Y105.613 E8.36189
G1 X152.308 Y102.616 E8.49543
G1 X152.478 Y102.250 E8.50813
G1 X155.922 Y105.694 E8.66156
G1 X156.539 Y105.775 E8.68117
G1 X152.649 Y101.885 E8.85450
G1 X152.819 Y101.519 E8.86720
G1 X157.156 Y105.857 E9.06043
G1 X158.065 Y106.230 E9.09138
G1 X152.949 Y101.113 E9.31932
G1 X153.062 Y100.691 E9.33310
G1 X159.590 Y107.219 E9.62394
G1 F5760
G1 X153.062 Y100.691 E7.43127
G1 F5760
G1 X152.949 Y101.113 E7.32737
G1 F5760
G1 X157.425 Y105.589 E5.82395
G1 E5.62394 F1440.00000
G92 E0
G1 Z0.700 F7200.000
G1 X160.032 Y104.982 F7200.000
G1 Z0.200 F7200.000
G1 E4.00000 F1440.00000
G1 F1200
G1 X163.800 Y108.750 E4.16786
G1 F5760
G1 X160.032 Y104.982 E2.90239
