; generated by Slic3r 1.35.5-prusa3d-linux64 on 2017-10-28 at 14:16:59

; 

; external perimeters extrusion width = 0.45mm
; perimeters extrusion width = 0.45mm
; infill extrusion width = 0.45mm
; solid infill extrusion width = 0.45mm
; top infill extrusion width = 0.45mm
; first layer extrusion width = 0.42mm

M107
M104 S215 ; set extruder temp
M140 S50 ; set bed temp
M190 S50 ; wait for bed temp
M109 S215 ; wait for extruder temp
G90
M82 ; use absolute distances for extrusion
G92 E0
G0 X10.0 Y4.0 Z0.2 F2000
G1 Y4.0 F1000.0 ; go outside pritn area
G1 X70.0 E9  F1000.0 ; intro line
G1 X100.0 E12.5  F1000.0 ; intro line

; Filament gcode

G21 ; set units to millimeters
G90 ; use absolute coordinates
M82 ; use absolute distances for extrusion
G92 E0
G1 E-4.00000 F1440.00000
G92 E0
G1 Z0.500 F9000.000
G1 X69.180 Y111.657 F9000.000
G1 Z0.200 F9000.000
G1 E4.00000 F1440.00000
M204 S3000
G1 F1500
G1 X71.878 Y110.398 E4.09335
G1 X72.603 Y110.155 E4.11731
G1 X94.131 Y105.586 E4.80734
G1 X95.007 Y105.496 E4.83496
G1 X138.580 Y109.578 E6.20713
G1 X141.786 Y110.266 E6.30997
G1 X144.594 Y111.520 E6.40637
G1 X146.916 Y113.173 E6.49574
G1 X147.522 Y113.725 E6.52145
G1 X149.128 Y115.510 E6.59672
G1 X149.535 Y116.071 E6.61845
G1 X150.411 Y117.638 E6.67473
G1 X150.734 Y118.840 E6.71377
G1 X150.760 Y123.406 E6.85694
G1 X150.529 Y124.650 E6.89662
G1 X150.141 Y125.475 E6.92519
G1 X149.586 Y126.198 E6.95376
G1 X148.891 Y126.787 E6.98233
G1 X148.091 Y127.213 E7.01075
G1 X118.413 Y137.880 E7.99958
G1 X117.742 Y138.056 E8.02131
G1 X117.047 Y138.121 E8.04319
G1 X112.918 Y138.120 E8.17265
G1 X112.114 Y138.028 E8.19804
G1 X66.523 Y127.407 E9.66579
G1 X65.751 Y127.146 E9.69133
G1 X65.044 Y126.742 E9.71688
G1 X64.426 Y126.211 E9.74243
G1 X63.920 Y125.572 E9.76798
G1 X63.444 Y124.570 E9.80275
G1 X63.243 Y123.480 E9.83751
G1 X63.242 Y119.130 E9.97391
G1 X63.326 Y118.467 E9.99484
G1 X63.513 Y117.826 E10.01577
G1 X64.648 Y115.794 E10.08876
G1 X66.499 Y113.702 E10.17637
G1 X67.056 Y113.193 E10.20000
G1 X69.132 Y111.692 E10.28032
G1 X69.353 Y111.999 F9000.000
G1 F1500
G1 X69.418 Y111.952 E10.28281
G1 X72.035 Y110.741 E10.37324
G1 X72.695 Y110.520 E10.39505
G1 X94.208 Y105.955 E11.08461
G1 X95.006 Y105.873 E11.10976
G1 X138.543 Y109.953 E12.48080
G1 X141.643 Y110.616 E12.58021
G1 X144.406 Y111.848 E12.67505
G1 X146.681 Y113.467 E12.76261
G1 X147.239 Y113.974 E12.78624
G1 X149.203 Y116.251 E12.88050
G1 X150.056 Y117.767 E12.93506
G1 X150.358 Y118.877 E12.97112
G1 X150.383 Y123.380 E13.11233
G1 X150.181 Y124.502 E13.14808
G1 X149.830 Y125.261 E13.17429
G1 X149.321 Y125.930 E13.20066
G1 X148.680 Y126.475 E13.22702
G1 X147.942 Y126.867 E13.25323
G1 X118.291 Y137.523 E14.24113
G1 X117.670 Y137.686 E14.26126
G1 X117.035 Y137.744 E14.28124
G1 X112.932 Y137.743 E14.40990
G1 X112.193 Y137.659 E14.43322
G1 X66.614 Y127.041 E15.90058
G1 X65.900 Y126.799 E15.92421
G1 X65.247 Y126.424 E15.94784
G1 X64.678 Y125.929 E15.97147
G1 X64.215 Y125.334 E15.99510
G1 X63.794 Y124.427 E16.02647
G1 X63.619 Y123.437 E16.05799
G1 X63.619 Y119.149 E16.19245
G1 X63.699 Y118.526 E16.21212
G1 X63.879 Y117.925 E16.23180
G1 X64.964 Y115.999 E16.30110
G1 X66.792 Y113.941 E16.38741
G1 X67.293 Y113.487 E16.40860
G1 X69.305 Y112.034 E16.48642
G1 F7200
G1 X69.418 Y111.952 E16.45989
G1 F7200
G1 X72.035 Y110.741 E15.91189
G1 F7200
G1 X72.695 Y110.520 E15.77976
G1 F7200
G1 X88.621 Y107.140 E12.68642
G1 E12.48642 F1440.00000
G92 E0
G1 Z0.700 F9000.000
G1 X64.242 Y118.033 F9000.000
G1 Z0.200 F9000.000
G1 E4.00000 F1440.00000
G1 F1500
G1 X65.278 Y116.210 E4.06574
G1 X67.076 Y114.189 E4.15057
G1 X67.530 Y113.781 E4.16970
G1 X69.649 Y112.253 E4.25161
G1 X72.192 Y111.084 E4.33936
G1 X72.784 Y110.887 E4.35892
G1 X94.281 Y106.325 E5.04797
G1 X95.003 Y106.250 E5.07071
G1 X138.501 Y110.328 E6.44056
G1 X141.499 Y110.965 E6.53665
G1 X144.220 Y112.175 E6.63001
G1 X146.450 Y113.766 E6.71590
G1 X146.957 Y114.225 E6.73734
G1 X148.872 Y116.433 E6.82899
G1 X149.702 Y117.900 E6.88183
G1 X149.983 Y118.912 E6.91478
G1 X150.007 Y123.356 E7.05410
G1 X149.831 Y124.359 E7.08605
G1 X149.515 Y125.053 E7.10994
G1 X149.053 Y125.665 E7.13398
G1 X148.470 Y126.162 E7.15801
G1 X147.792 Y126.520 E7.18205
G1 X118.169 Y137.166 E8.16902
G1 X117.030 Y137.367 E8.20527
G1 X112.944 Y137.366 E8.33338
G1 X112.270 Y137.290 E8.35467
G1 X66.704 Y126.675 E9.82160
G1 X66.052 Y126.454 E9.84319
G1 X65.452 Y126.107 E9.86491
G1 X64.935 Y125.652 E9.88650
G1 X64.515 Y125.102 E9.90823
G1 X64.144 Y124.282 E9.93644
G1 X63.994 Y123.394 E9.96465
G1 X63.995 Y119.172 E10.09706
G1 X64.229 Y118.091 E10.13171
G1 X64.596 Y118.172 F9000.000
G1 F1500
G1 X65.586 Y116.428 E10.19459
G1 X67.360 Y114.437 E10.27820
G1 X69.870 Y112.560 E10.37648
G1 X72.344 Y111.429 E10.46176
G1 X72.874 Y111.253 E10.47929
G1 X94.359 Y106.694 E11.16793
G1 X95.006 Y106.627 E11.18831
G1 X138.465 Y110.703 E12.55692
G1 X141.363 Y111.318 E12.64979
G1 X144.034 Y112.504 E12.74144
G1 X146.220 Y114.065 E12.82566
G1 X146.677 Y114.477 E12.84495
G1 X148.544 Y116.619 E12.93404
G1 X149.348 Y118.031 E12.98500
G1 X149.608 Y118.949 E13.01490
G1 X149.630 Y123.333 E13.15236
G1 X149.479 Y124.222 E13.18063
G1 X149.196 Y124.850 E13.20224
G1 X148.783 Y125.402 E13.22386
G1 X148.255 Y125.852 E13.24561
G1 X147.645 Y126.173 E13.26722
G1 X118.042 Y136.811 E14.25350
G1 X117.027 Y136.990 E14.28584
G1 X112.948 Y136.989 E14.41373
G1 X112.294 Y136.909 E14.43439
G1 X66.730 Y126.294 E15.90126
G1 X66.159 Y126.088 E15.92029
G1 X65.639 Y125.776 E15.93931
G1 X65.188 Y125.370 E15.95833
G1 X64.822 Y124.881 E15.97749
G1 X64.499 Y124.152 E16.00251
G1 X64.370 Y123.360 E16.02766
G1 X64.372 Y119.194 E16.15828
G1 X64.584 Y118.231 E16.18920
G1 X64.951 Y118.313 F9000.000
G1 F1500
G1 X64.962 Y118.264 E16.19078
G1 X65.896 Y116.642 E16.24945
G1 X67.643 Y114.687 E16.33166
G1 X70.093 Y112.866 E16.42737
G1 X72.962 Y111.620 E16.52546
G1 X94.437 Y107.063 E17.21377
G1 X95.003 Y107.004 E17.23161
G1 X138.428 Y111.079 E18.59917
G1 X141.229 Y111.671 E18.68894
G1 X143.846 Y112.830 E18.77866
G1 X145.991 Y114.364 E18.86134
G1 X146.395 Y114.728 E18.87841
G1 X148.217 Y116.808 E18.96510
G1 X148.997 Y118.171 E19.01432
G1 X149.233 Y118.991 E19.04108
G1 X149.254 Y123.316 E19.17669
G1 X149.127 Y124.086 E19.20117
G1 X148.878 Y124.647 E19.22041
G1 X148.512 Y125.139 E19.23965
G1 X148.045 Y125.538 E19.25889
G1 X147.502 Y125.824 E19.27814
G1 X117.920 Y136.455 E20.26375
G1 X117.019 Y136.613 E20.29241
G1 X112.959 Y136.612 E20.41972
G1 X112.382 Y136.542 E20.43794
G1 X66.827 Y125.929 E21.90453
G1 X66.319 Y125.746 E21.92147
G1 X65.852 Y125.466 E21.93854
G1 X65.451 Y125.098 E21.95561
G1 X65.129 Y124.659 E21.97268
G1 X64.853 Y124.021 E21.99448
G1 X64.747 Y123.330 E22.01640
G1 X64.748 Y119.219 E22.14530
G1 X64.938 Y118.371 E22.17253
G1 F7200
G1 X64.962 Y118.264 E22.15152
G1 F7200
G1 X65.896 Y116.642 E21.79599
G1 F7200
G1 X67.643 Y114.687 E21.29781
G1 F7200
G1 X70.093 Y112.866 E20.71786
G1 F7200
G1 X72.962 Y111.620 E20.12343
G1 F7200
G1 X81.977 Y109.707 E18.37253
G1 E18.17253 F1440.00000
G92 E0
G1 Z0.700 F9000.000
G1 X66.070 Y125.157 F9000.000
G1 Z0.200 F9000.000
G1 E4.00000 F1440.00000
G1 F1500
G1 X65.441 Y124.446 E4.02977
G1 X65.210 Y123.896 E4.04848
G1 X65.123 Y123.306 E4.06718
G1 X65.125 Y119.238 E4.19471
G1 X65.317 Y118.393 E4.22191
G1 X66.204 Y116.860 E4.27743
G1 X67.922 Y114.940 E4.35821
G1 X70.303 Y113.180 E4.45103
G1 X73.049 Y111.987 E4.54491
G1 X94.511 Y107.432 E5.23282
G1 X95.002 Y107.381 E5.24832
G1 X138.388 Y111.454 E6.61461
G1 X141.100 Y112.025 E6.70152
G1 X143.662 Y113.160 E6.78938
G1 X145.765 Y114.666 E6.87050
G1 X147.892 Y117.001 E6.96952
G1 X148.647 Y118.313 E7.01700
G1 X148.858 Y119.034 E7.04055
G1 X148.877 Y123.300 E7.17431
G1 X148.771 Y123.960 E7.19526
G1 X148.558 Y124.448 E7.21195
G1 X148.239 Y124.879 E7.22875
G1 X147.832 Y125.227 E7.24555
G1 X147.357 Y125.476 E7.26236
G1 X117.793 Y136.099 E8.24736
G1 X117.016 Y136.236 E8.27209
G1 X112.970 Y136.235 E8.39897
G1 X112.471 Y136.176 E8.41470
G1 X66.924 Y125.565 E9.88106
G1 X66.124 Y125.183 E9.90884
G1 F7200
G1 X65.441 Y124.446 E9.71786
G1 F7200
G1 X65.210 Y123.896 E9.60454
G1 F7200
G1 X65.123 Y123.306 E9.49121
G1 F7200
G1 X65.125 Y119.238 E8.71837
G1 F7200
G1 X65.317 Y118.393 E8.55357
G1 F7200
G1 X66.204 Y116.860 E8.21714
G1 F7200
G1 X67.922 Y114.940 E7.72763
G1 F7200
G1 X70.303 Y113.180 E7.16515
G1 F7200
G1 X73.049 Y111.987 E6.59626
G1 F7200
G1 X75.558 Y111.454 E6.10884
G1 E5.90884 F1440.00000
G92 E0
G1 Z0.700 F9000.000
G1 X93.001 Y114.912 F9000.000
G1 Z0.200 F9000.000
G1 E4.00000 F1440.00000
G1 F900
G1 X92.692 Y113.759 E4.03746
G1 X93.001 Y112.605 E4.07491
G1 X93.846 Y111.760 E4.11237
G1 X95.000 Y111.451 E4.14982
G1 X96.154 Y111.760 E4.18728
G1 X96.999 Y112.605 E4.22473
G1 X97.308 Y113.759 E4.26219
G1 X96.999 Y114.912 E4.29965
G1 X96.154 Y115.757 E4.33710
G1 X95.000 Y116.066 E4.37456
G1 X93.846 Y115.757 E4.41201
G1 X93.044 Y114.955 E4.44758
G1 X93.340 Y114.717 F9000.000
G1 F900
G1 X93.083 Y113.759 E4.47871
G1 X93.340 Y112.800 E4.50983
G1 X94.041 Y112.098 E4.54094
G1 X95.000 Y111.841 E4.57206
G1 X95.959 Y112.098 E4.60318
G1 X96.660 Y112.800 E4.63430
G1 X96.917 Y113.759 E4.66542
G1 X96.660 Y114.717 E4.69654
G1 X95.959 Y115.419 E4.72766
G1 X95.000 Y115.676 E4.75878
G1 X94.041 Y115.419 E4.78990
G1 X93.382 Y114.760 E4.81914
G1 X92.940 Y114.717 F9000.000
G1 F7200
G1 X93.083 Y113.759 E4.62060
G1 F7200
G1 X93.340 Y112.800 E4.43202
G1 F7200
G1 X94.041 Y112.098 E4.24345
G1 F7200
G1 X95.000 Y111.841 E4.05487
G1 F7200
G1 X95.959 Y112.098 E3.86629
G1 F7200
G1 X96.660 Y112.800 E3.67772
G1 F7200
G1 X96.917 Y113.759 E3.48914
G1 F7200
G1 X96.660 Y114.717 E3.30056
G1 F7200
G1 X95.959 Y115.419 E3.11199
G1 F7200
G1 X95.000 Y115.676 E2.92341
G1 F7200
G1 X94.041 Y115.419 E2.73483
G1 F7200
G1 X93.382 Y114.760 E2.55765
G1 E0.81914 F1440.00000
G92 E0
G1 Z0.700 F9000.000
G1 X96.147 Y117.246 F9000.000
G1 Z0.200 F9000.000
G1 E4.00000 F1440.00000
G1 F1500
G1 X129.834 Y117.246 E5.05623
G1 X130.035 Y117.023 E5.06564
G1 X131.795 Y115.743 E5.13387
G1 X133.783 Y114.858 E5.20211
G1 X135.912 Y114.406 E5.27034
G1 X138.088 Y114.406 E5.33857
G1 X140.217 Y114.858 E5.40681
G1 X142.205 Y115.743 E5.47504
G1 X143.965 Y117.023 E5.54327
G1 X145.422 Y118.640 E5.61151
G1 X145.913 Y119.491 E5.64232
G1 X145.913 Y122.671 E5.74204
G1 X144.819 Y122.671 E5.77633
G1 X144.008 Y120.712 E5.84281
G1 X142.722 Y119.036 E5.90905
G1 X141.046 Y117.750 E5.97528
G1 X139.094 Y116.942 E6.04152
G1 X137.000 Y116.666 E6.10775
G1 X134.906 Y116.942 E6.17399
G1 X132.954 Y117.750 E6.24022
G1 X131.278 Y119.036 E6.30646
G1 X129.992 Y120.712 E6.37269
G1 X129.181 Y122.671 E6.43918
G1 X128.087 Y122.671 E6.47346
G1 X128.087 Y121.071 E6.52363
G1 X116.413 Y121.071 E6.88967
G1 X116.413 Y133.271 E7.27219
G1 X113.587 Y133.271 E7.36079
G1 X113.587 Y121.071 E7.74331
G1 X85.913 Y121.071 E8.61102
G1 X85.913 Y122.671 E8.66118
G1 X84.819 Y122.671 E8.69547
G1 X84.008 Y120.712 E8.76195
G1 X82.722 Y119.036 E8.82819
G1 X81.046 Y117.750 E8.89442
G1 X79.094 Y116.942 E8.96066
G1 X77.000 Y116.666 E9.02689
G1 X74.906 Y116.942 E9.09313
G1 X72.954 Y117.750 E9.15936
G1 X71.278 Y119.036 E9.22560
G1 X69.992 Y120.712 E9.29183
G1 X69.181 Y122.671 E9.35832
G1 X68.087 Y122.671 E9.39260
G1 X68.087 Y119.491 E9.49233
G1 X68.578 Y118.640 E9.52314
G1 X70.035 Y117.023 E9.59137
G1 X71.788 Y115.749 E9.65931
G1 X73.783 Y114.858 E9.72784
G1 X75.912 Y114.406 E9.79607
G1 X78.088 Y114.406 E9.86430
G1 X80.217 Y114.858 E9.93254
G1 X82.205 Y115.743 E10.00077
G1 X83.965 Y117.023 E10.06900
G1 X84.166 Y117.246 E10.07841
G1 X93.853 Y117.246 E10.38214
G1 X92.062 Y115.455 E10.46155
G1 X91.608 Y113.759 E10.51661
G1 X92.062 Y112.062 E10.57167
G1 X93.304 Y110.821 E10.62672
G1 X95.000 Y110.366 E10.68178
G1 X96.688 Y110.819 E10.73658
G1 X97.938 Y112.063 E10.79187
G1 X98.392 Y113.759 E10.84691
G1 X97.938 Y115.455 E10.90197
G1 X96.189 Y117.203 E10.97950
G1 F7200
G1 X116.189 Y117.228 E7.17950
G1 E6.97950 F1440.00000
G92 E0
G1 Z0.700 F9000.000
G1 X97.057 Y116.868 F9000.000
G1 Z0.200 F9000.000
G1 E4.00000 F1440.00000
G1 F1200
G1 X129.666 Y116.868 E5.02242
G1 X129.781 Y116.741 E5.02781
G1 X131.606 Y115.415 E5.09853
G1 X133.666 Y114.498 E5.16925
G1 X135.872 Y114.029 E5.23997
G1 X138.128 Y114.029 E5.31069
G1 X140.334 Y114.498 E5.38141
G1 X142.394 Y115.415 E5.45213
G1 X144.219 Y116.741 E5.52284
G1 X145.728 Y118.417 E5.59356
G1 X146.290 Y119.390 E5.62878
G1 X146.290 Y123.048 E5.74350
G1 X144.487 Y123.048 E5.80004
G1 X144.449 Y122.763 E5.80909
G1 X143.679 Y120.903 E5.87221
G1 X142.453 Y119.305 E5.93533
G1 X140.856 Y118.080 E5.99845
G1 X138.996 Y117.309 E6.06157
G1 X137.000 Y117.047 E6.12470
G1 X135.004 Y117.309 E6.18782
G1 X133.144 Y118.080 E6.25094
G1 X131.547 Y119.305 E6.31406
G1 X130.321 Y120.903 E6.37718
G1 X129.551 Y122.763 E6.44031
G1 X129.513 Y123.048 E6.44935
G1 X127.710 Y123.048 E6.50589
G1 X127.710 Y121.449 E6.55606
G1 X116.790 Y121.449 E6.89845
G1 X116.790 Y133.649 E7.28097
G1 X113.210 Y133.649 E7.39322
G1 X113.210 Y121.449 E7.77574
G1 X86.290 Y121.449 E8.61980
G1 X86.290 Y123.048 E8.66997
G1 X84.487 Y123.048 E8.72651
G1 X84.449 Y122.763 E8.73555
G1 X83.679 Y120.903 E8.79867
G1 X82.453 Y119.305 E8.86180
G1 X80.856 Y118.080 E8.92492
G1 X78.996 Y117.309 E8.98804
G1 X77.000 Y117.047 E9.05116
G1 X75.004 Y117.309 E9.11428
G1 X73.144 Y118.080 E9.17741
G1 X71.547 Y119.305 E9.24053
G1 X70.321 Y120.903 E9.30365
G1 X69.551 Y122.763 E9.36677
G1 X69.513 Y123.048 E9.37581
G1 X67.710 Y123.048 E9.43236
G1 X67.710 Y119.390 E9.54707
G1 X68.272 Y118.417 E9.58229
G1 X69.781 Y116.741 E9.65301
G1 X71.598 Y115.421 E9.72343
G1 X73.666 Y114.498 E9.79445
G1 X75.872 Y114.029 E9.86516
G1 X78.128 Y114.029 E9.93588
G1 X80.334 Y114.498 E10.00660
G1 X82.394 Y115.415 E10.07732
G1 X84.219 Y116.741 E10.14804
G1 X84.334 Y116.868 E10.15343
G1 X92.943 Y116.868 E10.42335
G1 X91.724 Y115.650 E10.47739
G1 X91.217 Y113.759 E10.53878
G1 X91.724 Y111.867 E10.60017
G1 X93.109 Y110.483 E10.66156
G1 X95.000 Y109.976 E10.72296
G1 X96.883 Y110.481 E10.78408
G1 X98.276 Y111.867 E10.84571
G1 X98.783 Y113.759 E10.90710
G1 X98.276 Y115.650 E10.96849
G1 X97.100 Y116.826 E11.02065
G1 X96.990 Y117.263 F9000.000
G1 F7200
G1 X117.100 Y116.852 E7.22065
G1 E7.02065 F1440.00000
G92 E0
G1 Z0.700 F9000.000
G1 X96.157 Y117.434 F9000.000
G1 Z0.200 F9000.000
G1 E4.00000 F1440.00000
G1 F600
G1 X99.437 Y120.713 E4.14617
G1 X99.973 Y120.713 E4.16306
G1 X96.863 Y117.604 E4.30166
G1 X97.399 Y117.604 E4.31856
G1 X100.509 Y120.713 E4.45716
G1 X101.045 Y120.713 E4.47406
G1 X97.935 Y117.604 E4.61266
G1 X98.471 Y117.604 E4.62956
G1 X101.581 Y120.713 E4.76816
G1 X102.117 Y120.713 E4.78505
G1 X99.008 Y117.604 E4.92366
G1 X99.544 Y117.604 E4.94055
G1 X102.653 Y120.713 E5.07915
G1 X103.189 Y120.713 E5.09605
G1 X100.080 Y117.604 E5.23465
G1 X100.616 Y117.604 E5.25155
G1 X103.725 Y120.713 E5.39015
G1 X104.261 Y120.713 E5.40705
G1 X101.152 Y117.604 E5.54565
G1 X101.688 Y117.604 E5.56255
G1 X104.797 Y120.713 E5.70115
G1 X105.333 Y120.713 E5.71804
G1 X102.224 Y117.604 E5.85665
G1 X102.760 Y117.604 E5.87354
G1 X105.869 Y120.713 E6.01214
G1 X106.406 Y120.713 E6.02904
G1 X103.296 Y117.604 E6.16764
G1 X103.832 Y117.604 E6.18454
G1 X106.942 Y120.713 E6.32314
G1 X107.478 Y120.713 E6.34004
G1 X104.368 Y117.604 E6.47864
G1 X104.904 Y117.604 E6.49553
G1 X108.014 Y120.713 E6.63414
G1 X108.550 Y120.713 E6.65103
G1 X105.440 Y117.604 E6.78963
G1 X105.976 Y117.604 E6.80653
G1 X109.086 Y120.713 E6.94513
G1 X109.622 Y120.713 E6.96203
G1 X106.513 Y117.604 E7.10063
G1 X107.049 Y117.604 E7.11753
G1 X110.158 Y120.713 E7.25613
G1 X110.694 Y120.713 E7.27303
G1 X107.585 Y117.604 E7.41163
G1 X108.121 Y117.604 E7.42852
G1 X111.230 Y120.713 E7.56712
G1 X111.766 Y120.713 E7.58402
G1 X108.657 Y117.604 E7.72262
G1 X109.193 Y117.604 E7.73952
G1 X112.302 Y120.713 E7.87812
G1 X112.838 Y120.713 E7.89502
G1 X109.729 Y117.604 E8.03362
G1 X110.265 Y117.604 E8.05052
G1 X113.544 Y120.883 E8.19668
G1 F7200
G1 X110.265 Y117.604 E7.31558
G1 F7200
G1 X109.729 Y117.604 E7.21373
G1 F7200
G1 X112.838 Y120.713 E6.37822
G1 F7200
G1 X112.302 Y120.713 E6.27636
G1 F7200
G1 X109.193 Y117.604 E5.44086
G1 F7200
G1 X108.657 Y117.604 E5.33900
