; generated by Slic3r 1.35.5-prusa3d-linux64 on 2017-10-28 at 16:57:50

; 

; external perimeters extrusion width = 0.45mm
; perimeters extrusion width = 0.45mm
; infill extrusion width = 0.45mm
; solid infill extrusion width = 0.45mm
; top infill extrusion width = 0.45mm
; first layer extrusion width = 0.42mm

M107
M104 S215 ; set extruder temp
M140 S50 ; set bed temp
M190 S50 ; wait for bed temp
M109 S215 ; wait for extruder temp
G90
M82 ; use absolute distances for extrusion
G92 E0
G0 X10.0 Y4.0 Z0.2 F2000
G1 Y4.0 F1000.0 ; go outside pritn area
G1 X70.0 E9  F1000.0 ; intro line
G1 X100.0 E12.5  F1000.0 ; intro line

; Filament gcode

G21 ; set units to millimeters
G90 ; use absolute coordinates
M82 ; use absolute distances for extrusion
G92 E0
G1 E-4.00000 F1440.00000
G92 E0
G1 Z0.500 F9000.000
G1 X69.146 Y108.204 F9000.000
G1 Z0.200 F9000.000
G1 E4.00000 F1440.00000
M204 S3000
G1 F1500
G1 X70.633 Y107.366 E4.05353
G1 X72.163 Y106.683 E4.10606
G1 X73.853 Y106.117 E4.16195
G1 X75.375 Y105.758 E4.21097
G1 X76.857 Y105.543 E4.25791
G1 X78.687 Y105.442 E4.31540
G1 X135.271 Y105.442 E6.08955
G1 X137.127 Y105.541 E6.14782
G1 X138.619 Y105.757 E6.19508
G1 X140.071 Y106.098 E6.24186
G1 X141.836 Y106.682 E6.30014
G1 X143.448 Y107.407 E6.35555
G1 X145.056 Y108.339 E6.41383
G1 X146.221 Y109.176 E6.45882
G1 X147.302 Y110.137 E6.50415
G1 X148.554 Y111.516 E6.56257
G1 X149.548 Y112.927 E6.61669
G1 X150.424 Y114.572 E6.67511
G1 X150.965 Y115.918 E6.72061
G1 X151.362 Y117.308 E6.76594
G1 X151.680 Y119.150 E6.82453
G1 X151.760 Y120.930 E6.88039
G1 X151.654 Y122.494 E6.92956
G1 X151.400 Y123.938 E6.97553
G1 X150.851 Y125.809 E7.03667
G1 X150.551 Y126.439 E7.05855
G1 X150.152 Y127.012 E7.08044
G1 X149.660 Y127.515 E7.10248
G1 X149.098 Y127.928 E7.12437
G1 X148.041 Y128.393 E7.16056
G1 X146.899 Y128.558 E7.19675
G1 X66.950 Y128.554 E9.70350
G1 X66.163 Y128.446 E9.72841
G1 X65.409 Y128.194 E9.75332
G1 X64.716 Y127.806 E9.77824
G1 X64.106 Y127.296 E9.80315
G1 X63.639 Y126.737 E9.82599
G1 X63.275 Y126.106 E9.84883
G1 X62.664 Y124.225 E9.91085
G1 X62.353 Y122.548 E9.96433
G1 X62.246 Y121.060 E10.01110
G1 X62.346 Y118.950 E10.07733
G1 X62.590 Y117.499 E10.12346
G1 X63.044 Y115.892 E10.17583
G1 X63.666 Y114.370 E10.22739
G1 X64.459 Y112.917 E10.27928
G1 X65.409 Y111.562 E10.33116
G1 X66.390 Y110.445 E10.37777
G1 X67.939 Y109.054 E10.44305
G1 X69.097 Y108.239 E10.48746
G1 F7200
G1 X70.633 Y107.366 E10.15176
G1 F7200
G1 X72.163 Y106.683 E9.83340
G1 F7200
G1 X73.853 Y106.117 E9.49471
G1 F7200
G1 X75.375 Y105.758 E9.19767
G1 F7200
G1 X76.857 Y105.543 E8.91321
G1 F7200
G1 X78.687 Y105.442 E8.56488
G1 F7200
G1 X88.568 Y105.442 E6.68746
G1 E6.48746 F1440.00000
G92 E0
G1 Z0.700 F9000.000
G1 X147.957 Y128.025 F9000.000
G1 Z0.200 F9000.000
G1 E4.00000 F1440.00000
G1 F1500
G1 X146.896 Y128.181 E4.03364
G1 X66.977 Y128.178 E6.53941
G1 X66.245 Y128.078 E6.56259
G1 X65.549 Y127.844 E6.58561
G1 X64.910 Y127.482 E6.60863
G1 X64.347 Y127.004 E6.63180
G1 X63.928 Y126.492 E6.65255
G1 X63.600 Y125.912 E6.67344
G1 X63.024 Y124.109 E6.73277
G1 X62.727 Y122.495 E6.78425
G1 X62.622 Y121.036 E6.83009
G1 X62.720 Y119.004 E6.89390
G1 X62.958 Y117.581 E6.93912
G1 X63.399 Y116.019 E6.99000
G1 X64.007 Y114.531 E7.04042
G1 X64.782 Y113.111 E7.09114
G1 X65.709 Y111.791 E7.14171
G1 X66.668 Y110.700 E7.18724
G1 X68.164 Y109.357 E7.25029
G1 X69.343 Y108.526 E7.29552
G1 X70.801 Y107.703 E7.34800
G1 X72.299 Y107.034 E7.39945
G1 X73.966 Y106.477 E7.45455
G1 X75.444 Y106.128 E7.50218
G1 X76.914 Y105.916 E7.54874
G1 X78.693 Y105.819 E7.60460
G1 X135.271 Y105.819 E9.37857
G1 X137.078 Y105.915 E9.43530
G1 X138.548 Y106.127 E9.48186
G1 X139.984 Y106.465 E9.52811
G1 X141.702 Y107.035 E9.58489
G1 X143.270 Y107.739 E9.63878
G1 X144.837 Y108.646 E9.69555
G1 X145.986 Y109.471 E9.73990
G1 X147.046 Y110.413 E9.78436
G1 X148.257 Y111.748 E9.84086
G1 X149.207 Y113.093 E9.89250
G1 X150.072 Y114.707 E9.94992
G1 X150.607 Y116.037 E9.99485
G1 X150.995 Y117.395 E10.03915
G1 X151.305 Y119.186 E10.09613
G1 X151.384 Y120.879 E10.14927
G1 X151.280 Y122.445 E10.19847
G1 X151.032 Y123.856 E10.24340
G1 X150.516 Y125.628 E10.30127
G1 X150.250 Y126.207 E10.32125
G1 X149.889 Y126.738 E10.34138
G1 X149.445 Y127.202 E10.36152
G1 X148.931 Y127.587 E10.38165
G1 X148.012 Y128.000 E10.41325
G1 F7200
G1 X146.896 Y128.181 E10.19843
G1 F7200
G1 X128.026 Y128.180 E6.61325
G1 E6.41325 F1440.00000
G92 E0
G1 Z0.700 F9000.000
G1 X149.620 Y126.470 F9000.000
G1 Z0.200 F9000.000
G1 E4.00000 F1440.00000
G1 F1500
G1 X148.760 Y127.249 E4.03639
G1 X147.862 Y127.660 E4.06734
G1 X146.891 Y127.804 E4.09814
G1 X66.999 Y127.801 E6.60309
G1 X66.331 Y127.711 E6.62424
G1 X65.692 Y127.494 E6.64539
G1 X65.103 Y127.156 E6.66668
G1 X64.593 Y126.715 E6.68784
G1 X64.217 Y126.246 E6.70667
G1 X63.927 Y125.720 E6.72551
G1 X63.385 Y124.000 E6.78205
G1 X63.100 Y122.441 E6.83173
G1 X62.998 Y121.013 E6.87664
G1 X63.092 Y119.061 E6.93789
G1 X63.325 Y117.667 E6.98222
G1 X63.756 Y116.142 E7.03191
G1 X64.346 Y114.696 E7.08087
G1 X65.105 Y113.305 E7.13056
G1 X66.006 Y112.023 E7.17967
G1 X66.949 Y110.952 E7.22443
G1 X68.389 Y109.659 E7.28511
G1 X69.545 Y108.845 E7.32943
G1 X70.969 Y108.041 E7.38072
G1 X72.436 Y107.386 E7.43107
G1 X74.077 Y106.838 E7.48534
G1 X75.519 Y106.498 E7.53178
G1 X76.966 Y106.290 E7.57763
G1 X78.694 Y106.196 E7.63190
G1 X135.271 Y106.196 E9.40581
G1 X137.029 Y106.289 E9.46102
G1 X138.477 Y106.497 E9.50688
G1 X139.896 Y106.831 E9.55259
G1 X141.565 Y107.386 E9.60772
G1 X143.089 Y108.070 E9.66010
G1 X144.616 Y108.951 E9.71538
G1 X145.752 Y109.766 E9.75921
G1 X146.787 Y110.688 E9.80266
G1 X147.960 Y111.981 E9.85741
G1 X148.870 Y113.267 E9.90681
G1 X149.664 Y114.718 E9.95867
G1 X150.309 Y116.346 E10.01357
G1 X150.680 Y117.690 E10.05731
G1 X150.910 Y119.076 E10.10135
G1 X151.008 Y120.833 E10.15653
G1 X150.874 Y122.611 E10.21244
G1 X150.617 Y123.992 E10.25647
G1 X150.177 Y125.457 E10.30442
G1 X149.649 Y126.417 E10.33879
G1 X149.346 Y126.208 F9000.000
G1 F1500
G1 X148.580 Y126.917 E10.37154
G1 X147.770 Y127.294 E10.39954
G1 X146.887 Y127.427 E10.42754
G1 X67.024 Y127.425 E12.93159
G1 X66.414 Y127.343 E12.95089
G1 X65.832 Y127.144 E12.97018
G1 X65.300 Y126.834 E12.98948
G1 X64.839 Y126.426 E13.00877
G1 X64.259 Y125.537 E13.04206
G1 X63.748 Y123.896 E13.09595
G1 X63.473 Y122.388 E13.14402
G1 X63.375 Y120.989 E13.18799
G1 X63.465 Y119.118 E13.24673
G1 X63.692 Y117.752 E13.29014
G1 X64.111 Y116.268 E13.33850
G1 X64.687 Y114.856 E13.38630
G1 X65.429 Y113.499 E13.43479
G1 X66.303 Y112.255 E13.48246
G1 X67.230 Y111.203 E13.52642
G1 X68.611 Y109.964 E13.58461
G1 X69.743 Y109.166 E13.62803
G1 X71.138 Y108.378 E13.67826
G1 X72.572 Y107.737 E13.72752
G1 X74.183 Y107.200 E13.78075
G1 X75.589 Y106.869 E13.82604
G1 X77.019 Y106.663 E13.87133
G1 X78.701 Y106.573 E13.92415
G1 X135.271 Y106.573 E15.69786
G1 X136.981 Y106.663 E15.75157
G1 X138.407 Y106.868 E15.79672
G1 X139.808 Y107.198 E15.84187
G1 X141.427 Y107.737 E15.89538
G1 X142.913 Y108.404 E15.94642
G1 X144.294 Y109.189 E15.99623
G1 X145.651 Y110.175 E16.04882
G1 X146.665 Y111.092 E16.09169
G1 X147.579 Y112.114 E16.13470
G1 X148.536 Y113.444 E16.18605
G1 X149.318 Y114.868 E16.23700
G1 X149.944 Y116.443 E16.29014
G1 X150.311 Y117.769 E16.33328
G1 X150.536 Y119.127 E16.37644
G1 X150.631 Y120.792 E16.42874
G1 X150.504 Y122.534 E16.48351
G1 X150.252 Y123.896 E16.52693
G1 X149.836 Y125.290 E16.57255
G1 X149.375 Y126.155 E16.60327
G1 X149.067 Y125.952 F9000.000
G1 F1500
G1 X148.397 Y126.586 E16.63219
G1 X147.674 Y126.929 E16.65730
G1 X146.882 Y127.050 E16.68240
G1 X67.043 Y127.048 E19.18570
G1 X66.495 Y126.975 E19.20302
G1 X65.973 Y126.794 E19.22035
G1 X65.498 Y126.512 E19.23767
G1 X65.089 Y126.141 E19.25500
G1 X64.591 Y125.355 E19.28417
G1 X64.111 Y123.794 E19.33537
G1 X63.845 Y122.326 E19.38213
G1 X63.747 Y120.843 E19.42876
G1 X63.816 Y119.345 E19.47577
G1 X64.030 Y117.989 E19.51880
G1 X64.516 Y116.263 E19.57504
G1 X65.039 Y114.994 E19.61807
G1 X65.817 Y113.594 E19.66829
G1 X66.616 Y112.468 E19.71158
G1 X67.610 Y111.350 E19.75846
G1 X68.717 Y110.357 E19.80509
G1 X69.907 Y109.508 E19.85095
G1 X71.281 Y108.728 E19.90048
G1 X72.683 Y108.099 E19.94866
G1 X74.149 Y107.600 E19.99722
G1 X75.539 Y107.265 E20.04205
G1 X77.177 Y107.024 E20.09395
G1 X78.720 Y106.950 E20.14238
G1 X135.270 Y106.950 E21.91549
G1 X136.930 Y107.036 E21.96758
G1 X138.337 Y107.238 E22.01216
G1 X139.717 Y107.564 E22.05661
G1 X141.295 Y108.090 E22.10876
G1 X142.734 Y108.736 E22.15822
G1 X144.084 Y109.502 E22.20691
G1 X145.396 Y110.453 E22.25769
G1 X146.396 Y111.356 E22.29995
G1 X147.294 Y112.361 E22.34221
G1 X148.206 Y113.628 E22.39114
G1 X148.975 Y115.023 E22.44111
G1 X149.581 Y116.542 E22.49235
G1 X149.944 Y117.852 E22.53500
G1 X150.163 Y119.182 E22.57726
G1 X150.253 Y120.764 E22.62696
G1 X150.134 Y122.464 E22.68038
G1 X149.887 Y123.802 E22.72303
G1 X149.491 Y125.133 E22.76657
G1 X149.095 Y125.899 E22.79361
G1 X148.784 Y125.700 F9000.000
G1 F1500
G1 X148.207 Y126.259 E22.81880
G1 X147.575 Y126.565 E22.84082
G1 X146.877 Y126.673 E22.86295
G1 X67.061 Y126.672 E25.36554
G1 X66.578 Y126.607 E25.38080
G1 X66.116 Y126.444 E25.39618
G1 X65.697 Y126.189 E25.41156
G1 X65.338 Y125.854 E25.42693
G1 X64.926 Y125.178 E25.45178
G1 X64.475 Y123.693 E25.50045
G1 X64.219 Y122.278 E25.54553
G1 X64.124 Y120.835 E25.59085
G1 X64.191 Y119.380 E25.63652
G1 X64.401 Y118.054 E25.67862
G1 X64.865 Y116.405 E25.73235
G1 X65.377 Y115.162 E25.77448
G1 X66.132 Y113.802 E25.82326
G1 X66.910 Y112.703 E25.86547
G1 X67.876 Y111.618 E25.91103
G1 X68.955 Y110.650 E25.95647
G1 X70.113 Y109.824 E26.00107
G1 X71.452 Y109.064 E26.04936
G1 X72.826 Y108.448 E26.09657
G1 X74.255 Y107.961 E26.14390
G1 X75.637 Y107.629 E26.18848
G1 X77.218 Y107.399 E26.23854
G1 X78.722 Y107.327 E26.28575
G1 X135.270 Y107.327 E28.05879
G1 X136.879 Y107.410 E28.10931
G1 X138.268 Y107.609 E28.15329
G1 X139.629 Y107.931 E28.19716
G1 X141.158 Y108.442 E28.24770
G1 X142.560 Y109.070 E28.29586
G1 X143.879 Y109.819 E28.34342
G1 X145.142 Y110.732 E28.39230
G1 X146.128 Y111.621 E28.43392
G1 X147.010 Y112.608 E28.47542
G1 X147.877 Y113.816 E28.52204
G1 X148.634 Y115.184 E28.57105
G1 X149.217 Y116.642 E28.62030
G1 X149.575 Y117.932 E28.66227
G1 X149.791 Y119.242 E28.70390
G1 X149.876 Y120.742 E28.75099
G1 X149.763 Y122.396 E28.80298
G1 X149.521 Y123.713 E28.84495
G1 X149.142 Y124.985 E28.88657
G1 X148.811 Y125.647 E28.90977
G1 F7200
G1 X148.207 Y126.259 E28.74629
G1 F7200
G1 X147.575 Y126.565 E28.61289
G1 F7200
G1 X146.877 Y126.673 E28.47878
G1 F7200
G1 X129.146 Y126.672 E25.10977
G1 E24.90977 F1440.00000
G92 E0
G1 Z0.700 F9000.000
G1 X146.484 Y123.531 F9000.000
G1 Z0.200 F9000.000
G1 E4.00000 F1440.00000
G1 F1500
G1 X144.784 Y122.913 E4.05673
G1 X144.971 Y122.074 E4.08368
G1 X145.076 Y121.144 E4.11302
G1 X145.073 Y120.205 E4.14244
G1 X144.961 Y119.274 E4.17187
G1 X144.741 Y118.361 E4.20129
G1 X144.416 Y117.477 E4.23083
G1 X143.995 Y116.643 E4.26013
G1 X143.479 Y115.864 E4.28943
G1 X142.873 Y115.143 E4.31897
G1 X142.189 Y114.500 E4.34839
G1 X141.438 Y113.943 E4.37770
G1 X140.622 Y113.473 E4.40723
G1 X139.760 Y113.102 E4.43666
G1 X138.861 Y112.833 E4.46608
G1 X137.937 Y112.671 E4.49550
G1 X137.000 Y112.616 E4.52492
G1 X136.063 Y112.671 E4.55434
G1 X135.139 Y112.833 E4.58376
G1 X134.240 Y113.102 E4.61319
G1 X133.378 Y113.473 E4.64261
G1 X132.565 Y113.941 E4.67203
G1 X131.811 Y114.500 E4.70145
G1 X131.128 Y115.143 E4.73087
G1 X130.523 Y115.860 E4.76029
G1 X130.005 Y116.643 E4.78971
G1 X129.582 Y117.481 E4.81914
G1 X129.259 Y118.361 E4.84856
G1 X129.039 Y119.274 E4.87798
G1 X128.927 Y120.205 E4.90740
G1 X128.924 Y121.144 E4.93682
G1 X129.029 Y122.074 E4.96617
G1 X129.216 Y122.913 E4.99312
G1 X127.517 Y123.531 E5.04981
G1 X127.355 Y122.990 E5.06752
G1 X127.155 Y121.855 E5.10366
G1 X127.087 Y120.687 E5.14033
G1 X127.087 Y115.166 E5.31345
G1 X127.055 Y114.922 E5.32118
G1 X126.946 Y114.658 E5.33011
G1 X126.772 Y114.432 E5.33905
G1 X126.546 Y114.259 E5.34799
G1 X126.283 Y114.149 E5.35693
G1 X126.038 Y114.117 E5.36466
G1 X87.962 Y114.117 E6.55853
G1 X87.717 Y114.149 E6.56625
G1 X87.454 Y114.259 E6.57519
G1 X87.228 Y114.432 E6.58413
G1 X87.054 Y114.658 E6.59307
G1 X86.945 Y114.922 E6.60201
G1 X86.913 Y115.166 E6.60973
G1 X86.913 Y120.687 E6.78285
G1 X86.845 Y121.855 E6.81953
G1 X86.645 Y122.990 E6.85567
G1 X86.483 Y123.531 E6.87337
G1 X84.784 Y122.913 E6.93007
G1 X84.971 Y122.074 E6.95702
G1 X85.076 Y121.144 E6.98636
G1 X85.073 Y120.205 E7.01579
G1 X84.961 Y119.274 E7.04521
G1 X84.741 Y118.361 E7.07463
G1 X84.418 Y117.481 E7.10405
G1 X83.995 Y116.643 E7.13347
G1 X83.477 Y115.860 E7.16289
G1 X82.872 Y115.143 E7.19231
G1 X82.189 Y114.500 E7.22174
G1 X81.435 Y113.941 E7.25116
G1 X80.622 Y113.473 E7.28058
G1 X79.764 Y113.103 E7.30988
G1 X78.861 Y112.833 E7.33942
G1 X77.937 Y112.671 E7.36884
G1 X77.000 Y112.616 E7.39826
G1 X76.063 Y112.671 E7.42769
G1 X75.139 Y112.833 E7.45711
G1 X74.240 Y113.102 E7.48653
G1 X73.378 Y113.473 E7.51595
G1 X72.565 Y113.941 E7.54537
G1 X71.811 Y114.500 E7.57479
G1 X71.128 Y115.143 E7.60422
G1 X70.523 Y115.860 E7.63364
G1 X70.005 Y116.643 E7.66306
G1 X69.582 Y117.481 E7.69248
G1 X69.259 Y118.361 E7.72190
G1 X69.039 Y119.274 E7.75132
G1 X68.927 Y120.205 E7.78074
G1 X68.924 Y121.144 E7.81017
G1 X69.029 Y122.074 E7.83951
G1 X69.216 Y122.913 E7.86646
G1 X67.516 Y123.531 E7.92319
G1 X67.362 Y123.021 E7.93991
G1 X67.163 Y121.917 E7.97507
G1 X67.088 Y120.798 E8.01023
G1 X67.141 Y119.678 E8.04539
G1 X67.320 Y118.571 E8.08055
G1 X67.623 Y117.492 E8.11571
G1 X68.046 Y116.453 E8.15087
G1 X68.583 Y115.469 E8.18602
G1 X69.229 Y114.552 E8.22118
G1 X69.973 Y113.713 E8.25634
G1 X70.808 Y112.965 E8.29150
G1 X71.724 Y112.313 E8.32675
G1 X72.794 Y111.708 E8.36529
G1 X73.918 Y111.204 E8.40392
G1 X75.085 Y110.808 E8.44255
G1 X76.283 Y110.522 E8.48118
G1 X77.503 Y110.350 E8.51980
G1 X78.747 Y110.291 E8.55886
G1 X135.294 Y110.293 E10.33184
G1 X136.497 Y110.350 E10.36960
G1 X137.717 Y110.522 E10.40823
G1 X138.915 Y110.808 E10.44686
G1 X140.082 Y111.204 E10.48549
G1 X141.206 Y111.708 E10.52411
G1 X142.276 Y112.313 E10.56265
G1 X143.192 Y112.965 E10.59790
G1 X144.027 Y113.713 E10.63306
G1 X144.771 Y114.552 E10.66822
G1 X145.417 Y115.469 E10.70338
G1 X145.954 Y116.453 E10.73854
G1 X146.377 Y117.492 E10.77370
G1 X146.680 Y118.571 E10.80886
G1 X146.859 Y119.678 E10.84402
G1 X146.912 Y120.798 E10.87917
G1 X146.837 Y121.917 E10.91433
G1 X146.638 Y123.021 E10.94949
G1 X146.501 Y123.474 E10.96433
G1 X146.730 Y124.022 F9000.000
G1 F1200
G1 X144.587 Y123.242 E11.03583
G1 X144.511 Y123.203 E11.03851
G1 X144.416 Y123.095 E11.04301
G1 X144.386 Y122.962 E11.04731
G1 X144.599 Y122.011 E11.07784
G1 X144.699 Y121.123 E11.10586
G1 X144.696 Y120.229 E11.13391
G1 X144.589 Y119.341 E11.16195
G1 X144.380 Y118.471 E11.19000
G1 X144.070 Y117.628 E11.21816
G1 X143.668 Y116.833 E11.24610
G1 X143.177 Y116.090 E11.27403
G1 X142.598 Y115.403 E11.30219
G1 X141.946 Y114.790 E11.33024
G1 X141.231 Y114.259 E11.35817
G1 X140.453 Y113.810 E11.38633
G1 X139.631 Y113.457 E11.41438
G1 X138.774 Y113.201 E11.44243
G1 X137.893 Y113.046 E11.47047
G1 X137.000 Y112.994 E11.49852
G1 X136.107 Y113.046 E11.52657
G1 X135.226 Y113.201 E11.55462
G1 X134.369 Y113.457 E11.58266
G1 X133.547 Y113.810 E11.61071
G1 X132.772 Y114.257 E11.63876
G1 X132.054 Y114.790 E11.66681
G1 X131.402 Y115.403 E11.69485
G1 X130.825 Y116.087 E11.72290
G1 X130.332 Y116.833 E11.75095
G1 X129.929 Y117.631 E11.77900
G1 X129.620 Y118.471 E11.80704
G1 X129.411 Y119.341 E11.83509
G1 X129.304 Y120.229 E11.86314
G1 X129.301 Y121.123 E11.89119
G1 X129.401 Y122.011 E11.91921
G1 X129.614 Y122.962 E11.94974
G1 X129.584 Y123.095 E11.95404
G1 X129.489 Y123.203 E11.95853
G1 X129.413 Y123.242 E11.96122
G1 X127.271 Y124.022 E12.03270
G1 X126.988 Y123.077 E12.06362
G1 X126.780 Y121.899 E12.10114
G1 X126.710 Y120.698 E12.13885
G1 X126.710 Y115.191 E12.31154
G1 X126.688 Y115.020 E12.31693
G1 X126.616 Y114.848 E12.32276
G1 X126.503 Y114.701 E12.32858
G1 X126.356 Y114.588 E12.33441
G1 X126.184 Y114.517 E12.34023
G1 X126.014 Y114.494 E12.34563
G1 X87.986 Y114.494 E13.53795
