; generated by Slic3r 1.35.5-prusa3d-linux64 on 2017-10-28 at 14:26:10

; 

; external perimeters extrusion width = 0.45mm
; perimeters extrusion width = 0.45mm
; infill extrusion width = 0.45mm
; solid infill extrusion width = 0.45mm
; top infill extrusion width = 0.40mm
; first layer extrusion width = 0.42mm

M115 U3.0.9 ; tell printer latest fw version
M83  ; extruder relative mode
M104 S205 ; set extruder temp
M140 S65 ; set bed temp
M190 S65 ; wait for bed temp
M109 S205 ; wait for extruder temp
G28 W ; home all without mesh bed level
G80 ; mesh bed leveling
G1 Y-3.0 F1000.0 ; go outside pritn area
G1 X60.0 E9.0  F1000.0 ; intro line
G1 X100.0 E12.5  F1000.0 ; intro line
; Filament gcode

G21 ; set units to millimeters
G90 ; use absolute coordinates
M83 ; use relative distances for extrusion
G1 E-0.80000 F2100.00000
G1 Z0.200 F7200.000
G1 X95.296 Y103.979 F7200.000
G1 E0.80000 F2100.00000
M204 S1000
G1 F1500
G1 X96.697 Y102.844 E0.05650
G1 X98.105 Y101.920 E0.05282
G1 X99.751 Y101.063 E0.05818
G1 X101.588 Y100.349 E0.06181
G1 X103.372 Y99.872 E0.05790
G1 X105.311 Y99.573 E0.06152
G1 X139.277 Y97.806 E1.06641
G1 X140.660 Y97.861 E0.04339
G1 X142.148 Y98.044 E0.04702
G1 X143.508 Y98.326 E0.04354
G1 X144.844 Y98.716 E0.04363
G1 X146.241 Y99.252 E0.04693
G1 X147.492 Y99.855 E0.04354
G1 X148.692 Y100.555 E0.04354
G1 X149.920 Y101.415 E0.04702
G1 X150.988 Y102.302 E0.04354
G1 X151.982 Y103.272 E0.04354
G1 X152.966 Y104.403 E0.04702
G1 X153.788 Y105.523 E0.04354
G1 X154.518 Y106.704 E0.04354
G1 X155.199 Y108.040 E0.04702
G1 X155.726 Y109.325 E0.04354
G1 X156.149 Y110.650 E0.04363
G1 X156.486 Y112.109 E0.04693
G1 X156.686 Y113.483 E0.04354
G1 X156.776 Y114.869 E0.04354
G1 X156.750 Y116.368 E0.04702
G1 X156.612 Y117.750 E0.04354
G1 X156.364 Y119.116 E0.04354
G1 X155.976 Y120.565 E0.04702
G1 X155.508 Y121.872 E0.04354
G1 X154.937 Y123.138 E0.04354
G1 X154.210 Y124.450 E0.04702
G1 X153.439 Y125.605 E0.04354
G1 X152.577 Y126.697 E0.04363
G1 X151.556 Y127.792 E0.04693
G1 X150.529 Y128.726 E0.04354
G1 X149.431 Y129.575 E0.04354
G1 X148.169 Y130.395 E0.04717
G1 X146.523 Y131.252 E0.05818
G1 X144.686 Y131.965 E0.06181
G1 X142.779 Y132.468 E0.06181
G1 X140.949 Y132.743 E0.05804
G1 X107.901 Y134.485 E1.03763
G1 X105.623 Y134.454 E0.07143
G1 X103.511 Y134.157 E0.06688
G1 X101.459 Y133.608 E0.06659
G1 X99.589 Y132.863 E0.06311
G1 X97.723 Y131.849 E0.06659
G1 X95.994 Y130.616 E0.06659
G1 X94.503 Y129.263 E0.06311
G1 X93.111 Y127.660 E0.06659
G1 X91.920 Y125.895 E0.06674
G1 X91.133 Y124.401 E0.05297
G1 X90.491 Y122.830 E0.05320
G1 X89.979 Y121.102 E0.05650
G1 X89.662 Y119.438 E0.05311
G1 X89.508 Y117.761 E0.05282
G1 X89.517 Y116.068 E0.05306
G1 X89.705 Y114.276 E0.05650
G1 X90.049 Y112.618 E0.05311
G1 X90.549 Y111.009 E0.05282
G1 X91.204 Y109.449 E0.05306
G1 X92.064 Y107.865 E0.05650
G1 X93.016 Y106.464 E0.05311
G1 X94.091 Y105.173 E0.05268
G1 X95.253 Y104.021 E0.05132
G1 X95.520 Y104.295 F7200.000
G1 F1500
G1 X95.659 Y104.160 E0.00605
G1 X97.041 Y103.061 E0.05537
G1 X98.426 Y102.169 E0.05168
G1 X100.032 Y101.350 E0.05650
G1 X101.719 Y100.703 E0.05667
G1 X103.571 Y100.215 E0.06005
G1 X105.353 Y99.948 E0.05650
G1 X139.278 Y98.183 E1.06512
G1 X140.753 Y98.247 E0.04631
G1 X142.101 Y98.418 E0.04259
G1 X143.431 Y98.695 E0.04262
G1 X144.838 Y99.112 E0.04601
G1 X146.104 Y99.604 E0.04259
G1 X147.329 Y100.195 E0.04262
G1 X148.593 Y100.940 E0.04600
G1 X149.702 Y101.723 E0.04259
G1 X150.747 Y102.593 E0.04262
G1 X151.793 Y103.621 E0.04600
G1 X152.681 Y104.650 E0.04259
G1 X153.484 Y105.746 E0.04262
G1 X154.250 Y106.997 E0.04600
G1 X154.862 Y108.210 E0.04259
G1 X155.377 Y109.468 E0.04262
G1 X155.821 Y110.880 E0.04642
G1 X156.121 Y112.206 E0.04262
G1 X156.325 Y113.659 E0.04601
G1 X156.402 Y115.015 E0.04259
G1 X156.372 Y116.374 E0.04262
G1 X156.219 Y117.833 E0.04600
G1 X155.966 Y119.168 E0.04258
G1 X155.608 Y120.479 E0.04262
G1 X155.101 Y121.870 E0.04642
G1 X154.532 Y123.104 E0.04261
G1 X153.809 Y124.381 E0.04601
G1 X153.045 Y125.504 E0.04259
G1 X152.194 Y126.564 E0.04262
G1 X151.184 Y127.628 E0.04601
G1 X150.171 Y128.533 E0.04259
G1 X149.089 Y129.355 E0.04262
G1 X147.847 Y130.146 E0.04614
G1 X146.242 Y130.964 E0.05650
G1 X144.555 Y131.611 E0.05667
G1 X142.703 Y132.099 E0.06005
G1 X140.908 Y132.368 E0.05691
G1 X107.883 Y134.108 E1.03690
G1 X105.648 Y134.078 E0.07009
G1 X103.585 Y133.787 E0.06531
G1 X101.577 Y133.250 E0.06517
G1 X99.720 Y132.507 E0.06271
G1 X97.910 Y131.521 E0.06463
G1 X96.219 Y130.314 E0.06514
G1 X94.677 Y128.901 E0.06558
G1 X93.319 Y127.310 E0.06558
G1 X92.169 Y125.574 E0.06531
G1 X91.411 Y124.105 E0.05181
G1 X90.798 Y122.564 E0.05199
G1 X90.311 Y120.867 E0.05537
G1 X90.015 Y119.237 E0.05195
G1 X89.879 Y117.598 E0.05154
G1 X89.902 Y115.941 E0.05199
G1 X90.101 Y114.186 E0.05537
G1 X90.452 Y112.567 E0.05195
G1 X90.953 Y111.001 E0.05154
G1 X91.609 Y109.478 E0.05199
G1 X92.465 Y107.933 E0.05537
G1 X93.409 Y106.572 E0.05195
G1 X94.471 Y105.317 E0.05154
G1 X95.477 Y104.337 E0.04405
G1 X96.017 Y104.348 F7200.000
G1 F1500
G1 X97.380 Y103.283 E0.05423
G1 X98.743 Y102.422 E0.05054
G1 X100.320 Y101.635 E0.05524
G1 X101.962 Y101.021 E0.05499
G1 X103.660 Y100.582 E0.05499
G1 X105.394 Y100.323 E0.05499
G1 X139.278 Y98.560 E1.06384
G1 X140.722 Y98.623 E0.04531
G1 X142.039 Y98.790 E0.04163
G1 X143.339 Y99.061 E0.04161
G1 X144.717 Y99.469 E0.04508
G1 X145.955 Y99.950 E0.04163
G1 X147.150 Y100.527 E0.04161
G1 X148.389 Y101.257 E0.04507
G1 X149.473 Y102.023 E0.04163
G1 X150.584 Y102.954 E0.04544
G1 X151.527 Y103.888 E0.04163
G1 X152.393 Y104.894 E0.04161
G1 X153.238 Y106.057 E0.04508
G1 X153.927 Y107.192 E0.04163
G1 X154.524 Y108.378 E0.04162
G1 X155.063 Y109.711 E0.04507
G1 X155.460 Y110.990 E0.04200
G1 X155.771 Y112.393 E0.04508
G1 X155.951 Y113.709 E0.04163
G1 X156.027 Y115.156 E0.04544
G1 X155.987 Y116.484 E0.04163
G1 X155.824 Y117.924 E0.04544
G1 X155.565 Y119.226 E0.04163
G1 X155.204 Y120.503 E0.04161
G1 X154.701 Y121.850 E0.04508
G1 X154.135 Y123.051 E0.04163
G1 X153.476 Y124.203 E0.04162
G1 X152.662 Y125.388 E0.04507
G1 X151.814 Y126.425 E0.04200
G1 X150.815 Y127.459 E0.04508
G1 X149.817 Y128.335 E0.04163
G1 X148.754 Y129.129 E0.04161
G1 X147.531 Y129.893 E0.04521
G1 X145.954 Y130.679 E0.05524
G1 X144.304 Y131.296 E0.05524
G1 X142.482 Y131.759 E0.05892
G1 X140.742 Y132.004 E0.05511
G1 X107.743 Y133.738 E1.03609
G1 X105.548 Y133.691 E0.06884
G1 X103.528 Y133.391 E0.06401
G1 X101.672 Y132.885 E0.06032
G1 X99.787 Y132.122 E0.06377
G1 X97.991 Y131.126 E0.06440
G1 X96.343 Y129.928 E0.06388
G1 X94.847 Y128.533 E0.06414
G1 X93.532 Y126.965 E0.06414
G1 X92.422 Y125.257 E0.06388
G1 X91.694 Y123.814 E0.05066
G1 X91.108 Y122.305 E0.05077
G1 X90.646 Y120.638 E0.05423
G1 X90.371 Y119.042 E0.05079
G1 X90.251 Y117.427 E0.05078
G1 X90.297 Y115.697 E0.05423
G1 X90.500 Y114.090 E0.05079
G1 X90.855 Y112.522 E0.05041
G1 X91.363 Y110.985 E0.05077
G1 X92.067 Y109.404 E0.05423
G1 X92.870 Y107.998 E0.05079
G1 X93.798 Y106.685 E0.05041
G1 X94.847 Y105.467 E0.05041
G1 X95.974 Y104.389 E0.04889
G1 X96.236 Y104.668 F7200.000
G1 F1500
G1 X96.372 Y104.540 E0.00585
G1 X97.715 Y103.509 E0.05310
G1 X99.054 Y102.679 E0.04939
G1 X100.591 Y101.929 E0.05363
G1 X102.085 Y101.378 E0.04992
G1 X103.736 Y100.951 E0.05346
G1 X105.435 Y100.698 E0.05387
G1 X139.279 Y98.937 E1.06258
G1 X140.691 Y98.999 E0.04432
G1 X141.978 Y99.162 E0.04068
G1 X143.246 Y99.426 E0.04061
G1 X144.603 Y99.829 E0.04439
G1 X145.814 Y100.300 E0.04073
G1 X147.086 Y100.921 E0.04439
G1 X148.202 Y101.585 E0.04073
G1 X149.348 Y102.403 E0.04415
G1 X150.339 Y103.241 E0.04068
G1 X151.258 Y104.153 E0.04061
G1 X152.173 Y105.224 E0.04415
G1 X152.936 Y106.284 E0.04097
G1 X153.661 Y107.491 E0.04415
G1 X154.235 Y108.654 E0.04068
G1 X154.755 Y109.973 E0.04444
G1 X155.130 Y111.215 E0.04068
G1 X155.404 Y112.481 E0.04061
G1 X155.588 Y113.884 E0.04439
G1 X155.650 Y115.182 E0.04073
G1 X155.601 Y116.589 E0.04415
G1 X155.449 Y117.878 E0.04068
G1 X155.196 Y119.148 E0.04061
G1 X154.808 Y120.501 E0.04415
G1 X154.345 Y121.723 E0.04097
G1 X153.739 Y122.994 E0.04415
G1 X153.086 Y124.115 E0.04068
G1 X152.273 Y125.276 E0.04444
G1 X151.444 Y126.274 E0.04068
G1 X150.451 Y127.285 E0.04444
G1 X149.468 Y128.132 E0.04068
G1 X148.423 Y128.898 E0.04061
G1 X147.219 Y129.635 E0.04427
G1 X145.672 Y130.390 E0.05398
G1 X144.061 Y130.976 E0.05375
G1 X142.398 Y131.391 E0.05375
G1 X140.704 Y131.629 E0.05363
G1 X107.725 Y133.361 E1.03546
G1 X105.575 Y133.315 E0.06741
G1 X103.594 Y133.019 E0.06281
G1 X101.667 Y132.484 E0.06270
G1 X99.820 Y131.719 E0.06269
G1 X98.080 Y130.734 E0.06270
G1 X96.472 Y129.545 E0.06270
G1 X95.024 Y128.171 E0.06257
G1 X93.752 Y126.628 E0.06270
G1 X92.679 Y124.945 E0.06258
G1 X91.981 Y123.529 E0.04951
G1 X91.421 Y122.051 E0.04956
G1 X90.983 Y120.415 E0.05310
G1 X90.729 Y118.857 E0.04951
G1 X90.625 Y117.285 E0.04939
G1 X90.674 Y115.705 E0.04956
G1 X90.895 Y114.026 E0.05310
G1 X91.257 Y112.489 E0.04951
G1 X91.763 Y110.997 E0.04939
G1 X92.413 Y109.556 E0.04956
G1 X93.259 Y108.089 E0.05310
G1 X94.181 Y106.807 E0.04951
G1 X95.220 Y105.623 E0.04939
G1 X96.192 Y104.709 E0.04184
G1 F5760
G1 X96.372 Y104.540 E-0.08537
G1 F5760
G1 X97.715 Y103.509 E-0.58655
G1 F5760
G1 X97.932 Y103.375 E-0.08808
G1 E-0.04000 F2100.00000
G1 X101.730 Y110.806 F7200.000
G1 E0.80000 F2100.00000
G1 F1200
G1 X102.449 Y110.253 E0.02843
G1 X103.118 Y109.848 E0.02452
G1 X103.885 Y109.482 E0.02663
G1 X104.621 Y109.218 E0.02452
G1 X105.378 Y109.026 E0.02448
G1 X106.151 Y108.907 E0.02452
G1 X106.992 Y108.862 E0.02642
G1 X107.780 Y108.900 E0.02473
G1 X108.554 Y109.012 E0.02453
G1 X109.378 Y109.217 E0.02663
G1 X110.115 Y109.482 E0.02456
G1 X110.882 Y109.848 E0.02663
G1 X111.551 Y110.253 E0.02452
G1 X112.176 Y110.721 E0.02448
G1 X112.754 Y111.246 E0.02448
G1 X113.279 Y111.824 E0.02448
G1 X113.747 Y112.450 E0.02452
G1 X114.181 Y113.172 E0.02642
G1 X114.519 Y113.887 E0.02477
G1 X114.802 Y114.688 E0.02663
G1 X114.988 Y115.447 E0.02452
G1 X115.100 Y116.220 E0.02448
G1 X115.138 Y117.000 E0.02448
G1 X115.100 Y117.781 E0.02452
G1 X114.975 Y118.621 E0.02663
G1 X114.782 Y119.379 E0.02452
G1 X114.518 Y120.115 E0.02452
G1 X114.152 Y120.882 E0.02663
G1 X113.747 Y121.551 E0.02452
G1 X113.279 Y122.176 E0.02448
G1 X112.753 Y122.755 E0.02452
G1 X112.128 Y123.319 E0.02642
G1 X111.492 Y123.786 E0.02473
G1 X110.820 Y124.185 E0.02449
G1 X110.113 Y124.519 E0.02452
G1 X109.312 Y124.802 E0.02663
G1 X108.553 Y124.988 E0.02452
G1 X107.780 Y125.100 E0.02448
G1 X107.000 Y125.138 E0.02448
G1 X106.219 Y125.100 E0.02452
G1 X105.386 Y124.976 E0.02642
G1 X104.621 Y124.782 E0.02473
G1 X103.885 Y124.518 E0.02453
G1 X103.118 Y124.152 E0.02663
G1 X102.449 Y123.747 E0.02452
G1 X101.824 Y123.279 E0.02448
G1 X101.245 Y122.753 E0.02452
G1 X100.677 Y122.122 E0.02663
G1 X100.214 Y121.492 E0.02452
G1 X99.815 Y120.820 E0.02448
G1 X99.481 Y120.113 E0.02452
G1 X99.198 Y119.312 E0.02663
G1 X99.012 Y118.553 E0.02452
G1 X98.900 Y117.780 E0.02448
G1 X98.862 Y117.000 E0.02448
G1 X98.900 Y116.220 E0.02448
G1 X99.012 Y115.446 E0.02452
G1 X99.217 Y114.622 E0.02663
G1 X99.482 Y113.885 E0.02456
G1 X99.848 Y113.118 E0.02663
G1 X100.253 Y112.449 E0.02452
G1 X100.721 Y111.824 E0.02448
G1 X101.246 Y111.246 E0.02448
G1 X101.686 Y110.846 E0.01864
G1 X101.939 Y111.125 F7200.000
G1 F900
G1 X102.064 Y111.012 E0.00528
G1 X102.661 Y110.566 E0.02335
G1 X103.298 Y110.180 E0.02336
G1 X104.030 Y109.831 E0.02544
G1 X104.731 Y109.579 E0.02336
G1 X105.453 Y109.396 E0.02335
G1 X106.189 Y109.282 E0.02336
G1 X106.993 Y109.240 E0.02523
G1 X107.744 Y109.275 E0.02357
G1 X108.481 Y109.382 E0.02336
G1 X109.268 Y109.579 E0.02544
G1 X109.970 Y109.831 E0.02338
G1 X110.702 Y110.180 E0.02544
G1 X111.339 Y110.566 E0.02336
G1 X111.936 Y111.012 E0.02335
G1 X112.487 Y111.513 E0.02335
G1 X112.988 Y112.064 E0.02335
G1 X113.434 Y112.661 E0.02336
G1 X113.849 Y113.350 E0.02523
G1 X114.170 Y114.031 E0.02358
G1 X114.441 Y114.796 E0.02544
G1 X114.618 Y115.519 E0.02336
G1 X114.725 Y116.256 E0.02335
G1 X114.760 Y117.000 E0.02335
G1 X114.724 Y117.744 E0.02336
G1 X114.605 Y118.547 E0.02544
G1 X114.421 Y119.269 E0.02336
G1 X114.169 Y119.970 E0.02336
G1 X113.820 Y120.702 E0.02544
G1 X113.434 Y121.339 E0.02336
G1 X112.988 Y121.936 E0.02335
G1 X112.487 Y122.488 E0.02336
G1 X111.889 Y123.026 E0.02523
G1 X111.283 Y123.471 E0.02357
G1 X110.643 Y123.852 E0.02335
G1 X109.969 Y124.170 E0.02336
G1 X109.204 Y124.441 E0.02544
G1 X108.481 Y124.618 E0.02336
G1 X107.744 Y124.725 E0.02335
G1 X107.000 Y124.760 E0.02335
G1 X106.256 Y124.724 E0.02336
G1 X105.460 Y124.606 E0.02523
G1 X104.731 Y124.421 E0.02357
G1 X104.030 Y124.169 E0.02336
G1 X103.298 Y123.820 E0.02544
G1 X102.661 Y123.434 E0.02336
G1 X102.064 Y122.988 E0.02335
G1 X101.512 Y122.487 E0.02336
G1 X100.969 Y121.884 E0.02544
G1 X100.529 Y121.283 E0.02336
G1 X100.148 Y120.643 E0.02335
G1 X99.830 Y119.969 E0.02336
G1 X99.559 Y119.204 E0.02544
G1 X99.382 Y118.481 E0.02336
G1 X99.275 Y117.744 E0.02335
G1 X99.240 Y117.000 E0.02335
G1 X99.275 Y116.256 E0.02335
G1 X99.382 Y115.519 E0.02336
G1 X99.579 Y114.732 E0.02544
G1 X99.831 Y114.030 E0.02338
G1 X100.180 Y113.298 E0.02544
G1 X100.566 Y112.661 E0.02336
G1 X101.012 Y112.064 E0.02335
G1 X101.513 Y111.513 E0.02335
G1 X101.895 Y111.165 E0.01619
G1 X101.901 Y110.961 F7200.000
G1 F5760
G1 X102.064 Y111.012 E-0.07906
G1 F5760
G1 X102.661 Y110.566 E-0.25791
G1 F5760
G1 X103.298 Y110.180 E-0.25807
G1 F5760
G1 X103.727 Y109.975 E-0.16496
G1 E-0.04000 F2100.00000
G1 X98.185 Y106.897 F7200.000
G1 E0.80000 F2100.00000
G1 F1200
G1 X98.951 Y106.271 E0.03103
G1 X99.501 Y105.880 E0.02115
G1 X99.991 Y105.564 E0.01828
G1 X100.600 Y105.213 E0.02206
G1 X101.226 Y104.894 E0.02202
G1 X101.867 Y104.608 E0.02202
G1 X102.523 Y104.357 E0.02202
G1 X103.191 Y104.140 E0.02202
G1 X103.870 Y103.958 E0.02206
G1 X104.440 Y103.834 E0.01830
G1 X105.046 Y103.730 E0.01926
G1 X105.714 Y103.649 E0.02111
G1 X106.416 Y103.600 E0.02205
G1 X107.029 Y103.587 E0.01922
G1 X107.702 Y103.606 E0.02111
G1 X108.403 Y103.661 E0.02207
G1 X108.981 Y103.734 E0.01827
G1 X109.675 Y103.857 E0.02210
G1 X110.244 Y103.985 E0.01827
G1 X110.921 Y104.173 E0.02206
G1 X111.589 Y104.397 E0.02206
G1 X112.133 Y104.608 E0.01831
G1 X112.667 Y104.843 E0.01831
G1 X113.297 Y105.157 E0.02206
G1 X113.908 Y105.503 E0.02202
G1 X114.501 Y105.881 E0.02205
G1 X115.001 Y106.235 E0.01922
G1 X115.531 Y106.650 E0.02111
G1 X116.062 Y107.112 E0.02207
G1 X116.484 Y107.516 E0.01831
G1 X116.888 Y107.938 E0.01831
G1 X117.350 Y108.469 E0.02209
G1 X117.729 Y108.951 E0.01922
G1 X118.120 Y109.499 E0.02111
G1 X118.497 Y110.092 E0.02203
G1 X118.843 Y110.704 E0.02206
G1 X119.106 Y111.225 E0.01827
G1 X119.392 Y111.868 E0.02210
G1 X119.603 Y112.411 E0.01827
G1 X119.827 Y113.079 E0.02206
G1 X120.015 Y113.756 E0.02205
G1 X120.149 Y114.354 E0.01922
G1 X120.265 Y115.017 E0.02111
G1 X120.351 Y115.714 E0.02203
G1 X120.400 Y116.416 E0.02206
G1 X120.413 Y117.000 E0.01831
G1 X120.400 Y117.584 E0.01831
G1 X120.351 Y118.286 E0.02209
G1 X120.278 Y118.895 E0.01922
G1 X120.166 Y119.559 E0.02111
G1 X120.014 Y120.246 E0.02205
G1 X119.852 Y120.837 E0.01922
G1 X119.643 Y121.477 E0.02111
G1 X119.392 Y122.133 E0.02203
G1 X119.106 Y122.775 E0.02205
G1 X118.829 Y123.322 E0.01922
G1 X118.497 Y123.908 E0.02111
G1 X118.120 Y124.500 E0.02203
G1 X117.711 Y125.073 E0.02206
G1 X117.350 Y125.531 E0.01827
G1 X116.888 Y126.062 E0.02210
G1 X116.484 Y126.484 E0.01831
G1 X116.062 Y126.888 E0.01831
G1 X115.531 Y127.350 E0.02210
G1 X115.073 Y127.711 E0.01827
G1 X114.500 Y128.120 E0.02206
G1 X113.908 Y128.497 E0.02202
G1 X113.296 Y128.843 E0.02206
G1 X112.775 Y129.106 E0.01827
G1 X112.132 Y129.392 E0.02210
G1 X111.589 Y129.603 E0.01827
G1 X110.921 Y129.827 E0.02206
G1 X110.244 Y130.015 E0.02205
G1 X109.646 Y130.149 E0.01922
G1 X108.983 Y130.265 E0.02111
G1 X108.286 Y130.351 E0.02203
G1 X107.584 Y130.400 E0.02206
G1 X107.000 Y130.413 E0.01831
G1 X106.416 Y130.400 E0.01831
G1 X105.714 Y130.351 E0.02209
G1 X105.105 Y130.278 E0.01922
G1 X104.441 Y130.166 E0.02112
G1 X103.783 Y130.021 E0.02112
G1 X103.191 Y129.861 E0.01922
G1 X102.523 Y129.643 E0.02205
G1 X101.867 Y129.392 E0.02202
