; generated by Slic3r 1.35.5-prusa3d-linux64 on 2017-10-28 at 21:46:05

; 

; external perimeters extrusion width = 0.45mm
; perimeters extrusion width = 0.45mm
; infill extrusion width = 0.45mm
; solid infill extrusion width = 0.45mm
; top infill extrusion width = 0.40mm
; first layer extrusion width = 0.42mm

M107
M115 U3.0.9 ; tell printer latest fw version
M83  ; extruder relative mode
M104 S215 ; set extruder temp
M140 S65 ; set bed temp
M190 S65 ; wait for bed temp
M109 S215 ; wait for extruder temp
G28 W ; home all without mesh bed level
G80 ; mesh bed leveling
G1 Y-3.0 F1000.0 ; go outside pritn area
G1 X60.0 E9.0  F1000.0 ; intro line
G1 X100.0 E12.5  F1000.0 ; intro line
; Filament gcode

G21 ; set units to millimeters
G90 ; use absolute coordinates
M83 ; use relative distances for extrusion
G1 E-0.80000 F2100.00000
G1 Z0.200 F7200.000
G1 X91.280 Y80.278 F7200.000
G1 E0.80000 F2100.00000
M204 S1000
G1 F1500
G1 X92.156 Y79.566 E0.03540
G1 X93.201 Y79.088 E0.03603
G1 X94.227 Y78.898 E0.03271
G1 X116.542 Y78.884 E0.69968
G1 X117.424 Y78.975 E0.02778
G1 X118.094 Y79.167 E0.02187
G1 X118.878 Y79.540 E0.02722
G1 X119.635 Y80.117 E0.02984
G1 X120.226 Y80.809 E0.02852
G1 X120.575 Y81.392 E0.02129
G1 X120.889 Y82.211 E0.02752
G1 X121.031 Y83.064 E0.02709
G1 X121.046 Y118.444 E1.10932
G1 X120.894 Y119.554 E0.03514
G1 X120.471 Y120.595 E0.03524
G1 X119.773 Y121.532 E0.03661
G1 X118.886 Y122.240 E0.03560
G1 X117.826 Y122.713 E0.03641
G1 X116.754 Y122.894 E0.03407
G1 X94.455 Y122.900 E0.69919
G1 X93.376 Y122.747 E0.03415
G1 X92.344 Y122.330 E0.03490
G1 X91.407 Y121.634 E0.03660
G1 X90.684 Y120.729 E0.03631
G1 X90.210 Y119.654 E0.03684
G1 X90.033 Y118.542 E0.03532
G1 X90.030 Y83.337 E1.10382
G1 X90.182 Y82.231 E0.03499
G1 X90.601 Y81.200 E0.03491
G1 X91.245 Y80.327 E0.03402
G1 X91.546 Y80.551 F7200.000
G1 F1500
G1 X92.372 Y79.875 E0.03344
G1 X93.335 Y79.441 E0.03313
G1 X94.281 Y79.272 E0.03013
G1 X116.542 Y79.261 E0.69798
G1 X117.356 Y79.346 E0.02567
G1 X117.960 Y79.520 E0.01970
G1 X118.683 Y79.863 E0.02508
G1 X119.388 Y80.402 E0.02782
G1 X119.930 Y81.042 E0.02631
G1 X120.239 Y81.564 E0.01902
G1 X120.527 Y82.320 E0.02536
G1 X120.657 Y83.119 E0.02536
G1 X120.669 Y118.436 E1.10736
G1 X120.527 Y119.467 E0.03262
G1 X120.133 Y120.426 E0.03251
G1 X119.493 Y121.279 E0.03342
G1 X118.675 Y121.927 E0.03272
G1 X117.702 Y122.356 E0.03335
G1 X116.718 Y122.518 E0.03126
G1 X94.468 Y122.523 E0.69765
G1 X93.472 Y122.382 E0.03153
G1 X92.515 Y121.993 E0.03240
G1 X91.661 Y121.356 E0.03339
G1 X91.001 Y120.525 E0.03326
G1 X90.568 Y119.537 E0.03384
G1 X90.409 Y118.514 E0.03245
G1 X90.407 Y83.349 E1.10257
G1 X90.548 Y82.322 E0.03249
G1 X90.936 Y81.372 E0.03218
G1 X91.511 Y80.599 E0.03021
G1 X91.811 Y80.823 F7200.000
G1 F1500
G1 X92.584 Y80.188 E0.03137
G1 X93.464 Y79.796 E0.03021
G1 X94.329 Y79.646 E0.02753
G1 X116.542 Y79.639 E0.69646
G1 X117.290 Y79.717 E0.02358
G1 X117.825 Y79.872 E0.01745
G1 X118.486 Y80.184 E0.02292
G1 X119.137 Y80.684 E0.02575
G1 X119.631 Y81.272 E0.02407
G1 X119.906 Y81.742 E0.01707
G1 X120.166 Y82.429 E0.02305
G1 X120.283 Y83.172 E0.02357
G1 X120.292 Y118.430 E1.10548
G1 X120.163 Y119.369 E0.02972
G1 X119.800 Y120.250 E0.02988
G1 X119.216 Y121.023 E0.03037
G1 X118.469 Y121.612 E0.02983
G1 X117.583 Y121.998 E0.03030
G1 X116.684 Y122.143 E0.02857
G1 X94.480 Y122.146 E0.69616
G1 X93.567 Y122.017 E0.02893
G1 X92.689 Y121.658 E0.02973
G1 X91.919 Y121.080 E0.03021
G1 X91.319 Y120.321 E0.03033
G1 X90.928 Y119.423 E0.03070
G1 X90.785 Y118.491 E0.02958
G1 X90.784 Y83.356 E1.10163
G1 X90.913 Y82.417 E0.02972
G1 X91.272 Y81.545 E0.02955
G1 X91.775 Y80.872 E0.02637
G1 X91.610 Y81.710 F7200.000
G1 F1500
G1 X92.132 Y81.023 E0.02705
G1 X92.798 Y80.499 E0.02657
G1 X93.588 Y80.152 E0.02705
G1 X94.375 Y80.021 E0.02503
G1 X116.542 Y80.016 E0.69501
G1 X117.687 Y80.223 E0.03651
G1 X118.289 Y80.506 E0.02086
G1 X118.883 Y80.963 E0.02349
G1 X119.568 Y81.908 E0.03660
G1 X119.804 Y82.534 E0.02098
G1 X119.909 Y83.219 E0.02171
G1 X119.915 Y118.423 E1.10381
G1 X119.798 Y119.275 E0.02697
G1 X119.467 Y120.073 E0.02709
G1 X118.942 Y120.764 E0.02721
G1 X118.266 Y121.294 E0.02693
G1 X117.468 Y121.639 E0.02725
G1 X116.653 Y121.767 E0.02585
G1 X94.492 Y121.769 E0.69485
G1 X93.652 Y121.651 E0.02661
G1 X92.855 Y121.320 E0.02705
G1 X92.160 Y120.790 E0.02741
G1 X91.628 Y120.106 E0.02716
G1 X91.286 Y119.302 E0.02740
G1 X91.162 Y118.468 E0.02646
G1 X91.161 Y83.362 E1.10071
G1 X91.278 Y82.510 E0.02697
G1 X91.587 Y81.765 E0.02529
G1 F5760
G1 X92.132 Y81.023 E-0.31890
G1 F5760
G1 X92.798 Y80.499 E-0.29354
G1 F5760
G1 X93.188 Y80.328 E-0.14755
G1 E-0.04000 F2100.00000
G1 X98.016 Y113.767 F7200.000
G1 E0.80000 F2100.00000
G1 F600
G1 X98.538 Y113.701 E0.01649
G1 X99.083 Y113.770 E0.01723
G1 X99.594 Y113.972 E0.01723
G1 X100.038 Y114.295 E0.01723
G1 X100.388 Y114.718 E0.01723
G1 X100.622 Y115.215 E0.01723
G1 X100.725 Y115.755 E0.01723
G1 X100.691 Y116.303 E0.01723
G1 X100.521 Y116.826 E0.01723
G1 X100.227 Y117.290 E0.01723
G1 X99.826 Y117.666 E0.01723
G1 X99.345 Y117.930 E0.01723
G1 X98.813 Y118.067 E0.01723
G1 X98.263 Y118.067 E0.01723
G1 X97.731 Y117.930 E0.01723
G1 X97.250 Y117.666 E0.01723
G1 X96.849 Y117.290 E0.01723
G1 X96.555 Y116.826 E0.01723
G1 X96.385 Y116.303 E0.01723
G1 X96.350 Y115.755 E0.01723
G1 X96.453 Y115.215 E0.01723
G1 X96.687 Y114.718 E0.01723
G1 X97.037 Y114.295 E0.01723
G1 X97.485 Y113.970 E0.01734
G1 X97.960 Y113.788 E0.01595
G1 X98.095 Y114.140 F7200.000
G1 F600
G1 X98.538 Y114.081 E0.01402
G1 X98.988 Y114.138 E0.01424
G1 X99.411 Y114.305 E0.01424
G1 X99.778 Y114.572 E0.01424
G1 X100.067 Y114.922 E0.01424
G1 X100.261 Y115.333 E0.01424
G1 X100.346 Y115.779 E0.01424
G1 X100.317 Y116.232 E0.01424
G1 X100.177 Y116.664 E0.01424
G1 X99.934 Y117.047 E0.01424
G1 X99.603 Y117.358 E0.01424
G1 X99.205 Y117.577 E0.01424
G1 X98.765 Y117.690 E0.01424
G1 X98.311 Y117.690 E0.01424
G1 X97.871 Y117.577 E0.01424
G1 X97.473 Y117.358 E0.01424
G1 X97.142 Y117.047 E0.01424
G1 X96.899 Y116.664 E0.01424
G1 X96.758 Y116.232 E0.01424
G1 X96.730 Y115.779 E0.01424
G1 X96.815 Y115.333 E0.01424
G1 X97.008 Y114.922 E0.01424
G1 X97.298 Y114.572 E0.01424
G1 X97.666 Y114.304 E0.01428
G1 X98.039 Y114.162 E0.01251
G1 X98.201 Y113.755 F7200.000
G1 F5760
G1 X98.538 Y114.081 E-0.17512
G1 F5760
G1 X98.988 Y114.138 E-0.15729
G1 F5760
G1 X99.411 Y114.305 E-0.15729
G1 F5760
G1 X99.778 Y114.572 E-0.15729
G1 F5760
G1 X99.986 Y114.823 E-0.11301
G1 E-0.04000 F2100.00000
G1 X110.350 Y115.755 F7200.000
G1 E0.80000 F2100.00000
G1 F600
G1 X110.453 Y115.215 E0.01723
G1 X110.687 Y114.718 E0.01723
G1 X111.037 Y114.295 E0.01723
G1 X111.482 Y113.972 E0.01723
G1 X111.993 Y113.770 E0.01723
G1 X112.538 Y113.701 E0.01723
G1 X113.083 Y113.770 E0.01723
G1 X113.594 Y113.972 E0.01723
G1 X114.038 Y114.295 E0.01723
G1 X114.388 Y114.718 E0.01723
G1 X114.622 Y115.215 E0.01723
G1 X114.725 Y115.755 E0.01723
G1 X114.691 Y116.303 E0.01723
G1 X114.521 Y116.826 E0.01723
G1 X114.227 Y117.290 E0.01723
G1 X113.826 Y117.666 E0.01723
G1 X113.345 Y117.930 E0.01723
G1 X112.813 Y118.067 E0.01723
G1 X112.263 Y118.067 E0.01723
G1 X111.731 Y117.930 E0.01723
G1 X111.250 Y117.666 E0.01723
G1 X110.849 Y117.290 E0.01723
G1 X110.555 Y116.826 E0.01723
G1 X110.385 Y116.303 E0.01723
G1 X110.354 Y115.815 E0.01534
G1 X110.731 Y115.791 F7200.000
G1 F600
G1 X110.815 Y115.333 E0.01461
G1 X111.008 Y114.922 E0.01424
G1 X111.298 Y114.572 E0.01424
G1 X111.665 Y114.305 E0.01424
G1 X112.087 Y114.138 E0.01424
G1 X112.538 Y114.081 E0.01424
G1 X112.988 Y114.138 E0.01424
G1 X113.411 Y114.305 E0.01424
G1 X113.778 Y114.572 E0.01424
G1 X114.067 Y114.922 E0.01424
G1 X114.261 Y115.333 E0.01424
G1 X114.346 Y115.779 E0.01424
G1 X114.317 Y116.232 E0.01424
G1 X114.177 Y116.664 E0.01424
G1 X113.934 Y117.047 E0.01424
G1 X113.603 Y117.358 E0.01424
G1 X113.205 Y117.577 E0.01424
G1 X112.765 Y117.690 E0.01424
G1 X112.311 Y117.690 E0.01424
G1 X111.871 Y117.577 E0.01424
G1 X111.473 Y117.358 E0.01424
G1 X111.142 Y117.047 E0.01424
G1 X110.899 Y116.664 E0.01424
G1 X110.758 Y116.232 E0.01424
G1 X110.734 Y115.851 E0.01197
G1 X110.396 Y115.572 F7200.000
G1 F5760
G1 X110.815 Y115.333 E-0.18167
G1 F5760
G1 X111.008 Y114.922 E-0.15729
G1 F5760
G1 X111.298 Y114.572 E-0.15729
G1 F5760
G1 X111.665 Y114.305 E-0.15729
G1 F5760
G1 X111.951 Y114.192 E-0.10646
G1 E-0.04000 F2100.00000
G1 X112.263 Y103.067 F7200.000
G1 E0.80000 F2100.00000
G1 F600
G1 X111.754 Y102.936 E0.01649
G1 X111.252 Y102.668 E0.01784
G1 X110.849 Y102.290 E0.01734
G1 X110.555 Y101.826 E0.01723
G1 X110.385 Y101.303 E0.01723
G1 X110.350 Y100.755 E0.01723
G1 X110.453 Y100.215 E0.01723
G1 X110.687 Y99.718 E0.01723
G1 X111.037 Y99.295 E0.01723
G1 X111.485 Y98.970 E0.01734
G1 X112.016 Y98.767 E0.01784
G1 X112.538 Y98.701 E0.01649
G1 X113.083 Y98.770 E0.01723
G1 X113.594 Y98.972 E0.01723
G1 X114.038 Y99.295 E0.01723
G1 X114.388 Y99.718 E0.01723
G1 X114.622 Y100.215 E0.01723
G1 X114.725 Y100.755 E0.01723
G1 X114.691 Y101.303 E0.01723
G1 X114.521 Y101.826 E0.01723
G1 X114.225 Y102.293 E0.01734
G1 X113.805 Y102.677 E0.01784
G1 X113.345 Y102.930 E0.01649
G1 X112.813 Y103.067 E0.01723
G1 X112.323 Y103.067 E0.01534
G1 X112.323 Y102.690 F7200.000
G1 F600
G1 X111.892 Y102.582 E0.01395
G1 X111.474 Y102.359 E0.01485
G1 X111.142 Y102.047 E0.01428
G1 X110.899 Y101.664 E0.01424
G1 X110.758 Y101.232 E0.01424
G1 X110.730 Y100.779 E0.01424
G1 X110.815 Y100.333 E0.01424
G1 X111.008 Y99.922 E0.01424
G1 X111.298 Y99.572 E0.01424
G1 X111.666 Y99.304 E0.01428
G1 X112.108 Y99.135 E0.01485
G1 X112.538 Y99.081 E0.01357
G1 X112.988 Y99.138 E0.01424
G1 X113.411 Y99.305 E0.01424
G1 X113.778 Y99.572 E0.01424
G1 X114.067 Y99.922 E0.01424
G1 X114.261 Y100.333 E0.01424
G1 X114.346 Y100.779 E0.01424
G1 X114.317 Y101.232 E0.01424
G1 X114.177 Y101.664 E0.01424
G1 X113.933 Y102.049 E0.01428
G1 X113.584 Y102.369 E0.01485
G1 X113.205 Y102.577 E0.01357
G1 X112.765 Y102.690 E0.01424
G1 X112.383 Y102.690 E0.01197
G1 X112.083 Y103.010 F7200.000
G1 F5760
G1 X111.892 Y102.582 E-0.17429
G1 F5760
G1 X111.474 Y102.359 E-0.16403
G1 F5760
G1 X111.142 Y102.047 E-0.15773
G1 F5760
G1 X110.899 Y101.664 E-0.15729
G1 F5760
G1 X110.803 Y101.371 E-0.10667
G1 E-0.04000 F2100.00000
G1 X100.691 Y101.303 F7200.000
G1 E0.80000 F2100.00000
G1 F600
G1 X100.521 Y101.826 E0.01723
G1 X100.227 Y102.290 E0.01723
G1 X99.826 Y102.666 E0.01723
G1 X99.365 Y102.919 E0.01649
G1 X98.816 Y103.067 E0.01784
G1 X98.263 Y103.067 E0.01734
G1 X97.731 Y102.930 E0.01723
G1 X97.250 Y102.666 E0.01723
G1 X96.849 Y102.290 E0.01723
G1 X96.555 Y101.826 E0.01723
G1 X96.385 Y101.303 E0.01723
G1 X96.350 Y100.755 E0.01723
G1 X96.453 Y100.215 E0.01723
G1 X96.687 Y99.718 E0.01723
G1 X97.037 Y99.295 E0.01723
G1 X97.485 Y98.970 E0.01734
G1 X98.016 Y98.767 E0.01784
G1 X98.538 Y98.701 E0.01649
G1 X99.083 Y98.770 E0.01723
G1 X99.594 Y98.972 E0.01723
G1 X100.038 Y99.295 E0.01723
G1 X100.388 Y99.718 E0.01723
G1 X100.622 Y100.215 E0.01723
G1 X100.725 Y100.755 E0.01723
G1 X100.695 Y101.243 E0.01534
G1 X100.318 Y101.220 F7200.000
G1 F600
G1 X100.177 Y101.664 E0.01461
G1 X99.934 Y102.047 E0.01424
G1 X99.603 Y102.358 E0.01424
G1 X99.223 Y102.567 E0.01357
G1 X98.766 Y102.690 E0.01485
G1 X98.311 Y102.690 E0.01428
G1 X97.871 Y102.577 E0.01424
G1 X97.473 Y102.358 E0.01424
G1 X97.142 Y102.047 E0.01424
G1 X96.899 Y101.664 E0.01424
G1 X96.758 Y101.232 E0.01424
G1 X96.730 Y100.779 E0.01424
G1 X96.815 Y100.333 E0.01424
G1 X97.008 Y99.922 E0.01424
G1 X97.298 Y99.572 E0.01424
G1 X97.666 Y99.304 E0.01428
G1 X98.108 Y99.135 E0.01485
G1 X98.538 Y99.081 E0.01357
G1 X98.988 Y99.138 E0.01424
G1 X99.411 Y99.305 E0.01424
G1 X99.778 Y99.572 E0.01424
G1 X100.067 Y99.922 E0.01424
G1 X100.261 Y100.333 E0.01424
G1 X100.346 Y100.779 E0.01424
G1 X100.322 Y101.160 E0.01197
G1 X100.622 Y101.480 F7200.000
G1 F5760
G1 X100.177 Y101.664 E-0.18167
G1 F5760
G1 X99.934 Y102.047 E-0.15729
G1 F5760
G1 X99.603 Y102.358 E-0.15729
G1 F5760
G1 X99.223 Y102.567 E-0.14990
G1 F5760
G1 X98.906 Y102.652 E-0.11385
G1 E-0.04000 F2100.00000
G1 X98.813 Y88.067 F7200.000
G1 E0.80000 F2100.00000
G1 F600
G1 X98.263 Y88.067 E0.01723
G1 X97.731 Y87.930 E0.01723
G1 X97.250 Y87.666 E0.01723
G1 X96.849 Y87.290 E0.01723
G1 X96.555 Y86.826 E0.01723
G1 X96.385 Y86.303 E0.01723
G1 X96.350 Y85.755 E0.01723
G1 X96.453 Y85.215 E0.01723
G1 X96.687 Y84.718 E0.01723
G1 X97.037 Y84.295 E0.01723
G1 X97.485 Y83.970 E0.01734
G1 X98.016 Y83.767 E0.01784
G1 X98.538 Y83.701 E0.01649
G1 X99.083 Y83.770 E0.01723
G1 X99.594 Y83.972 E0.01723
G1 X100.038 Y84.295 E0.01723
G1 X100.388 Y84.718 E0.01723
G1 X100.622 Y85.215 E0.01723
G1 X100.725 Y85.755 E0.01723
G1 X100.691 Y86.303 E0.01723
G1 X100.521 Y86.826 E0.01723
G1 X100.227 Y87.290 E0.01723
G1 X99.826 Y87.666 E0.01723
G1 X99.345 Y87.930 E0.01723
G1 X98.871 Y88.052 E0.01534
G1 X98.777 Y87.687 F7200.000
G1 F600
G1 X98.311 Y87.690 E0.01461
G1 X97.871 Y87.577 E0.01424
G1 X97.473 Y87.358 E0.01424
G1 X97.142 Y87.047 E0.01424
G1 X96.899 Y86.664 E0.01424
G1 X96.758 Y86.232 E0.01424
G1 X96.730 Y85.779 E0.01424
G1 X96.815 Y85.333 E0.01424
G1 X97.008 Y84.922 E0.01424
G1 X97.298 Y84.572 E0.01424
G1 X97.666 Y84.304 E0.01428
G1 X98.108 Y84.135 E0.01485
G1 X98.538 Y84.081 E0.01357
G1 X98.988 Y84.138 E0.01424
G1 X99.411 Y84.305 E0.01424
G1 X99.778 Y84.572 E0.01424
G1 X100.067 Y84.922 E0.01424
G1 X100.261 Y85.333 E0.01424
G1 X100.346 Y85.779 E0.01424
G1 X100.317 Y86.232 E0.01424
G1 X100.177 Y86.664 E0.01424
G1 X99.934 Y87.047 E0.01424
G1 X99.603 Y87.358 E0.01424
G1 X99.205 Y87.577 E0.01424
G1 X98.835 Y87.672 E0.01197
G1 X98.624 Y88.056 F7200.000
G1 F5760
G1 X98.311 Y87.690 E-0.18167
G1 F5760
G1 X97.871 Y87.577 E-0.15729
G1 F5760
G1 X97.473 Y87.358 E-0.15729
G1 F5760
G1 X97.142 Y87.047 E-0.15729
G1 F5760
G1 X96.977 Y86.788 E-0.10647
G1 E-0.04000 F2100.00000
G1 X110.385 Y86.303 F7200.000
G1 E0.80000 F2100.00000
G1 F600
G1 X110.350 Y85.755 E0.01723
G1 X110.453 Y85.215 E0.01723
G1 X110.687 Y84.718 E0.01723
G1 X111.037 Y84.295 E0.01723
G1 X111.485 Y83.970 E0.01734
G1 X112.016 Y83.767 E0.01784
G1 X112.538 Y83.701 E0.01649
G1 X113.083 Y83.770 E0.01723
G1 X113.594 Y83.972 E0.01723
G1 X114.038 Y84.295 E0.01723
G1 X114.388 Y84.718 E0.01723
G1 X114.622 Y85.215 E0.01723
G1 X114.725 Y85.755 E0.01723
G1 X114.691 Y86.303 E0.01723
G1 X114.521 Y86.826 E0.01723
G1 X114.225 Y87.293 E0.01734
G1 X113.805 Y87.677 E0.01784
G1 X113.345 Y87.930 E0.01649
G1 X112.813 Y88.067 E0.01723
G1 X112.263 Y88.067 E0.01723
G1 X111.731 Y87.930 E0.01723
G1 X111.250 Y87.666 E0.01723
G1 X110.849 Y87.290 E0.01723
G1 X110.555 Y86.826 E0.01723
G1 X110.403 Y86.360 E0.01534
G1 X110.762 Y86.244 F7200.000
G1 F600
G1 X110.730 Y85.779 E0.01461
G1 X110.815 Y85.333 E0.01424
G1 X111.008 Y84.922 E0.01424
G1 X111.298 Y84.572 E0.01424
G1 X111.666 Y84.304 E0.01428
G1 X112.108 Y84.135 E0.01485
G1 X112.538 Y84.081 E0.01357
G1 X112.988 Y84.138 E0.01424
G1 X113.411 Y84.305 E0.01424
G1 X113.778 Y84.572 E0.01424
G1 X114.067 Y84.922 E0.01424
G1 X114.261 Y85.333 E0.01424
G1 X114.346 Y85.779 E0.01424
G1 X114.317 Y86.232 E0.01424
G1 X114.177 Y86.664 E0.01424
G1 X113.933 Y87.049 E0.01428
G1 X113.584 Y87.369 E0.01485
G1 X113.205 Y87.577 E0.01357
G1 X112.765 Y87.690 E0.01424
G1 X112.311 Y87.690 E0.01424
G1 X111.871 Y87.577 E0.01424
G1 X111.473 Y87.358 E0.01424
G1 X111.142 Y87.047 E0.01424
G1 X110.899 Y86.664 E0.01424
G1 X110.781 Y86.301 E0.01197
G1 X110.384 Y86.114 F7200.000
G1 F5760
G1 X110.730 Y85.779 E-0.18167
G1 F5760
G1 X110.815 Y85.333 E-0.15729
G1 F5760
G1 X111.008 Y84.922 E-0.15729
G1 F5760
G1 X111.298 Y84.572 E-0.15729
G1 F5760
G1 X111.546 Y84.391 E-0.10647
G1 E-0.04000 F2100.00000
G1 X116.745 Y83.042 F7200.000
G1 E0.80000 F2100.00000
G1 F1200
G1 X116.826 Y83.104 E0.00322
G1 X116.891 Y83.189 E0.00334
G1 X116.932 Y83.287 E0.00334
G1 X116.951 Y83.431 E0.00456
G1 X116.951 Y118.354 E1.09499
G1 X116.932 Y118.498 E0.00456
G1 X116.891 Y118.597 E0.00334
G1 X116.826 Y118.681 E0.00334
G1 X116.742 Y118.746 E0.00334
G1 X116.643 Y118.787 E0.00334
G1 X116.499 Y118.806 E0.00456
G1 X94.576 Y118.806 E0.68738
G1 X94.432 Y118.787 E0.00456
G1 X94.334 Y118.746 E0.00334
G1 X94.249 Y118.681 E0.00334
