; generated by Slic3r 1.35.5-prusa3d-linux64 on 2017-10-29 at 12:01:58

; 

; external perimeters extrusion width = 0.45mm
; perimeters extrusion width = 0.45mm
; infill extrusion width = 0.45mm
; solid infill extrusion width = 0.45mm
; top infill extrusion width = 0.40mm
; first layer extrusion width = 0.42mm

M107
M115 U3.0.9 ; tell printer latest fw version
M83  ; extruder relative mode
M104 S215 ; set extruder temp
M140 S65 ; set bed temp
M190 S65 ; wait for bed temp
M109 S215 ; wait for extruder temp
G28 W ; home all without mesh bed level
G80 ; mesh bed leveling
G1 Y-3.0 F1000.0 ; go outside pritn area
G1 X60.0 E9.0  F1000.0 ; intro line
G1 X100.0 E12.5  F1000.0 ; intro line
; Filament gcode

G21 ; set units to millimeters
G90 ; use absolute coordinates
M83 ; use relative distances for extrusion
G1 E-0.80000 F2100.00000
G1 Z0.200 F7200.000
G1 X95.863 Y101.765 F7200.000
G1 E0.80000 F2100.00000
M204 S1000
G1 F1500
G1 X97.929 Y101.493 E0.06535
G1 X152.005 Y101.492 E1.69549
G1 X154.309 Y101.813 E0.07294
G1 X155.944 Y102.472 E0.05529
G1 X156.605 Y102.862 E0.02406
G1 X158.015 Y103.983 E0.05648
G1 X159.121 Y105.374 E0.05571
G1 X159.507 Y106.012 E0.02340
G1 X160.151 Y107.576 E0.05301
G1 X160.299 Y108.182 E0.01956
G1 X160.506 Y109.923 E0.05497
G1 X160.478 Y126.345 E0.51490
G1 X160.183 Y127.742 E0.04478
G1 X159.719 Y128.710 E0.03366
G1 X159.373 Y129.229 E0.01956
G1 X148.038 Y142.663 E0.55111
G1 X147.069 Y143.486 E0.03985
G1 X146.370 Y143.882 E0.02519
G1 X145.314 Y144.269 E0.03526
G1 X144.029 Y144.429 E0.04061
G1 X105.981 Y144.429 E1.19295
G1 X104.526 Y144.228 E0.04606
G1 X103.179 Y143.651 E0.04594
G1 X101.972 Y142.675 E0.04867
G1 X90.645 Y129.251 E0.55073
G1 X90.301 Y128.746 E0.01913
G1 X89.863 Y127.856 E0.03111
G1 X89.647 Y127.145 E0.02332
G1 X89.492 Y125.911 E0.03900
G1 X89.492 Y109.958 E0.50017
G1 X89.710 Y108.125 E0.05789
G1 X89.887 Y107.469 E0.02129
G1 X90.557 Y105.882 E0.05403
G1 X91.693 Y104.312 E0.06075
G1 X92.181 Y103.801 E0.02216
G1 X93.358 Y102.890 E0.04666
G1 X94.143 Y102.434 E0.02845
G1 X95.807 Y101.787 E0.05600
G1 X95.943 Y102.135 F7200.000
G1 F1500
G1 X97.939 Y101.870 E0.06313
G1 X152.004 Y101.869 E1.69517
G1 X154.200 Y102.174 E0.06951
G1 X155.786 Y102.814 E0.05361
G1 X156.384 Y103.168 E0.02180
G1 X157.750 Y104.251 E0.05467
G1 X158.821 Y105.602 E0.05404
G1 X159.172 Y106.185 E0.02134
G1 X159.801 Y107.719 E0.05200
G1 X160.131 Y109.951 E0.07075
G1 X160.101 Y126.315 E0.51308
G1 X159.832 Y127.603 E0.04124
G1 X159.390 Y128.525 E0.03206
G1 X159.076 Y128.997 E0.01779
G1 X147.759 Y142.410 E0.55025
G1 X146.847 Y143.181 E0.03745
G1 X146.208 Y143.541 E0.02298
G1 X145.229 Y143.901 E0.03271
G1 X144.025 Y144.051 E0.03804
G1 X105.987 Y144.052 E1.19266
G1 X104.629 Y143.865 E0.04299
G1 X103.373 Y143.328 E0.04281
G1 X102.248 Y142.418 E0.04539
G1 X90.938 Y129.013 E0.54991
G1 X90.203 Y127.691 E0.04743
G1 X90.014 Y127.060 E0.02066
G1 X89.869 Y125.903 E0.03655
G1 X89.869 Y109.965 E0.49972
G1 X90.081 Y108.198 E0.05579
G1 X90.243 Y107.596 E0.01957
G1 X90.895 Y106.049 E0.05262
G1 X91.992 Y104.543 E0.05843
G1 X92.436 Y104.080 E0.02011
G1 X93.591 Y103.187 E0.04579
G1 X94.305 Y102.775 E0.02584
G1 X95.887 Y102.157 E0.05326
G1 F5760
G1 X97.939 Y101.870 E-0.71759
G1 F5760
G1 X98.062 Y101.870 E-0.04241
G1 E-0.04000 F2100.00000
G1 X91.260 Y106.166 F7200.000
G1 E0.80000 F2100.00000
G1 F1500
G1 X92.453 Y104.583 E0.06214
G1 X94.054 Y103.326 E0.06384
G1 X95.642 Y102.629 E0.05438
G1 X96.262 Y102.452 E0.02023
G1 X97.966 Y102.247 E0.05381
G1 X152.004 Y102.246 E1.69432
G1 X154.088 Y102.534 E0.06597
G1 X155.624 Y103.155 E0.05193
G1 X156.167 Y103.477 E0.01979
G1 X157.486 Y104.520 E0.05273
G1 X158.525 Y105.836 E0.05260
G1 X158.836 Y106.358 E0.01904
G1 X159.461 Y107.892 E0.05192
G1 X159.754 Y109.974 E0.06592
G1 X159.754 Y125.904 E0.49950
G1 X159.628 Y126.912 E0.03185
G1 X159.415 Y127.625 E0.02333
G1 X158.793 Y128.747 E0.04022
G1 X147.509 Y142.123 E0.54871
G1 X146.513 Y142.954 E0.04066
G1 X145.564 Y143.400 E0.03288
G1 X144.998 Y143.564 E0.01848
G1 X144.008 Y143.674 E0.03123
G1 X105.988 Y143.674 E1.19210
G1 X104.718 Y143.498 E0.04020
G1 X103.566 Y143.004 E0.03929
G1 X102.526 Y142.162 E0.04196
G1 X91.230 Y128.775 E0.54919
G1 X90.545 Y127.532 E0.04453
G1 X90.384 Y126.982 E0.01796
G1 X90.246 Y125.894 E0.03436
G1 X90.246 Y109.967 E0.49939
G1 X90.472 Y108.153 E0.05733
G1 X91.238 Y106.222 E0.06512
G1 X91.586 Y106.361 F7200.000
G1 F1500
G1 X92.732 Y104.837 E0.05979
G1 X94.261 Y103.642 E0.06083
G1 X95.800 Y102.972 E0.05264
G1 X96.347 Y102.820 E0.01781
G1 X97.984 Y102.623 E0.05168
G1 X152.004 Y102.623 E1.69376
G1 X153.959 Y102.888 E0.06186
G1 X155.463 Y103.496 E0.05087
G1 X155.944 Y103.781 E0.01752
G1 X157.219 Y104.786 E0.05091
G1 X158.225 Y106.064 E0.05098
G1 X158.498 Y106.524 E0.01678
G1 X159.107 Y108.025 E0.05078
G1 X159.377 Y109.980 E0.06188
G1 X159.377 Y125.903 E0.49927
G1 X159.254 Y126.866 E0.03043
G1 X159.067 Y127.480 E0.02012
G1 X158.493 Y128.518 E0.03722
G1 X147.221 Y141.879 E0.54807
G1 X146.295 Y142.646 E0.03771
G1 X145.409 Y143.056 E0.03058
G1 X144.919 Y143.195 E0.01597
G1 X144.003 Y143.297 E0.02893
G1 X105.992 Y143.297 E1.19179
G1 X104.826 Y143.137 E0.03693
G1 X103.765 Y142.683 E0.03618
G1 X102.805 Y141.909 E0.03866
G1 X91.523 Y128.538 E0.54855
G1 X90.889 Y127.377 E0.04147
G1 X90.753 Y126.906 E0.01538
G1 X90.623 Y125.889 E0.03214
G1 X90.623 Y109.970 E0.49914
G1 X90.840 Y108.238 E0.05470
G1 X91.564 Y106.416 E0.06147
G1 F5760
G1 X92.732 Y104.837 E-0.68053
G1 F5760
G1 X92.913 Y104.695 E-0.07947
G1 E-0.04000 F2100.00000
G1 X123.450 Y132.370 F7200.000
G1 E0.80000 F2100.00000
G1 F600
G1 X123.904 Y132.022 E0.01794
G1 X124.433 Y131.803 E0.01794
G1 X124.976 Y131.731 E0.01717
G1 X125.564 Y131.801 E0.01858
G1 X126.096 Y132.022 E0.01806
G1 X126.550 Y132.370 E0.01794
G1 X126.898 Y132.824 E0.01794
G1 X127.117 Y133.353 E0.01794
G1 X127.193 Y133.924 E0.01806
G1 X127.108 Y134.510 E0.01858
G1 X126.898 Y135.016 E0.01717
G1 X126.550 Y135.470 E0.01794
G1 X126.096 Y135.819 E0.01794
G1 X125.567 Y136.038 E0.01794
G1 X125.000 Y136.112 E0.01794
G1 X124.433 Y136.038 E0.01794
G1 X123.904 Y135.819 E0.01794
G1 X123.447 Y135.468 E0.01806
G1 X123.092 Y134.994 E0.01858
G1 X122.883 Y134.488 E0.01717
G1 X122.808 Y133.920 E0.01794
G1 X122.883 Y133.353 E0.01794
G1 X123.102 Y132.824 E0.01794
G1 X123.413 Y132.418 E0.01606
G1 X123.713 Y132.647 F7200.000
G1 F600
G1 X124.094 Y132.351 E0.01514
G1 X124.531 Y132.170 E0.01483
G1 X124.978 Y132.111 E0.01413
G1 X125.468 Y132.170 E0.01546
G1 X125.906 Y132.351 E0.01487
G1 X126.281 Y132.639 E0.01483
G1 X126.569 Y133.014 E0.01483
G1 X126.750 Y133.451 E0.01483
G1 X126.812 Y133.922 E0.01487
G1 X126.742 Y134.410 E0.01546
G1 X126.569 Y134.826 E0.01413
G1 X126.281 Y135.201 E0.01483
G1 X125.906 Y135.489 E0.01483
G1 X125.469 Y135.670 E0.01483
G1 X125.000 Y135.732 E0.01483
G1 X124.531 Y135.670 E0.01483
G1 X124.094 Y135.489 E0.01483
G1 X123.718 Y135.201 E0.01487
G1 X123.422 Y134.806 E0.01546
G1 X123.250 Y134.389 E0.01413
G1 X123.188 Y133.920 E0.01483
G1 X123.250 Y133.451 E0.01483
G1 X123.431 Y133.014 E0.01483
G1 X123.676 Y132.695 E0.01262
G1 X123.607 Y132.261 F7200.000
G1 F5760
G1 X124.094 Y132.351 E-0.18746
G1 F5760
G1 X124.531 Y132.170 E-0.16382
G1 F5760
G1 X124.978 Y132.111 E-0.15613
G1 F5760
G1 X125.468 Y132.170 E-0.17082
G1 F5760
G1 X125.686 Y132.260 E-0.08177
G1 E-0.04000 F2100.00000
G1 X125.000 Y122.112 F7200.000
G1 E0.80000 F2100.00000
G1 F600
G1 X124.433 Y122.038 E0.01794
G1 X123.904 Y121.819 E0.01794
G1 X123.450 Y121.470 E0.01794
G1 X123.102 Y121.016 E0.01794
G1 X122.883 Y120.488 E0.01794
G1 X122.808 Y119.920 E0.01794
G1 X122.883 Y119.353 E0.01794
G1 X123.102 Y118.824 E0.01794
G1 X123.450 Y118.370 E0.01794
G1 X123.904 Y118.022 E0.01794
G1 X124.433 Y117.803 E0.01794
G1 X124.976 Y117.731 E0.01717
G1 X125.564 Y117.801 E0.01858
G1 X126.096 Y118.022 E0.01806
G1 X126.550 Y118.370 E0.01794
G1 X126.898 Y118.824 E0.01794
G1 X127.117 Y119.353 E0.01794
G1 X127.192 Y119.920 E0.01794
G1 X127.117 Y120.488 E0.01794
G1 X126.898 Y121.016 E0.01794
G1 X126.550 Y121.470 E0.01794
G1 X126.096 Y121.819 E0.01794
G1 X125.567 Y122.038 E0.01794
G1 X125.059 Y122.105 E0.01606
G1 X125.010 Y121.731 F7200.000
G1 F600
G1 X124.531 Y121.670 E0.01514
G1 X124.094 Y121.489 E0.01483
G1 X123.719 Y121.201 E0.01483
G1 X123.431 Y120.826 E0.01483
G1 X123.250 Y120.389 E0.01483
G1 X123.188 Y119.920 E0.01483
G1 X123.250 Y119.451 E0.01483
G1 X123.431 Y119.014 E0.01483
G1 X123.719 Y118.639 E0.01483
G1 X124.094 Y118.351 E0.01483
G1 X124.531 Y118.170 E0.01483
G1 X124.978 Y118.111 E0.01413
G1 X125.468 Y118.170 E0.01546
G1 X125.906 Y118.351 E0.01487
G1 X126.281 Y118.639 E0.01483
G1 X126.569 Y119.014 E0.01483
G1 X126.750 Y119.451 E0.01483
G1 X126.812 Y119.920 E0.01483
G1 X126.750 Y120.389 E0.01483
G1 X126.569 Y120.826 E0.01483
G1 X126.281 Y121.201 E0.01483
G1 X125.906 Y121.489 E0.01483
G1 X125.469 Y121.670 E0.01483
G1 X125.070 Y121.723 E0.01262
G1 X124.812 Y122.078 F7200.000
G1 F5760
G1 X124.531 Y121.670 E-0.18746
G1 F5760
G1 X124.094 Y121.489 E-0.16382
G1 F5760
G1 X123.719 Y121.201 E-0.16382
G1 F5760
G1 X123.431 Y120.826 E-0.16382
G1 F5760
G1 X123.341 Y120.610 E-0.08109
G1 E-0.04000 F2100.00000
G1 X112.149 Y120.344 F7200.000
G1 E0.80000 F2100.00000
G1 F600
G1 X112.025 Y120.752 E0.01337
G1 X111.831 Y121.121 E0.01309
G1 X111.563 Y121.454 E0.01339
G1 X111.223 Y121.737 E0.01387
G1 X110.847 Y121.939 E0.01339
G1 X110.448 Y122.063 E0.01309
G1 X110.025 Y122.110 E0.01333
G1 X109.599 Y122.073 E0.01342
G1 X109.175 Y121.949 E0.01387
G1 X108.798 Y121.750 E0.01337
G1 X108.472 Y121.488 E0.01309
G1 X108.197 Y121.163 E0.01335
G1 X107.990 Y120.789 E0.01342
G1 X107.857 Y120.368 E0.01384
G1 X107.811 Y119.952 E0.01313
G1 X107.846 Y119.527 E0.01337
G1 X107.969 Y119.101 E0.01391
G1 X108.176 Y118.708 E0.01391
G1 X108.446 Y118.378 E0.01338
G1 X108.767 Y118.111 E0.01309
G1 X109.141 Y117.906 E0.01338
G1 X109.564 Y117.774 E0.01387
G1 X109.987 Y117.731 E0.01336
G1 X110.389 Y117.766 E0.01264
G1 X110.812 Y117.886 E0.01378
G1 X111.193 Y118.084 E0.01345
G1 X111.537 Y118.361 E0.01387
G1 X111.810 Y118.689 E0.01338
G1 X112.011 Y119.055 E0.01309
G1 X112.141 Y119.461 E0.01338
G1 X112.190 Y119.902 E0.01391
G1 X112.154 Y120.284 E0.01203
G1 X111.779 Y120.249 F7200.000
G1 F600
G1 X111.675 Y120.608 E0.01173
G1 X111.514 Y120.914 E0.01082
G1 X111.293 Y121.188 E0.01106
G1 X111.011 Y121.423 E0.01150
G1 X110.700 Y121.590 E0.01106
G1 X110.371 Y121.692 E0.01082
G1 X110.021 Y121.731 E0.01104
G1 X109.669 Y121.701 E0.01107
G1 X109.317 Y121.598 E0.01150
G1 X109.005 Y121.433 E0.01105
G1 X108.736 Y121.217 E0.01082
G1 X108.509 Y120.948 E0.01105
G1 X108.338 Y120.639 E0.01107
G1 X108.227 Y120.290 E0.01149
G1 X108.190 Y119.946 E0.01083
G1 X108.219 Y119.595 E0.01105
G1 X108.321 Y119.242 E0.01151
G1 X108.492 Y118.918 E0.01151
G1 X108.715 Y118.645 E0.01106
G1 X108.980 Y118.424 E0.01082
G1 X109.289 Y118.255 E0.01106
G1 X109.640 Y118.145 E0.01150
G1 X109.990 Y118.110 E0.01105
G1 X110.320 Y118.138 E0.01039
G1 X110.672 Y118.239 E0.01146
G1 X110.986 Y118.401 E0.01108
G1 X111.272 Y118.631 E0.01150
G1 X111.497 Y118.902 E0.01106
G1 X111.663 Y119.205 E0.01082
G1 X111.771 Y119.540 E0.01106
G1 X111.811 Y119.905 E0.01151
G1 X111.784 Y120.189 E0.00894
G1 X112.063 Y120.492 F7200.000
G1 F5760
G1 X111.675 Y120.608 E-0.15009
G1 F5760
G1 X111.514 Y120.914 E-0.11948
G1 F5760
G1 X111.293 Y121.188 E-0.12219
G1 F5760
G1 X111.011 Y121.423 E-0.12702
G1 F5760
G1 X110.700 Y121.590 E-0.12217
G1 F5760
G1 X110.372 Y121.692 E-0.11904
G1 E-0.04000 F2100.00000
G1 X110.404 Y131.769 F7200.000
G1 E0.80000 F2100.00000
G1 F600
G1 X110.813 Y131.887 E0.01332
G1 X111.193 Y132.084 E0.01342
G1 X111.537 Y132.361 E0.01387
G1 X111.810 Y132.689 E0.01338
G1 X112.011 Y133.055 E0.01309
G1 X112.141 Y133.461 E0.01338
G1 X112.190 Y133.902 E0.01391
G1 X112.149 Y134.344 E0.01391
G1 X112.025 Y134.752 E0.01337
G1 X111.831 Y135.121 E0.01309
G1 X111.563 Y135.454 E0.01339
G1 X111.223 Y135.737 E0.01387
G1 X110.847 Y135.939 E0.01339
G1 X110.448 Y136.063 E0.01309
G1 X110.024 Y136.110 E0.01337
G1 X109.584 Y136.070 E0.01387
G1 X109.174 Y135.948 E0.01342
G1 X108.798 Y135.750 E0.01333
G1 X108.472 Y135.488 E0.01309
G1 X108.197 Y135.163 E0.01335
G1 X107.990 Y134.789 E0.01342
G1 X107.857 Y134.368 E0.01384
G1 X107.811 Y133.952 E0.01313
G1 X107.846 Y133.527 E0.01337
G1 X107.969 Y133.101 E0.01391
G1 X108.176 Y132.708 E0.01391
G1 X108.446 Y132.378 E0.01338
G1 X108.767 Y132.111 E0.01309
G1 X109.141 Y131.906 E0.01338
G1 X109.564 Y131.774 E0.01387
G1 X109.989 Y131.731 E0.01340
G1 X110.345 Y131.763 E0.01121
G1 X110.310 Y132.139 F7200.000
G1 F600
G1 X110.672 Y132.239 E0.01178
G1 X110.986 Y132.401 E0.01107
G1 X111.272 Y132.631 E0.01150
G1 X111.497 Y132.902 E0.01106
G1 X111.663 Y133.205 E0.01082
G1 X111.771 Y133.540 E0.01106
G1 X111.811 Y133.905 E0.01151
G1 X111.777 Y134.271 E0.01151
G1 X111.675 Y134.608 E0.01105
G1 X111.514 Y134.914 E0.01082
G1 X111.293 Y135.188 E0.01106
G1 X111.011 Y135.423 E0.01150
G1 X110.700 Y135.590 E0.01106
G1 X110.371 Y135.692 E0.01082
G1 X110.020 Y135.731 E0.01105
G1 X109.655 Y135.698 E0.01150
G1 X109.317 Y135.597 E0.01107
G1 X109.005 Y135.433 E0.01104
G1 X108.736 Y135.217 E0.01082
G1 X108.509 Y134.948 E0.01105
G1 X108.338 Y134.639 E0.01107
G1 X108.227 Y134.290 E0.01149
G1 X108.190 Y133.946 E0.01083
G1 X108.219 Y133.595 E0.01105
G1 X108.321 Y133.242 E0.01151
G1 X108.492 Y132.918 E0.01151
G1 X108.715 Y132.645 E0.01106
G1 X108.980 Y132.424 E0.01082
G1 X109.289 Y132.255 E0.01106
G1 X109.640 Y132.145 E0.01150
G1 X109.991 Y132.110 E0.01106
G1 X110.250 Y132.133 E0.00818
G1 X110.552 Y131.852 F7200.000
G1 F5760
G1 X110.672 Y132.239 E-0.15060
G1 F5760
G1 X110.986 Y132.401 E-0.12229
G1 F5760
G1 X111.272 Y132.631 E-0.12702
G1 F5760
G1 X111.497 Y132.902 E-0.12214
G1 F5760
G1 X111.663 Y133.205 E-0.11948
G1 F5760
G1 X111.767 Y133.530 E-0.11846
G1 E-0.04000 F2100.00000
G1 X137.811 Y133.952 F7200.000
G1 E0.80000 F2100.00000
G1 F600
G1 X137.846 Y133.527 E0.01337
G1 X137.969 Y133.101 E0.01391
G1 X138.176 Y132.708 E0.01391
G1 X138.446 Y132.378 E0.01338
G1 X138.767 Y132.111 E0.01309
G1 X139.141 Y131.906 E0.01338
G1 X139.564 Y131.774 E0.01387
G1 X139.989 Y131.731 E0.01340
G1 X140.404 Y131.769 E0.01309
G1 X140.813 Y131.887 E0.01332
G1 X141.193 Y132.084 E0.01342
G1 X141.537 Y132.361 E0.01387
G1 X141.810 Y132.689 E0.01338
G1 X142.011 Y133.055 E0.01309
G1 X142.141 Y133.461 E0.01338
G1 X142.190 Y133.902 E0.01391
G1 X142.149 Y134.344 E0.01391
G1 X142.025 Y134.752 E0.01337
G1 X141.831 Y135.121 E0.01309
G1 X141.563 Y135.454 E0.01339
G1 X141.223 Y135.737 E0.01387
G1 X140.847 Y135.939 E0.01339
G1 X140.448 Y136.063 E0.01309
G1 X140.024 Y136.110 E0.01337
G1 X139.584 Y136.070 E0.01387
G1 X139.174 Y135.948 E0.01342
G1 X138.798 Y135.750 E0.01333
G1 X138.472 Y135.488 E0.01309
G1 X138.197 Y135.163 E0.01335
G1 X137.990 Y134.789 E0.01342
G1 X137.857 Y134.368 E0.01384
G1 X137.818 Y134.011 E0.01125
G1 X138.192 Y133.970 F7200.000
G1 F600
G1 X138.219 Y133.595 E0.01179
G1 X138.321 Y133.242 E0.01151
G1 X138.492 Y132.918 E0.01151
G1 X138.715 Y132.645 E0.01106
G1 X138.980 Y132.424 E0.01082
G1 X139.289 Y132.255 E0.01106
G1 X139.640 Y132.145 E0.01150
G1 X139.991 Y132.110 E0.01106
G1 X140.334 Y132.141 E0.01082
G1 X140.672 Y132.239 E0.01104
G1 X140.986 Y132.401 E0.01107
G1 X141.272 Y132.631 E0.01150
G1 X141.497 Y132.902 E0.01106
G1 X141.663 Y133.205 E0.01082
G1 X141.771 Y133.540 E0.01106
G1 X141.811 Y133.905 E0.01151
G1 X141.777 Y134.271 E0.01151
G1 X141.675 Y134.608 E0.01105
G1 X141.514 Y134.914 E0.01082
G1 X141.293 Y135.188 E0.01106
G1 X141.011 Y135.423 E0.01150
G1 X140.700 Y135.590 E0.01106
G1 X140.371 Y135.692 E0.01082
G1 X140.020 Y135.731 E0.01105
G1 X139.655 Y135.698 E0.01150
G1 X139.317 Y135.597 E0.01107
G1 X139.005 Y135.433 E0.01104
G1 X138.736 Y135.217 E0.01082
G1 X138.509 Y134.948 E0.01105
G1 X138.338 Y134.639 E0.01107
G1 X138.227 Y134.290 E0.01149
G1 X138.199 Y134.030 E0.00820
G1 X137.862 Y133.790 F7200.000
G1 F5760
G1 X138.219 Y133.595 E-0.15074
G1 F5760
G1 X138.321 Y133.242 E-0.12717
G1 F5760
G1 X138.492 Y132.918 E-0.12717
G1 F5760
G1 X138.715 Y132.645 E-0.12213
G1 F5760
G1 X138.980 Y132.424 E-0.11948
G1 F5760
