; generated by Slic3r 1.35.5-prusa3d-linux64 on 2017-10-28 at 17:01:05

; 

; external perimeters extrusion width = 0.45mm
; perimeters extrusion width = 0.45mm
; infill extrusion width = 0.45mm
; solid infill extrusion width = 0.45mm
; top infill extrusion width = 0.40mm
; first layer extrusion width = 0.42mm

M107
M115 U3.0.9 ; tell printer latest fw version
M83  ; extruder relative mode
M104 S215 ; set extruder temp
M140 S65 ; set bed temp
M190 S65 ; wait for bed temp
M109 S215 ; wait for extruder temp
G28 W ; home all without mesh bed level
G80 ; mesh bed leveling
G1 Y-3.0 F1000.0 ; go outside pritn area
G1 X60.0 E9.0  F1000.0 ; intro line
G1 X100.0 E12.5  F1000.0 ; intro line
; Filament gcode

G21 ; set units to millimeters
G90 ; use absolute coordinates
M83 ; use relative distances for extrusion
G1 E-0.80000 F2100.00000
G1 Z0.200 F7200.000
G1 X167.620 Y114.470 F7200.000
G1 E0.80000 F2100.00000
M204 S1000
G1 F1500
G1 X166.760 Y115.249 E0.03639
G1 X165.862 Y115.660 E0.03095
G1 X164.891 Y115.804 E0.03080
G1 X84.999 Y115.801 E2.50495
G1 X84.331 Y115.711 E0.02115
G1 X83.692 Y115.494 E0.02115
G1 X83.103 Y115.156 E0.02129
G1 X82.593 Y114.715 E0.02115
G1 X82.217 Y114.246 E0.01884
G1 X81.927 Y113.720 E0.01884
G1 X81.385 Y112.000 E0.05653
G1 X81.100 Y110.441 E0.04969
G1 X80.998 Y109.013 E0.04490
G1 X81.092 Y107.061 E0.06126
G1 X81.325 Y105.667 E0.04432
G1 X81.756 Y104.142 E0.04969
G1 X82.346 Y102.696 E0.04896
G1 X83.105 Y101.305 E0.04969
G1 X84.006 Y100.023 E0.04911
G1 X84.949 Y98.952 E0.04476
G1 X86.389 Y97.659 E0.06068
G1 X87.545 Y96.845 E0.04432
G1 X88.969 Y96.041 E0.05129
G1 X90.436 Y95.386 E0.05035
G1 X92.077 Y94.838 E0.05427
G1 X93.519 Y94.498 E0.04644
G1 X94.966 Y94.290 E0.04586
G1 X96.694 Y94.196 E0.05426
G1 X153.271 Y94.196 E1.77391
G1 X155.029 Y94.289 E0.05521
G1 X156.477 Y94.497 E0.04586
G1 X157.896 Y94.831 E0.04571
G1 X159.565 Y95.386 E0.05513
G1 X161.089 Y96.070 E0.05238
G1 X162.616 Y96.951 E0.05527
G1 X163.752 Y97.766 E0.04383
G1 X164.787 Y98.688 E0.04345
G1 X165.960 Y99.981 E0.05475
G1 X166.870 Y101.267 E0.04940
G1 X167.664 Y102.718 E0.05186
G1 X168.309 Y104.346 E0.05490
G1 X168.680 Y105.690 E0.04374
G1 X168.910 Y107.076 E0.04405
G1 X169.008 Y108.833 E0.05517
G1 X168.874 Y110.611 E0.05591
G1 X168.617 Y111.992 E0.04403
G1 X168.177 Y113.457 E0.04795
G1 X167.649 Y114.417 E0.03437
G1 X167.346 Y114.208 F7200.000
G1 F1500
G1 X166.580 Y114.917 E0.03274
G1 X165.770 Y115.294 E0.02800
G1 X164.887 Y115.427 E0.02800
G1 X85.024 Y115.425 E2.50405
G1 X84.414 Y115.343 E0.01930
G1 X83.832 Y115.144 E0.01930
G1 X83.300 Y114.834 E0.01930
G1 X82.839 Y114.426 E0.01930
G1 X82.259 Y113.537 E0.03328
G1 X81.748 Y111.896 E0.05389
G1 X81.473 Y110.388 E0.04808
G1 X81.375 Y108.989 E0.04397
G1 X81.465 Y107.118 E0.05874
G1 X81.692 Y105.752 E0.04341
G1 X82.111 Y104.268 E0.04835
G1 X82.687 Y102.856 E0.04780
G1 X83.429 Y101.499 E0.04849
G1 X84.303 Y100.255 E0.04767
G1 X85.230 Y99.203 E0.04397
G1 X86.611 Y97.964 E0.05819
G1 X87.743 Y97.166 E0.04342
G1 X89.138 Y96.378 E0.05023
G1 X90.572 Y95.737 E0.04926
G1 X92.183 Y95.200 E0.05323
G1 X93.589 Y94.869 E0.04529
G1 X95.019 Y94.663 E0.04529
G1 X96.701 Y94.573 E0.05282
G1 X153.271 Y94.573 E1.77371
G1 X154.981 Y94.663 E0.05371
G1 X156.407 Y94.868 E0.04515
G1 X157.808 Y95.198 E0.04515
G1 X159.427 Y95.737 E0.05350
G1 X160.913 Y96.404 E0.05104
G1 X162.294 Y97.189 E0.04981
G1 X163.651 Y98.175 E0.05259
G1 X164.665 Y99.092 E0.04286
G1 X165.579 Y100.114 E0.04301
G1 X166.536 Y101.444 E0.05135
G1 X167.318 Y102.868 E0.05095
G1 X167.944 Y104.443 E0.05314
G1 X168.311 Y105.769 E0.04314
G1 X168.536 Y107.127 E0.04316
G1 X168.631 Y108.792 E0.05230
G1 X168.504 Y110.534 E0.05478
G1 X168.252 Y111.896 E0.04342
G1 X167.836 Y113.290 E0.04561
G1 X167.375 Y114.155 E0.03073
G1 X167.067 Y113.952 F7200.000
G1 F1500
G1 X166.397 Y114.586 E0.02892
G1 X165.674 Y114.929 E0.02511
G1 X164.882 Y115.050 E0.02511
G1 X85.043 Y115.048 E2.50329
G1 X84.495 Y114.975 E0.01733
G1 X83.973 Y114.794 E0.01733
G1 X83.498 Y114.512 E0.01733
G1 X83.089 Y114.141 E0.01733
G1 X82.591 Y113.355 E0.02917
G1 X82.111 Y111.794 E0.05120
G1 X81.845 Y110.326 E0.04676
G1 X81.747 Y108.843 E0.04663
G1 X81.816 Y107.345 E0.04701
G1 X82.030 Y105.989 E0.04303
G1 X82.516 Y104.263 E0.05624
G1 X83.039 Y102.994 E0.04303
G1 X83.817 Y101.594 E0.05022
G1 X84.616 Y100.468 E0.04329
G1 X85.610 Y99.350 E0.04689
G1 X86.717 Y98.357 E0.04663
G1 X87.907 Y97.508 E0.04586
G1 X89.281 Y96.728 E0.04953
G1 X90.683 Y96.099 E0.04817
G1 X92.149 Y95.600 E0.04856
G1 X93.539 Y95.265 E0.04483
G1 X95.177 Y95.024 E0.05189
G1 X96.720 Y94.950 E0.04843
G1 X153.270 Y94.950 E1.77311
G1 X154.930 Y95.036 E0.05210
G1 X156.337 Y95.238 E0.04458
G1 X157.717 Y95.564 E0.04445
G1 X159.295 Y96.090 E0.05215
G1 X160.734 Y96.736 E0.04946
G1 X162.084 Y97.502 E0.04869
G1 X163.396 Y98.453 E0.05079
G1 X164.396 Y99.356 E0.04226
G1 X165.294 Y100.361 E0.04226
G1 X166.206 Y101.628 E0.04893
G1 X166.975 Y103.023 E0.04996
G1 X167.581 Y104.542 E0.05125
G1 X167.944 Y105.852 E0.04264
G1 X168.163 Y107.182 E0.04227
G1 X168.253 Y108.764 E0.04969
G1 X168.134 Y110.464 E0.05342
G1 X167.887 Y111.802 E0.04265
G1 X167.491 Y113.133 E0.04355
G1 X167.095 Y113.899 E0.02703
G1 X166.784 Y113.700 F7200.000
G1 F1500
G1 X166.207 Y114.259 E0.02520
G1 X165.575 Y114.565 E0.02201
G1 X164.877 Y114.673 E0.02213
G1 X85.061 Y114.672 E2.50259
G1 X84.578 Y114.607 E0.01526
G1 X84.116 Y114.444 E0.01538
G1 X83.697 Y114.189 E0.01538
G1 X83.338 Y113.854 E0.01538
G1 X82.926 Y113.178 E0.02484
G1 X82.475 Y111.693 E0.04867
G1 X82.219 Y110.278 E0.04508
G1 X82.124 Y108.835 E0.04532
G1 X82.191 Y107.380 E0.04568
G1 X82.401 Y106.054 E0.04210
G1 X82.865 Y104.405 E0.05372
G1 X83.377 Y103.162 E0.04214
G1 X84.132 Y101.802 E0.04877
G1 X84.910 Y100.703 E0.04222
G1 X85.876 Y99.618 E0.04556
G1 X86.955 Y98.650 E0.04544
G1 X88.113 Y97.824 E0.04460
G1 X89.452 Y97.064 E0.04829
G1 X90.826 Y96.448 E0.04721
G1 X92.255 Y95.961 E0.04733
G1 X93.637 Y95.629 E0.04458
G1 X95.218 Y95.399 E0.05007
G1 X96.722 Y95.327 E0.04721
G1 X153.270 Y95.327 E1.77304
G1 X154.879 Y95.410 E0.05052
G1 X156.268 Y95.609 E0.04398
G1 X157.629 Y95.931 E0.04386
G1 X159.158 Y96.442 E0.05054
G1 X160.560 Y97.070 E0.04816
G1 X161.879 Y97.819 E0.04756
G1 X163.142 Y98.732 E0.04888
G1 X164.128 Y99.621 E0.04161
G1 X165.010 Y100.608 E0.04150
G1 X165.877 Y101.816 E0.04662
G1 X166.634 Y103.184 E0.04901
G1 X167.217 Y104.642 E0.04925
G1 X167.575 Y105.932 E0.04197
G1 X167.791 Y107.242 E0.04163
G1 X167.876 Y108.742 E0.04709
G1 X167.763 Y110.396 E0.05199
G1 X167.521 Y111.713 E0.04198
G1 X167.142 Y112.985 E0.04162
G1 X166.811 Y113.647 E0.02320
G1 F5760
G1 X166.207 Y114.259 E-0.29802
G1 F5760
G1 X165.575 Y114.565 E-0.24317
G1 F5760
G1 X164.951 Y114.661 E-0.21881
G1 E-0.04000 F2100.00000
G1 X164.484 Y111.531 F7200.000
G1 E0.80000 F2100.00000
G1 F1200
G1 X162.784 Y110.913 E0.05673
G1 X162.971 Y110.074 E0.02695
G1 X163.076 Y109.144 E0.02934
G1 X163.073 Y108.205 E0.02942
G1 X162.961 Y107.274 E0.02942
G1 X162.741 Y106.361 E0.02943
G1 X162.416 Y105.477 E0.02953
G1 X161.995 Y104.643 E0.02930
G1 X161.479 Y103.864 E0.02930
G1 X160.873 Y103.143 E0.02953
G1 X160.189 Y102.500 E0.02943
G1 X159.438 Y101.943 E0.02930
G1 X158.622 Y101.473 E0.02953
G1 X157.760 Y101.102 E0.02943
G1 X156.861 Y100.833 E0.02942
G1 X155.937 Y100.671 E0.02942
G1 X155.000 Y100.616 E0.02942
G1 X154.063 Y100.671 E0.02942
G1 X153.139 Y100.833 E0.02942
G1 X152.240 Y101.102 E0.02942
G1 X151.378 Y101.473 E0.02942
G1 X150.565 Y101.941 E0.02942
G1 X149.811 Y102.500 E0.02942
G1 X149.128 Y103.143 E0.02942
G1 X148.523 Y103.860 E0.02942
G1 X148.005 Y104.643 E0.02942
G1 X147.582 Y105.481 E0.02942
G1 X147.259 Y106.361 E0.02942
G1 X147.039 Y107.274 E0.02942
G1 X146.927 Y108.205 E0.02942
G1 X146.924 Y109.144 E0.02942
G1 X147.029 Y110.074 E0.02934
G1 X147.216 Y110.913 E0.02695
G1 X145.517 Y111.531 E0.05670
G1 X145.355 Y110.990 E0.01770
G1 X145.155 Y109.855 E0.03614
G1 X145.087 Y108.687 E0.03668
G1 X145.087 Y103.166 E0.17312
G1 X145.055 Y102.922 E0.00772
G1 X144.946 Y102.658 E0.00894
G1 X144.772 Y102.432 E0.00894
G1 X144.546 Y102.259 E0.00894
G1 X144.283 Y102.149 E0.00894
G1 X144.038 Y102.117 E0.00772
G1 X105.962 Y102.117 E1.19388
G1 X105.717 Y102.149 E0.00772
G1 X105.454 Y102.259 E0.00894
G1 X105.228 Y102.432 E0.00894
G1 X105.054 Y102.658 E0.00894
G1 X104.945 Y102.922 E0.00894
G1 X104.913 Y103.166 E0.00772
G1 X104.913 Y108.687 E0.17312
G1 X104.845 Y109.855 E0.03668
G1 X104.645 Y110.990 E0.03614
G1 X104.483 Y111.531 E0.01770
G1 X102.784 Y110.913 E0.05670
G1 X102.971 Y110.074 E0.02695
G1 X103.076 Y109.144 E0.02934
G1 X103.073 Y108.205 E0.02942
G1 X102.961 Y107.274 E0.02942
G1 X102.741 Y106.361 E0.02942
G1 X102.418 Y105.481 E0.02942
G1 X101.995 Y104.643 E0.02942
G1 X101.477 Y103.860 E0.02942
G1 X100.872 Y103.143 E0.02942
G1 X100.189 Y102.500 E0.02942
G1 X99.435 Y101.941 E0.02942
G1 X98.622 Y101.473 E0.02942
G1 X97.764 Y101.103 E0.02930
G1 X96.861 Y100.833 E0.02953
G1 X95.937 Y100.671 E0.02943
G1 X95.000 Y100.616 E0.02942
G1 X94.063 Y100.671 E0.02942
G1 X93.139 Y100.833 E0.02942
G1 X92.240 Y101.102 E0.02942
G1 X91.378 Y101.473 E0.02942
G1 X90.565 Y101.941 E0.02942
G1 X89.811 Y102.500 E0.02942
G1 X89.128 Y103.143 E0.02942
G1 X88.523 Y103.860 E0.02942
G1 X88.005 Y104.643 E0.02942
G1 X87.582 Y105.481 E0.02942
G1 X87.259 Y106.361 E0.02942
G1 X87.039 Y107.274 E0.02942
G1 X86.927 Y108.205 E0.02942
G1 X86.924 Y109.144 E0.02942
G1 X87.029 Y110.074 E0.02934
G1 X87.216 Y110.913 E0.02695
G1 X85.516 Y111.531 E0.05673
G1 X85.362 Y111.021 E0.01672
G1 X85.163 Y109.917 E0.03516
G1 X85.088 Y108.798 E0.03516
G1 X85.141 Y107.678 E0.03516
G1 X85.320 Y106.571 E0.03516
G1 X85.623 Y105.492 E0.03516
G1 X86.046 Y104.453 E0.03516
G1 X86.583 Y103.469 E0.03516
G1 X87.229 Y102.552 E0.03516
G1 X87.973 Y101.713 E0.03516
G1 X88.808 Y100.965 E0.03516
G1 X89.724 Y100.313 E0.03525
G1 X90.794 Y99.708 E0.03854
G1 X91.918 Y99.204 E0.03863
G1 X93.085 Y98.808 E0.03863
G1 X94.283 Y98.522 E0.03863
G1 X95.503 Y98.350 E0.03863
G1 X96.747 Y98.291 E0.03906
G1 X153.294 Y98.293 E1.77298
G1 X154.497 Y98.350 E0.03776
G1 X155.717 Y98.522 E0.03863
G1 X156.915 Y98.808 E0.03863
G1 X158.082 Y99.204 E0.03863
G1 X159.206 Y99.708 E0.03863
G1 X160.276 Y100.313 E0.03854
G1 X161.192 Y100.965 E0.03525
G1 X162.027 Y101.713 E0.03516
G1 X162.771 Y102.552 E0.03516
G1 X163.417 Y103.469 E0.03516
G1 X163.954 Y104.453 E0.03516
G1 X164.377 Y105.492 E0.03516
G1 X164.680 Y106.571 E0.03516
G1 X164.859 Y107.678 E0.03516
G1 X164.912 Y108.798 E0.03516
G1 X164.837 Y109.917 E0.03516
G1 X164.638 Y111.021 E0.03516
G1 X164.501 Y111.474 E0.01484
G1 X164.730 Y112.022 F7200.000
G1 F900
G1 X162.587 Y111.242 E0.07149
G1 X162.511 Y111.203 E0.00268
G1 X162.416 Y111.095 E0.00450
G1 X162.386 Y110.962 E0.00430
G1 X162.599 Y110.011 E0.03053
G1 X162.699 Y109.123 E0.02802
G1 X162.696 Y108.229 E0.02805
G1 X162.589 Y107.341 E0.02805
G1 X162.380 Y106.471 E0.02805
G1 X162.070 Y105.628 E0.02816
G1 X161.668 Y104.833 E0.02793
G1 X161.177 Y104.090 E0.02793
G1 X160.598 Y103.403 E0.02816
G1 X159.946 Y102.790 E0.02805
G1 X159.231 Y102.259 E0.02793
G1 X158.453 Y101.810 E0.02816
G1 X157.631 Y101.457 E0.02805
G1 X156.774 Y101.201 E0.02805
G1 X155.893 Y101.046 E0.02805
G1 X155.000 Y100.994 E0.02805
G1 X154.107 Y101.046 E0.02805
G1 X153.226 Y101.201 E0.02805
G1 X152.369 Y101.457 E0.02805
G1 X151.547 Y101.810 E0.02805
G1 X150.772 Y102.257 E0.02805
G1 X150.054 Y102.790 E0.02805
G1 X149.402 Y103.403 E0.02805
G1 X148.825 Y104.087 E0.02805
G1 X148.332 Y104.833 E0.02805
G1 X147.929 Y105.631 E0.02805
G1 X147.620 Y106.471 E0.02805
G1 X147.411 Y107.341 E0.02805
G1 X147.304 Y108.229 E0.02805
G1 X147.301 Y109.123 E0.02805
G1 X147.401 Y110.011 E0.02802
G1 X147.614 Y110.962 E0.03053
G1 X147.584 Y111.095 E0.00430
G1 X147.489 Y111.203 E0.00450
G1 X147.413 Y111.242 E0.00268
G1 X145.271 Y112.022 E0.07148
G1 X144.988 Y111.077 E0.03092
G1 X144.780 Y109.899 E0.03752
G1 X144.710 Y108.698 E0.03771
G1 X144.710 Y103.191 E0.17269
G1 X144.688 Y103.020 E0.00539
G1 X144.616 Y102.848 E0.00583
G1 X144.503 Y102.701 E0.00583
G1 X144.356 Y102.588 E0.00583
G1 X144.184 Y102.517 E0.00583
G1 X144.014 Y102.494 E0.00539
G1 X105.986 Y102.494 E1.19233
G1 X105.816 Y102.517 E0.00539
G1 X105.644 Y102.588 E0.00583
G1 X105.497 Y102.701 E0.00583
G1 X105.384 Y102.848 E0.00583
G1 X105.312 Y103.020 E0.00583
G1 X105.290 Y103.191 E0.00539
G1 X105.290 Y108.698 E0.17269
G1 X105.220 Y109.899 E0.03771
G1 X105.012 Y111.077 E0.03752
G1 X104.729 Y112.022 E0.03092
G1 X102.587 Y111.242 E0.07148
G1 X102.511 Y111.203 E0.00268
G1 X102.416 Y111.095 E0.00450
G1 X102.386 Y110.962 E0.00430
G1 X102.599 Y110.011 E0.03053
G1 X102.699 Y109.123 E0.02802
G1 X102.696 Y108.229 E0.02805
G1 X102.589 Y107.341 E0.02805
G1 X102.380 Y106.471 E0.02805
G1 X102.071 Y105.631 E0.02805
G1 X101.668 Y104.833 E0.02805
G1 X101.175 Y104.087 E0.02805
G1 X100.598 Y103.403 E0.02805
G1 X99.946 Y102.790 E0.02805
G1 X99.228 Y102.257 E0.02805
G1 X98.453 Y101.810 E0.02805
G1 X97.635 Y101.458 E0.02793
G1 X96.774 Y101.201 E0.02816
G1 X95.893 Y101.046 E0.02805
G1 X95.000 Y100.994 E0.02805
G1 X94.107 Y101.046 E0.02805
G1 X93.226 Y101.201 E0.02805
G1 X92.369 Y101.457 E0.02805
G1 X91.547 Y101.810 E0.02805
G1 X90.772 Y102.257 E0.02805
G1 X90.054 Y102.790 E0.02805
G1 X89.402 Y103.403 E0.02805
G1 X88.825 Y104.087 E0.02805
G1 X88.332 Y104.833 E0.02805
G1 X87.929 Y105.631 E0.02805
G1 X87.620 Y106.471 E0.02805
G1 X87.411 Y107.341 E0.02805
G1 X87.304 Y108.229 E0.02805
G1 X87.301 Y109.123 E0.02805
G1 X87.401 Y110.011 E0.02802
G1 X87.614 Y110.962 E0.03053
G1 X87.584 Y111.095 E0.00430
G1 X87.489 Y111.203 E0.00450
G1 X85.270 Y112.022 E0.07416
G1 X84.995 Y111.109 E0.02990
G1 X84.788 Y109.964 E0.03650
G1 X84.711 Y108.802 E0.03650
G1 X84.766 Y107.639 E0.03650
G1 X84.951 Y106.490 E0.03650
G1 X85.266 Y105.369 E0.03650
G1 X85.705 Y104.291 E0.03650
G1 X86.263 Y103.270 E0.03650
G1 X86.933 Y102.317 E0.03650
G1 X87.706 Y101.447 E0.03650
G1 X88.572 Y100.670 E0.03650
G1 X89.521 Y99.994 E0.03653
G1 X90.624 Y99.371 E0.03970
G1 X91.780 Y98.853 E0.03974
G1 X92.980 Y98.445 E0.03974
G1 X94.213 Y98.151 E0.03974
G1 X95.468 Y97.974 E0.03974
G1 X96.739 Y97.914 E0.03989
G1 X153.303 Y97.916 E1.77353
G1 X154.532 Y97.974 E0.03859
G1 X155.787 Y98.151 E0.03974
G1 X157.020 Y98.445 E0.03974
G1 X158.220 Y98.853 E0.03974
G1 X159.376 Y99.371 E0.03974
G1 X160.479 Y99.994 E0.03970
G1 X161.428 Y100.670 E0.03653
G1 X162.294 Y101.447 E0.03650
G1 X163.067 Y102.317 E0.03650
G1 X163.737 Y103.270 E0.03650
G1 X164.295 Y104.291 E0.03650
G1 X164.734 Y105.369 E0.03650
G1 X165.049 Y106.490 E0.03650
G1 X165.234 Y107.639 E0.03650
G1 X165.289 Y108.802 E0.03650
G1 X165.212 Y109.964 E0.03650
G1 X165.005 Y111.109 E0.03650
G1 X164.747 Y111.965 E0.02802
G1 X164.461 Y111.726 F7200.000
G1 F5760
G1 X162.666 Y111.269 E-0.76000
G1 E-0.04000 F2100.00000
G1 X163.479 Y111.045 F7200.000
G1 E0.80000 F2100.00000
G1 F1200
G1 X163.123 Y110.690 E0.01579
G1 X163.221 Y110.253 E0.01405
G1 X164.035 Y111.067 E0.03615
G1 X164.299 Y111.163 E0.00885
G1 X164.377 Y110.875 E0.00938
G1 X163.288 Y109.786 E0.04835
G1 X163.342 Y109.306 E0.01517
G1 X164.459 Y110.423 E0.04958
G1 X164.541 Y109.970 E0.01444
G1 X163.358 Y108.787 E0.05255
G1 X163.356 Y108.251 E0.01684
G1 X164.583 Y109.479 E0.05453
G1 X164.616 Y108.978 E0.01577
G1 X163.291 Y107.652 E0.05887
G1 X163.239 Y107.224 E0.01356
G1 X163.190 Y107.017 E0.00669
G1 X164.611 Y108.439 E0.06316
G1 X164.585 Y107.878 E0.01763
G1 X163.021 Y106.313 E0.06949
G1 X162.717 Y105.475 E0.02800
G1 X164.710 Y107.469 E0.08856
G1 F5760
G1 X163.159 Y105.917 E-0.76000
G1 E-0.04000 F2100.00000
G1 X164.199 Y105.355 F7200.000
G1 E0.80000 F2100.00000
G1 F1200
G1 X158.582 Y99.738 E0.24950
G1 X157.978 Y99.468 E0.02080
G1 X157.674 Y99.364 E0.01008
G1 X164.193 Y105.883 E0.28957
G1 X164.401 Y106.626 E0.02422
G1 X161.562 Y103.787 E0.12611
G1 F5760
G1 X163.114 Y105.338 E-0.76000
G1 E-0.04000 F2100.00000
G1 X163.033 Y103.121 F7200.000
G1 E0.80000 F2100.00000
G1 F1200
G1 X160.582 Y100.669 E0.10889
G1 F5760
G1 X162.134 Y102.221 E-0.76000
G1 E-0.04000 F2100.00000
G1 X159.229 Y99.851 F7200.000
G1 E0.80000 F2100.00000
G1 F1200
G1 X163.818 Y104.439 E0.20382
