; generated by Slic3r 1.35.5-prusa3d-linux64 on 2017-10-28 at 21:07:28

; 

; external perimeters extrusion width = 0.45mm
; perimeters extrusion width = 0.45mm
; infill extrusion width = 0.45mm
; solid infill extrusion width = 0.45mm
; top infill extrusion width = 0.40mm
; first layer extrusion width = 0.42mm

M107
M115 U3.0.9 ; tell printer latest fw version
M83  ; extruder relative mode
M104 S215 ; set extruder temp
M140 S65 ; set bed temp
M190 S65 ; wait for bed temp
M109 S215 ; wait for extruder temp
G28 W ; home all without mesh bed level
G80 ; mesh bed leveling
G1 Y-3.0 F1000.0 ; go outside pritn area
G1 X60.0 E9.0  F1000.0 ; intro line
G1 X100.0 E12.5  F1000.0 ; intro line
; Filament gcode

G21 ; set units to millimeters
G90 ; use absolute coordinates
M83 ; use relative distances for extrusion
G1 E-0.80000 F2100.00000
G1 Z0.200 F7200.000
G1 X110.724 Y84.214 F7200.000
G1 E0.80000 F2100.00000
M204 S1000
G1 F1500
G1 X111.527 Y83.232 E0.03977
G1 X112.533 Y82.533 E0.03840
G1 X113.220 Y82.250 E0.02329
G1 X113.813 Y82.109 E0.01913
G1 X114.564 Y82.038 E0.02365
G1 X132.586 Y82.038 E0.56506
G1 X133.477 Y82.130 E0.02807
G1 X134.151 Y82.326 E0.02202
G1 X134.936 Y82.702 E0.02729
G1 X135.701 Y83.292 E0.03030
G1 X136.288 Y83.987 E0.02853
G1 X136.635 Y84.582 E0.02158
G1 X136.942 Y85.404 E0.02751
G1 X137.081 Y86.301 E0.02847
G1 X137.225 Y120.666 E1.07749
G1 X137.225 Y144.675 E0.75279
G1 X137.057 Y145.894 E0.03859
G1 X136.569 Y147.016 E0.03834
G1 X135.757 Y148.002 E0.04005
G1 X134.739 Y148.702 E0.03876
G1 X134.044 Y148.983 E0.02347
G1 X133.436 Y149.119 E0.01956
G1 X132.727 Y149.184 E0.02231
G1 X114.698 Y149.183 E0.56528
G1 X113.500 Y149.016 E0.03794
G1 X112.307 Y148.484 E0.04095
G1 X111.687 Y148.012 E0.02442
G1 X111.255 Y147.556 E0.01971
G1 X110.807 Y146.920 E0.02437
G1 X110.478 Y146.198 E0.02488
G1 X110.309 Y145.612 E0.01913
G1 X110.213 Y144.852 E0.02402
G1 X110.073 Y110.556 E1.07535
G1 X110.073 Y86.546 E0.75279
G1 X110.241 Y85.327 E0.03859
G1 X110.700 Y84.269 E0.03617
G1 X111.043 Y84.417 F7200.000
G1 F1500
G1 X111.785 Y83.507 E0.03682
G1 X112.708 Y82.867 E0.03522
G1 X113.347 Y82.605 E0.02166
G1 X113.896 Y82.478 E0.01766
G1 X114.567 Y82.415 E0.02114
G1 X132.586 Y82.415 E0.56496
G1 X133.405 Y82.500 E0.02581
G1 X134.012 Y82.677 E0.01984
G1 X134.736 Y83.022 E0.02514
G1 X135.446 Y83.570 E0.02814
G1 X135.986 Y84.213 E0.02631
G1 X136.297 Y84.749 E0.01943
G1 X136.580 Y85.507 E0.02535
G1 X136.706 Y86.343 E0.02653
G1 X136.848 Y120.667 E1.07621
G1 X136.848 Y144.675 E0.75275
G1 X136.693 Y145.796 E0.03548
G1 X136.226 Y146.854 E0.03626
G1 X135.424 Y147.791 E0.03868
G1 X134.445 Y148.421 E0.03650
G1 X133.789 Y148.665 E0.02194
G1 X133.099 Y148.783 E0.02194
G1 X114.695 Y148.806 E0.57706
G1 X113.598 Y148.652 E0.03472
G1 X112.510 Y148.166 E0.03738
G1 X111.937 Y147.729 E0.02257
G1 X111.547 Y147.317 E0.01779
G1 X111.133 Y146.730 E0.02251
G1 X110.828 Y146.058 E0.02315
G1 X110.589 Y144.823 E0.03945
G1 X110.450 Y110.554 E1.07447
G1 X110.450 Y86.546 E0.75275
G1 X110.605 Y85.425 E0.03548
G1 X111.019 Y84.472 E0.03258
G1 X111.366 Y84.625 F7200.000
G1 F1500
G1 X111.390 Y84.571 E0.00188
G1 X112.115 Y83.720 E0.03504
G1 X112.996 Y83.150 E0.03291
G1 X113.604 Y82.922 E0.02036
G1 X114.236 Y82.814 E0.02010
G1 X132.586 Y82.792 E0.57534
G1 X133.338 Y82.871 E0.02371
G1 X133.876 Y83.028 E0.01758
G1 X134.538 Y83.343 E0.02297
G1 X135.192 Y83.849 E0.02593
G1 X135.684 Y84.438 E0.02407
G1 X135.959 Y84.917 E0.01733
G1 X136.217 Y85.610 E0.02318
G1 X136.331 Y86.384 E0.02454
G1 X136.471 Y120.668 E1.07496
G1 X136.471 Y144.675 E0.75272
G1 X136.329 Y145.698 E0.03239
G1 X135.906 Y146.654 E0.03276
G1 X135.174 Y147.509 E0.03529
G1 X134.285 Y148.080 E0.03311
G1 X133.680 Y148.304 E0.02023
G1 X133.031 Y148.411 E0.02062
G1 X114.700 Y148.429 E0.57476
G1 X113.696 Y148.287 E0.03181
G1 X112.718 Y147.851 E0.03358
G1 X111.841 Y147.080 E0.03662
G1 X111.461 Y146.543 E0.02062
G1 X111.178 Y145.918 E0.02152
G1 X110.965 Y144.794 E0.03587
G1 X110.827 Y110.553 E1.07360
G1 X110.827 Y86.546 E0.75272
G1 X110.970 Y85.523 E0.03239
G1 X111.342 Y84.680 E0.02888
G1 X111.709 Y84.772 F7200.000
G1 F1500
G1 X112.367 Y84.002 E0.03176
G1 X113.158 Y83.491 E0.02954
G1 X113.711 Y83.283 E0.01850
G1 X114.307 Y83.185 E0.01894
G1 X132.585 Y83.169 E0.57311
G1 X133.264 Y83.241 E0.02138
G1 X133.735 Y83.378 E0.01538
G1 X134.334 Y83.661 E0.02079
G1 X134.935 Y84.124 E0.02379
G1 X135.617 Y85.076 E0.03671
G1 X135.851 Y85.703 E0.02098
G1 X135.955 Y86.416 E0.02261
G1 X136.094 Y120.675 E1.07417
G1 X136.094 Y144.687 E0.75286
G1 X135.965 Y145.598 E0.02886
G1 X135.585 Y146.456 E0.02941
G1 X134.926 Y147.225 E0.03176
G1 X134.131 Y147.735 E0.02962
G1 X133.575 Y147.941 E0.01860
G1 X132.966 Y148.039 E0.01932
G1 X114.701 Y148.052 E0.57269
G1 X113.796 Y147.924 E0.02867
G1 X112.924 Y147.535 E0.02995
G1 X112.133 Y146.841 E0.03300
G1 X111.785 Y146.351 E0.01882
G1 X111.530 Y145.782 E0.01958
G1 X111.341 Y144.769 E0.03229
G1 X111.205 Y110.546 E1.07305
G1 X111.205 Y86.535 E0.75286
G1 X111.332 Y85.627 E0.02874
G1 X111.685 Y84.827 E0.02741
G1 F5760
G1 X112.367 Y84.002 E-0.37081
G1 F5760
G1 X113.158 Y83.491 E-0.32633
G1 F5760
G1 X113.328 Y83.427 E-0.06285
G1 E-0.04000 F2100.00000
G1 X121.974 Y101.206 F7200.000
G1 E0.80000 F2100.00000
G1 F600
G1 X122.399 Y100.828 E0.01783
G1 X122.812 Y100.601 E0.01476
G1 X123.319 Y100.471 E0.01644
G1 X123.844 Y100.471 E0.01644
G1 X124.352 Y100.601 E0.01644
G1 X124.818 Y100.858 E0.01669
G1 X125.222 Y101.258 E0.01783
G1 X125.474 Y101.656 E0.01476
G1 X125.639 Y102.162 E0.01669
G1 X125.659 Y102.730 E0.01783
G1 X125.571 Y103.193 E0.01476
G1 X125.348 Y103.667 E0.01644
G1 X125.014 Y104.071 E0.01644
G1 X124.589 Y104.379 E0.01644
G1 X124.102 Y104.572 E0.01644
G1 X123.582 Y104.638 E0.01644
G1 X123.061 Y104.572 E0.01644
G1 X122.574 Y104.379 E0.01644
G1 X122.150 Y104.071 E0.01644
G1 X121.816 Y103.667 E0.01644
G1 X121.615 Y103.241 E0.01476
G1 X121.494 Y102.686 E0.01783
G1 X121.527 Y102.154 E0.01669
G1 X121.689 Y101.656 E0.01644
G1 X121.942 Y101.257 E0.01481
G1 X122.260 Y101.459 F7200.000
G1 F600
G1 X122.618 Y101.138 E0.01506
G1 X122.952 Y100.955 E0.01193
G1 X123.367 Y100.848 E0.01345
G1 X123.796 Y100.848 E0.01345
G1 X124.212 Y100.955 E0.01345
G1 X124.590 Y101.163 E0.01354
G1 X124.927 Y101.496 E0.01485
G1 X125.130 Y101.817 E0.01193
G1 X125.264 Y102.228 E0.01354
G1 X125.281 Y102.701 E0.01485
G1 X125.210 Y103.075 E0.01193
G1 X125.027 Y103.463 E0.01345
G1 X124.753 Y103.794 E0.01345
G1 X124.406 Y104.046 E0.01345
G1 X124.007 Y104.204 E0.01345
G1 X123.582 Y104.258 E0.01345
G1 X123.156 Y104.204 E0.01345
G1 X122.757 Y104.046 E0.01345
G1 X122.410 Y103.794 E0.01345
G1 X122.136 Y103.463 E0.01345
G1 X121.974 Y103.119 E0.01193
G1 X121.873 Y102.657 E0.01485
G1 X121.900 Y102.226 E0.01354
G1 X122.033 Y101.817 E0.01345
G1 X122.228 Y101.510 E0.01144
G1 X122.127 Y101.082 F7200.000
G1 F5760
G1 X122.618 Y101.138 E-0.18647
G1 F5760
G1 X122.952 Y100.955 E-0.13179
G1 F5760
G1 X123.367 Y100.848 E-0.14861
G1 F5760
G1 X123.796 Y100.848 E-0.14861
G1 F5760
G1 X124.200 Y100.952 E-0.14453
G1 E-0.04000 F2100.00000
G1 X123.328 Y96.622 F7200.000
G1 E0.80000 F2100.00000
G1 F600
G1 X122.836 Y96.499 E0.01590
G1 X122.357 Y96.243 E0.01704
G1 X121.972 Y95.882 E0.01656
G1 X121.696 Y95.451 E0.01603
G1 X121.524 Y94.918 E0.01757
G1 X121.495 Y94.408 E0.01602
G1 X121.595 Y93.893 E0.01644
G1 X121.811 Y93.434 E0.01590
G1 X122.134 Y93.038 E0.01604
G1 X122.601 Y92.701 E0.01806
G1 X123.059 Y92.521 E0.01543
G1 X123.565 Y92.455 E0.01598
G1 X124.121 Y92.526 E0.01757
G1 X124.595 Y92.716 E0.01602
G1 X125.018 Y93.026 E0.01644
G1 X125.342 Y93.417 E0.01590
G1 X125.561 Y93.874 E0.01590
G1 X125.670 Y94.411 E0.01718
G1 X125.627 Y94.971 E0.01762
G1 X125.474 Y95.437 E0.01538
G1 X125.192 Y95.881 E0.01648
G1 X124.809 Y96.240 E0.01647
G1 X124.379 Y96.478 E0.01539
G1 X123.840 Y96.622 E0.01751
G1 X123.388 Y96.622 E0.01416
G1 X123.388 Y96.245 F7200.000
G1 F600
G1 X122.973 Y96.145 E0.01339
G1 X122.579 Y95.934 E0.01402
G1 X122.264 Y95.639 E0.01353
G1 X122.040 Y95.289 E0.01303
G1 X121.898 Y94.848 E0.01453
G1 X121.874 Y94.433 E0.01302
G1 X121.956 Y94.011 E0.01349
G1 X122.132 Y93.636 E0.01298
G1 X122.395 Y93.314 E0.01303
G1 X122.783 Y93.034 E0.01501
G1 X123.154 Y92.889 E0.01249
G1 X123.565 Y92.835 E0.01301
G1 X124.025 Y92.894 E0.01453
G1 X124.410 Y93.049 E0.01302
G1 X124.758 Y93.303 E0.01349
G1 X125.022 Y93.622 E0.01298
G1 X125.201 Y93.995 E0.01298
G1 X125.290 Y94.434 E0.01407
G1 X125.255 Y94.897 E0.01454
G1 X125.130 Y95.275 E0.01247
G1 X124.900 Y95.638 E0.01351
G1 X124.585 Y95.933 E0.01350
G1 X124.237 Y96.126 E0.01248
G1 X123.790 Y96.245 E0.01450
G1 X123.448 Y96.245 E0.01072
G1 X123.151 Y96.567 F7200.000
G1 F5760
G1 X122.973 Y96.145 E-0.16823
G1 F5760
G1 X122.579 Y95.934 E-0.15486
G1 F5760
G1 X122.264 Y95.639 E-0.14951
G1 F5760
G1 X122.040 Y95.289 E-0.14390
G1 F5760
G1 X121.913 Y94.895 E-0.14351
G1 E-0.04000 F2100.00000
G1 X114.228 Y86.342 F7200.000
G1 E0.80000 F2100.00000
G1 F1200
G1 X114.293 Y86.258 E0.00334
G1 X114.378 Y86.193 E0.00334
G1 X114.476 Y86.152 E0.00334
G1 X114.620 Y86.133 E0.00456
G1 X132.543 Y86.133 E0.56196
G1 X132.686 Y86.152 E0.00450
G1 X132.786 Y86.193 E0.00341
G1 X132.870 Y86.258 E0.00332
G1 X132.935 Y86.342 E0.00334
G1 X132.975 Y86.439 E0.00329
G1 X132.995 Y86.585 E0.00463
G1 X132.995 Y110.508 E0.75007
G1 X132.976 Y110.652 E0.00456
G1 X132.935 Y110.750 E0.00334
G1 X132.870 Y110.835 E0.00334
G1 X132.786 Y110.900 E0.00334
G1 X132.687 Y110.940 E0.00334
G1 X132.543 Y110.959 E0.00456
G1 X114.620 Y110.959 E0.56196
G1 X114.476 Y110.940 E0.00456
G1 X114.378 Y110.900 E0.00334
G1 X114.293 Y110.835 E0.00334
G1 X114.228 Y110.750 E0.00334
G1 X114.188 Y110.652 E0.00334
G1 X114.169 Y110.508 E0.00456
G1 X114.169 Y86.585 E0.75009
G1 X114.205 Y86.398 E0.00597
G1 X113.857 Y86.253 F7200.000
G1 F900
G1 X113.899 Y86.152 E0.00344
G1 X114.024 Y85.989 E0.00645
G1 X114.188 Y85.864 E0.00645
G1 X114.378 Y85.785 E0.00645
G1 X114.595 Y85.756 E0.00689
G1 X132.568 Y85.756 E0.56351
G1 X132.784 Y85.785 E0.00682
G1 X132.976 Y85.864 E0.00652
G1 X133.139 Y85.989 E0.00644
G1 X133.264 Y86.152 E0.00645
G1 X133.342 Y86.340 E0.00638
G1 X133.372 Y86.560 E0.00696
G1 X133.372 Y110.533 E0.75163
G1 X133.343 Y110.750 E0.00689
G1 X133.264 Y110.940 E0.00645
G1 X133.139 Y111.104 E0.00645
G1 X132.976 Y111.229 E0.00645
G1 X132.786 Y111.308 E0.00645
G1 X132.568 Y111.336 E0.00689
G1 X114.595 Y111.336 E0.56351
G1 X114.378 Y111.308 E0.00689
G1 X114.188 Y111.229 E0.00645
G1 X114.024 Y111.104 E0.00645
G1 X113.899 Y110.940 E0.00645
G1 X113.820 Y110.750 E0.00645
G1 X113.792 Y110.533 E0.00689
G1 X113.792 Y86.560 E0.75164
G1 X113.834 Y86.309 E0.00799
G1 X113.963 Y86.225 F7200.000
G1 F5760
G1 X113.899 Y86.152 E-0.05876
G1 F5760
G1 X114.024 Y85.989 E-0.07127
G1 F5760
G1 X114.188 Y85.864 E-0.07127
G1 F5760
G1 X114.378 Y85.785 E-0.07127
G1 F5760
G1 X114.595 Y85.756 E-0.07607
G1 F5760
G1 X115.783 Y85.756 E-0.41137
G1 E-0.04000 F2100.00000
G1 X124.153 Y92.417 F7200.000
G1 E0.80000 F2100.00000
G1 F1200
G1 X118.152 Y86.416 E0.26747
G1 X117.616 Y86.416 E0.01690
G1 X123.392 Y92.192 E0.25747
G1 X122.988 Y92.245 E0.01284
G1 X122.931 Y92.268 E0.00193
G1 X117.080 Y86.416 E0.26081
G1 X116.544 Y86.416 E0.01690
G1 X122.546 Y92.418 E0.26754
G1 X122.465 Y92.450 E0.00276
G1 X122.219 Y92.627 E0.00954
G1 X116.008 Y86.416 E0.27686
G1 X115.472 Y86.416 E0.01690
G1 X121.915 Y92.859 E0.28718
G1 X121.674 Y93.154 E0.01201
G1 X114.936 Y86.416 E0.30034
G1 X114.550 Y86.428 E0.01217
G1 X114.475 Y86.485 E0.00296
G1 X121.472 Y93.489 E0.31203
G1 X121.324 Y93.804 E0.01100
G1 X121.312 Y93.865 E0.00193
G1 X114.452 Y87.004 E0.30581
G1 X114.452 Y87.540 E0.01690
G1 X121.225 Y94.313 E0.30191
G1 X121.210 Y94.389 E0.00242
G1 X121.237 Y94.862 E0.01494
G1 X114.452 Y88.076 E0.30247
G1 X114.452 Y88.612 E0.01690
G1 X132.712 Y106.872 E0.81392
G1 X132.712 Y107.408 E0.01690
G1 X114.452 Y89.148 E0.81392
G1 X114.452 Y89.684 E0.01690
G1 X132.712 Y107.944 E0.81392
G1 X132.712 Y108.481 E0.01690
G1 X114.452 Y90.220 E0.81392
G1 X114.452 Y90.756 E0.01690
G1 X123.885 Y100.190 E0.42047
G1 X123.347 Y100.188 E0.01694
G1 X114.452 Y91.292 E0.39652
G1 X114.452 Y91.828 E0.01690
G1 X122.908 Y100.285 E0.37693
G1 X122.707 Y100.336 E0.00655
G1 X122.524 Y100.437 E0.00657
G1 X114.452 Y92.364 E0.35981
G1 X114.452 Y92.901 E0.01690
G1 X122.188 Y100.637 E0.34485
G1 X121.905 Y100.890 E0.01197
G1 X114.452 Y93.437 E0.33221
G1 X114.452 Y93.973 E0.01690
G1 X121.657 Y101.178 E0.32118
G1 X121.449 Y101.506 E0.01224
G1 X114.452 Y94.509 E0.31190
G1 X114.452 Y95.045 E0.01690
G1 X121.311 Y101.904 E0.30575
G1 X121.247 Y102.101 E0.00652
G1 X121.231 Y102.360 E0.00818
G1 X114.452 Y95.581 E0.30217
G1 X114.452 Y96.117 E0.01690
G1 X121.478 Y103.143 E0.31319
G1 F5760
G1 X119.926 Y101.592 E-0.76000
G1 E-0.04000 F2100.00000
G1 X123.007 Y104.672 F7200.000
G1 E0.80000 F2100.00000
G1 F1200
G1 X129.011 Y110.676 E0.26762
G1 X129.547 Y110.676 E0.01690
G1 X123.770 Y104.899 E0.25751
G1 X124.173 Y104.848 E0.01280
G1 X124.232 Y104.825 E0.00200
G1 X130.083 Y110.676 E0.26082
G1 X130.619 Y110.676 E0.01690
G1 X124.616 Y104.673 E0.26759
G1 X124.727 Y104.629 E0.00376
G1 X124.947 Y104.469 E0.00860
G1 X131.155 Y110.676 E0.27670
G1 X131.691 Y110.676 E0.01690
G1 X125.247 Y104.232 E0.28724
G1 X125.490 Y103.939 E0.01200
G1 X132.227 Y110.676 E0.30031
G1 X132.525 Y110.676 E0.00937
G1 X132.613 Y110.665 E0.00282
G1 X132.668 Y110.633 E0.00200
G1 X132.690 Y110.603 E0.00117
G1 X125.690 Y103.603 E0.31199
G1 X125.852 Y103.229 E0.01285
G1 X132.712 Y110.089 E0.30576
G1 X132.712 Y109.553 E0.01690
G1 X125.938 Y102.779 E0.30194
G1 X125.924 Y102.229 E0.01733
G1 X132.881 Y109.186 E0.31011
G1 F5760
G1 X131.330 Y107.635 E-0.76000
G1 E-0.04000 F2100.00000
G1 X128.645 Y110.846 F7200.000
G1 E0.80000 F2100.00000
G1 F1200
G1 X114.452 Y96.653 E0.63264
G1 X114.452 Y97.189 E0.01690
G1 X127.939 Y110.676 E0.60118
G1 X127.403 Y110.676 E0.01690
G1 X114.452 Y97.725 E0.57729
G1 X114.452 Y98.261 E0.01690
G1 X126.867 Y110.676 E0.55339
G1 X126.331 Y110.676 E0.01690
G1 X114.452 Y98.797 E0.52950
G1 X114.452 Y99.333 E0.01690
G1 X125.795 Y110.676 E0.50560
G1 X125.259 Y110.676 E0.01690
G1 X114.452 Y99.869 E0.48171
G1 X114.452 Y100.405 E0.01690
G1 X124.723 Y110.676 E0.45782
G1 X124.187 Y110.676 E0.01690
G1 X114.452 Y100.941 E0.43392
G1 X114.452 Y101.477 E0.01690
G1 X123.650 Y110.676 E0.41003
G1 X123.114 Y110.676 E0.01690
G1 X114.452 Y102.014 E0.38613
G1 X114.452 Y102.550 E0.01690
G1 X122.578 Y110.676 E0.36224
G1 X122.042 Y110.676 E0.01690
G1 X114.452 Y103.086 E0.33835
G1 X114.452 Y103.622 E0.01690
G1 X121.506 Y110.676 E0.31445
G1 X120.970 Y110.676 E0.01690
G1 X114.452 Y104.158 E0.29056
G1 X114.452 Y104.694 E0.01690
G1 X120.434 Y110.676 E0.26666
G1 X119.898 Y110.676 E0.01690
G1 X114.452 Y105.230 E0.24277
G1 X114.452 Y105.766 E0.01690
G1 X119.362 Y110.676 E0.21888
G1 X118.826 Y110.676 E0.01690
G1 X114.452 Y106.302 E0.19498
G1 X114.452 Y106.838 E0.01690
G1 X118.290 Y110.676 E0.17109
G1 X117.754 Y110.676 E0.01690
G1 X114.452 Y107.374 E0.14720
G1 X114.452 Y107.910 E0.01690
G1 X117.218 Y110.676 E0.12330
G1 X116.682 Y110.676 E0.01690
G1 X114.452 Y108.446 E0.09941
G1 X114.452 Y108.982 E0.01690
G1 X116.146 Y110.676 E0.07551
G1 X115.610 Y110.676 E0.01690
G1 X114.452 Y109.518 E0.05162
G1 X114.452 Y110.054 E0.01690
G1 X115.243 Y110.846 E0.03529
G1 F5760
G1 X114.452 Y110.054 E-0.38780
G1 F5760
G1 X114.452 Y109.518 E-0.18567
G1 F5760
G1 X114.832 Y109.899 E-0.18654
G1 E-0.04000 F2100.00000
G1 X123.043 Y96.668 F7200.000
G1 E0.80000 F2100.00000
G1 F1200
G1 X132.712 Y106.336 E0.43096
G1 X132.712 Y105.800 E0.01690
G1 X123.817 Y96.905 E0.39649
G1 X123.877 Y96.905 E0.00191
G1 X124.252 Y96.805 E0.01224
G1 X132.712 Y105.264 E0.37707
G1 X132.712 Y104.728 E0.01690
G1 X124.640 Y96.657 E0.35978
G1 X124.984 Y96.464 E0.01241
G1 X132.712 Y104.192 E0.34447
G1 X132.712 Y103.656 E0.01690
G1 X125.260 Y96.205 E0.33213
G1 X125.412 Y96.063 E0.00653
G1 X125.506 Y95.914 E0.00555
G1 X132.712 Y103.120 E0.32118
G1 X132.712 Y102.584 E0.01690
G1 X125.714 Y95.586 E0.31190
G1 X125.853 Y95.189 E0.01326
G1 X132.712 Y102.048 E0.30571
G1 X132.712 Y101.512 E0.01690
G1 X125.929 Y94.729 E0.30232
G1 X125.955 Y94.393 E0.01063
