; generated by Slic3r 1.35.5-prusa3d-linux64 on 2017-10-28 at 18:58:24

; 

; external perimeters extrusion width = 0.45mm
; perimeters extrusion width = 0.45mm
; infill extrusion width = 0.45mm
; solid infill extrusion width = 0.45mm
; top infill extrusion width = 0.40mm
; first layer extrusion width = 0.42mm

M107
M115 U3.0.9 ; tell printer latest fw version
M83  ; extruder relative mode
M104 S215 ; set extruder temp
M140 S65 ; set bed temp
M190 S65 ; wait for bed temp
M109 S215 ; wait for extruder temp
G28 W ; home all without mesh bed level
G80 ; mesh bed leveling
G1 Y-3.0 F1000.0 ; go outside pritn area
G1 X60.0 E9.0  F1000.0 ; intro line
G1 X100.0 E12.5  F1000.0 ; intro line
; Filament gcode

G21 ; set units to millimeters
G90 ; use absolute coordinates
M83 ; use relative distances for extrusion
G1 E-0.80000 F2100.00000
G1 Z0.200 F7200.000
G1 X118.983 Y98.985 F7200.000
G1 E0.80000 F2100.00000
M204 S1000
G1 F1280.22
G1 X120.285 Y97.918 E0.05278
G1 X121.743 Y97.140 E0.05180
G1 X123.357 Y96.652 E0.05289
G1 X125.005 Y96.492 E0.05191
G1 X126.681 Y96.659 E0.05282
G1 X128.255 Y97.139 E0.05157
G1 X129.709 Y97.914 E0.05166
G1 X131.015 Y98.983 E0.05293
G1 X132.061 Y100.253 E0.05157
G1 X132.858 Y101.739 E0.05288
G1 X133.340 Y103.316 E0.05171
G1 X133.508 Y104.994 E0.05288
G1 X133.341 Y106.679 E0.05307
G1 X132.862 Y108.252 E0.05157
G1 X132.088 Y109.706 E0.05166
G1 X131.017 Y111.015 E0.05302
G1 X129.745 Y112.062 E0.05166
G1 X128.260 Y112.859 E0.05285
G1 X126.684 Y113.340 E0.05166
G1 X125.006 Y113.508 E0.05288
G1 X123.364 Y113.350 E0.05171
G1 X121.748 Y112.862 E0.05293
G1 X120.294 Y112.088 E0.05166
G1 X118.988 Y111.020 E0.05289
G1 X117.938 Y109.745 E0.05179
G1 X117.140 Y108.257 E0.05294
G1 X116.659 Y106.681 E0.05166
G1 X116.492 Y105.001 E0.05293
G1 X116.659 Y103.321 E0.05293
G1 X117.139 Y101.745 E0.05166
G1 X117.914 Y100.291 E0.05166
G1 X118.945 Y99.031 E0.05106
G1 X119.235 Y99.268 F7200.000
G1 F1280.22
G1 X120.495 Y98.231 E0.05117
G1 X121.888 Y97.488 E0.04950
G1 X123.431 Y97.022 E0.05054
G1 X125.006 Y96.869 E0.04961
G1 X126.608 Y97.029 E0.05048
G1 X128.111 Y97.488 E0.04928
G1 X129.499 Y98.227 E0.04932
G1 X130.749 Y99.250 E0.05064
G1 X131.749 Y100.464 E0.04931
G1 X132.510 Y101.884 E0.05051
G1 X132.971 Y103.392 E0.04945
G1 X133.131 Y104.995 E0.05050
G1 X132.971 Y106.605 E0.05074
G1 X132.512 Y108.113 E0.04942
G1 X131.773 Y109.499 E0.04926
G1 X130.750 Y110.749 E0.05064
G1 X129.536 Y111.749 E0.04931
G1 X128.115 Y112.511 E0.05057
G1 X126.608 Y112.971 E0.04939
G1 X125.005 Y113.131 E0.05050
G1 X123.435 Y112.979 E0.04945
G1 X121.891 Y112.513 E0.05057
G1 X120.501 Y111.773 E0.04939
G1 X119.254 Y110.753 E0.05050
G1 X118.251 Y109.536 E0.04945
G1 X117.488 Y108.112 E0.05065
G1 X117.029 Y106.608 E0.04932
G1 X116.869 Y105.001 E0.05064
G1 X117.030 Y103.390 E0.05073
G1 X117.488 Y101.889 E0.04922
G1 X118.227 Y100.501 E0.04932
G1 X119.197 Y99.315 E0.04804
G1 X119.488 Y99.552 F7200.000
G1 F1280.22
G1 X120.705 Y98.544 E0.04955
G1 X122.033 Y97.836 E0.04720
G1 X123.504 Y97.391 E0.04820
G1 X125.002 Y97.246 E0.04719
G1 X126.534 Y97.399 E0.04827
G1 X127.968 Y97.836 E0.04699
G1 X129.290 Y98.541 E0.04697
G1 X130.483 Y99.517 E0.04835
G1 X131.435 Y100.674 E0.04697
G1 X132.162 Y102.029 E0.04822
G1 X132.600 Y103.462 E0.04700
G1 X132.754 Y104.996 E0.04832
G1 X132.601 Y106.532 E0.04840
G1 X132.165 Y107.966 E0.04699
G1 X131.459 Y109.290 E0.04704
G1 X130.486 Y110.480 E0.04822
G1 X129.326 Y111.435 E0.04710
G1 X127.969 Y112.163 E0.04829
G1 X126.534 Y112.601 E0.04704
G1 X125.004 Y112.754 E0.04821
G1 X123.509 Y112.609 E0.04711
G1 X122.034 Y112.165 E0.04828
G1 X120.713 Y111.461 E0.04693
G1 X119.520 Y110.486 E0.04833
G1 X118.565 Y109.326 E0.04711
G1 X117.836 Y107.967 E0.04835
G1 X117.391 Y106.491 E0.04833
G1 X117.246 Y105.000 E0.04699
G1 X117.399 Y103.468 E0.04826
G1 X117.836 Y102.032 E0.04706
G1 X118.541 Y100.710 E0.04697
G1 X119.450 Y99.599 E0.04502
G1 X119.740 Y99.836 F7200.000
G1 F1280.22
G1 X120.914 Y98.858 E0.04793
G1 X122.178 Y98.184 E0.04490
G1 X123.578 Y97.761 E0.04585
G1 X125.003 Y97.623 E0.04489
G1 X126.461 Y97.769 E0.04593
G1 X127.824 Y98.185 E0.04470
G1 X129.117 Y98.878 E0.04599
G1 X130.217 Y99.784 E0.04469
G1 X131.122 Y100.883 E0.04463
G1 X131.814 Y102.174 E0.04592
G1 X132.231 Y103.539 E0.04477
G1 X132.377 Y104.997 E0.04592
G1 X132.231 Y106.459 E0.04607
G1 X131.816 Y107.822 E0.04470
G1 X131.146 Y109.080 E0.04469
G1 X130.218 Y110.214 E0.04593
G1 X129.117 Y111.122 E0.04475
G1 X127.824 Y111.815 E0.04600
G1 X126.461 Y112.231 E0.04469
G1 X125.003 Y112.377 E0.04592
G1 X123.582 Y112.240 E0.04477
G1 X122.178 Y111.816 E0.04600
G1 X120.920 Y111.146 E0.04469
G1 X119.786 Y110.219 E0.04592
G1 X118.878 Y109.117 E0.04476
G1 X118.184 Y107.822 E0.04606
G1 X117.760 Y106.418 E0.04599
G1 X117.623 Y104.999 E0.04470
G1 X117.769 Y103.538 E0.04605
G1 X118.185 Y102.176 E0.04464
G1 X118.854 Y100.920 E0.04463
G1 X119.702 Y99.883 E0.04200
G1 F5760
G1 X120.914 Y98.858 E-0.54986
G1 F5760
G1 X121.450 Y98.572 E-0.21014
G1 E-0.04000 F2100.00000
G1 X121.597 Y101.633 F7200.000
G1 E0.80000 F2100.00000
G1 F900
G1 X121.986 Y101.278 E0.01651
G1 X122.356 Y101.006 E0.01441
G1 X122.751 Y100.771 E0.01440
G1 X123.206 Y100.559 E0.01575
G1 X123.640 Y100.407 E0.01440
G1 X124.086 Y100.298 E0.01441
G1 X124.541 Y100.232 E0.01440
G1 X125.038 Y100.210 E0.01561
G1 X125.501 Y100.236 E0.01453
G1 X125.955 Y100.306 E0.01441
G1 X126.400 Y100.419 E0.01440
G1 X126.872 Y100.591 E0.01575
G1 X127.285 Y100.791 E0.01440
G1 X127.678 Y101.029 E0.01440
G1 X128.076 Y101.328 E0.01561
G1 X128.416 Y101.643 E0.01453
G1 X128.722 Y101.986 E0.01441
G1 X128.994 Y102.356 E0.01440
G1 X129.247 Y102.785 E0.01561
G1 X129.441 Y103.206 E0.01453
G1 X129.593 Y103.640 E0.01441
G1 X129.702 Y104.086 E0.01441
G1 X129.768 Y104.540 E0.01440
G1 X129.790 Y105.042 E0.01575
G1 X129.764 Y105.501 E0.01440
G1 X129.694 Y105.955 E0.01441
G1 X129.581 Y106.400 E0.01440
G1 X129.409 Y106.872 E0.01575
G1 X129.209 Y107.285 E0.01440
G1 X128.971 Y107.678 E0.01441
G1 X128.696 Y108.046 E0.01440
G1 X128.357 Y108.417 E0.01575
G1 X128.014 Y108.722 E0.01440
G1 X127.644 Y108.994 E0.01440
G1 X127.211 Y109.249 E0.01575
G1 X126.794 Y109.441 E0.01440
G1 X126.360 Y109.593 E0.01441
G1 X125.914 Y109.702 E0.01441
G1 X125.460 Y109.768 E0.01440
G1 X124.958 Y109.790 E0.01575
G1 X124.499 Y109.764 E0.01440
G1 X124.045 Y109.694 E0.01440
G1 X123.563 Y109.569 E0.01561
G1 X123.128 Y109.409 E0.01453
G1 X122.715 Y109.209 E0.01441
G1 X122.322 Y108.971 E0.01441
G1 X121.954 Y108.696 E0.01440
G1 X121.583 Y108.357 E0.01575
G1 X121.278 Y108.014 E0.01440
G1 X121.006 Y107.644 E0.01441
G1 X120.771 Y107.249 E0.01440
G1 X120.559 Y106.794 E0.01575
G1 X120.408 Y106.361 E0.01438
G1 X120.291 Y105.877 E0.01561
G1 X120.228 Y105.417 E0.01453
G1 X120.210 Y104.958 E0.01441
G1 X120.236 Y104.499 E0.01441
G1 X120.306 Y104.045 E0.01441
G1 X120.419 Y103.600 E0.01440
G1 X120.591 Y103.128 E0.01575
G1 X120.791 Y102.715 E0.01440
G1 X121.029 Y102.322 E0.01440
G1 X121.328 Y101.924 E0.01561
G1 X121.557 Y101.677 E0.01054
G1 X121.984 Y101.736 F7200.000
G1 X121.834 Y101.933 F7200.000
G1 F900
G1 X122.223 Y101.571 E0.01667
G1 X122.565 Y101.321 E0.01327
G1 X122.927 Y101.105 E0.01323
G1 X123.348 Y100.909 E0.01456
G1 X123.747 Y100.769 E0.01323
G1 X124.158 Y100.669 E0.01327
G1 X124.576 Y100.608 E0.01324
G1 X125.036 Y100.588 E0.01443
G1 X125.461 Y100.612 E0.01337
G1 X125.880 Y100.676 E0.01327
G1 X126.289 Y100.780 E0.01323
G1 X126.725 Y100.939 E0.01456
G1 X127.105 Y101.122 E0.01323
G1 X127.466 Y101.341 E0.01324
G1 X127.834 Y101.618 E0.01443
G1 X128.147 Y101.908 E0.01337
G1 X128.429 Y102.223 E0.01327
G1 X128.679 Y102.564 E0.01324
G1 X128.912 Y102.960 E0.01443
G1 X129.091 Y103.347 E0.01337
G1 X129.231 Y103.747 E0.01327
G1 X129.331 Y104.158 E0.01327
G1 X129.392 Y104.576 E0.01323
G1 X129.412 Y105.040 E0.01456
G1 X129.388 Y105.461 E0.01323
G1 X129.324 Y105.880 E0.01327
G1 X129.220 Y106.289 E0.01323
G1 X129.061 Y106.725 E0.01456
G1 X128.878 Y107.105 E0.01323
G1 X128.658 Y107.467 E0.01327
G1 X128.405 Y107.806 E0.01323
G1 X128.092 Y108.148 E0.01456
G1 X127.777 Y108.429 E0.01323
G1 X127.436 Y108.679 E0.01323
G1 X127.036 Y108.914 E0.01456
G1 X126.653 Y109.091 E0.01323
G1 X126.253 Y109.231 E0.01327
G1 X125.842 Y109.331 E0.01327
G1 X125.424 Y109.392 E0.01323
G1 X124.960 Y109.412 E0.01456
G1 X124.539 Y109.388 E0.01323
G1 X124.121 Y109.324 E0.01324
G1 X123.676 Y109.209 E0.01443
G1 X123.276 Y109.061 E0.01337
G1 X122.895 Y108.878 E0.01327
G1 X122.533 Y108.658 E0.01327
G1 X122.194 Y108.405 E0.01323
G1 X121.852 Y108.092 E0.01456
G1 X121.571 Y107.777 E0.01323
G1 X121.321 Y107.435 E0.01327
G1 X121.105 Y107.073 E0.01323
G1 X120.909 Y106.652 E0.01456
G1 X120.770 Y106.254 E0.01320
G1 X120.662 Y105.807 E0.01443
G1 X120.605 Y105.384 E0.01337
G1 X120.588 Y104.961 E0.01327
G1 X120.612 Y104.539 E0.01327
G1 X120.676 Y104.120 E0.01327
G1 X120.780 Y103.711 E0.01323
G1 X120.939 Y103.275 E0.01456
G1 X121.122 Y102.895 E0.01323
G1 X121.341 Y102.534 E0.01324
G1 X121.618 Y102.166 E0.01443
G1 X121.793 Y101.977 E0.00807
G1 F5760
G1 X122.223 Y101.571 E-0.20492
G1 F5760
G1 X122.565 Y101.321 E-0.14664
G1 F5760
G1 X122.927 Y101.105 E-0.14620
G1 F5760
G1 X123.348 Y100.909 E-0.16084
G1 F5760
G1 X123.625 Y100.812 E-0.10140
G1 E-0.04000 F2100.00000
G1 X123.459 Y103.485 F7200.000
G1 E0.80000 F2100.00000
G1 F900
G1 X123.791 Y103.209 E0.01355
G1 X124.156 Y103.011 E0.01302
G1 X124.569 Y102.882 E0.01355
G1 X124.982 Y102.839 E0.01302
G1 X125.412 Y102.879 E0.01355
G1 X125.810 Y102.996 E0.01300
G1 X126.178 Y103.188 E0.01300
G1 X126.515 Y103.459 E0.01356
G1 X126.791 Y103.791 E0.01356
G1 X126.989 Y104.156 E0.01302
G1 X127.118 Y104.569 E0.01355
G1 X127.161 Y104.982 E0.01302
G1 X127.121 Y105.412 E0.01355
G1 X127.004 Y105.810 E0.01300
G1 X126.812 Y106.178 E0.01300
G1 X126.541 Y106.515 E0.01356
G1 X126.209 Y106.791 E0.01356
G1 X125.844 Y106.990 E0.01302
G1 X125.431 Y107.118 E0.01355
G1 X125.018 Y107.161 E0.01302
G1 X124.588 Y107.121 E0.01355
G1 X124.190 Y107.003 E0.01302
G1 X123.807 Y106.802 E0.01355
G1 X123.485 Y106.541 E0.01300
G1 X123.219 Y106.223 E0.01300
G1 X123.011 Y105.844 E0.01356
G1 X122.882 Y105.431 E0.01356
G1 X122.839 Y105.019 E0.01300
G1 X122.875 Y104.605 E0.01300
G1 X122.996 Y104.190 E0.01356
G1 X123.198 Y103.807 E0.01356
G1 X123.421 Y103.531 E0.01114
G1 X123.353 Y103.099 F7200.000
G1 X123.189 Y103.219 F7200.000
G1 F900
G1 X123.579 Y102.895 E0.01588
G1 X124.009 Y102.661 E0.01535
G1 X124.493 Y102.511 E0.01588
G1 X124.979 Y102.460 E0.01535
G1 X125.484 Y102.507 E0.01588
G1 X125.952 Y102.645 E0.01531
G1 X126.385 Y102.871 E0.01531
G1 X126.781 Y103.188 E0.01592
G1 X127.105 Y103.579 E0.01592
G1 X127.339 Y104.009 E0.01535
G1 X127.489 Y104.493 E0.01588
G1 X127.540 Y104.979 E0.01535
G1 X127.493 Y105.484 E0.01588
G1 X127.355 Y105.952 E0.01531
G1 X127.129 Y106.385 E0.01531
G1 X126.811 Y106.781 E0.01592
G1 X126.421 Y107.105 E0.01592
G1 X125.991 Y107.339 E0.01535
G1 X125.507 Y107.489 E0.01588
G1 X125.021 Y107.540 E0.01535
G1 X124.516 Y107.493 E0.01588
G1 X124.047 Y107.354 E0.01535
G1 X123.599 Y107.119 E0.01587
G1 X123.220 Y106.811 E0.01531
G1 X122.906 Y106.437 E0.01531
G1 X122.662 Y105.992 E0.01592
G1 X122.511 Y105.507 E0.01592
G1 X122.460 Y105.022 E0.01531
G1 X122.503 Y104.536 E0.01531
G1 X122.645 Y104.048 E0.01592
G1 X122.881 Y103.599 E0.01592
G1 X123.152 Y103.265 E0.01347
G1 F5760
G1 X123.579 Y102.895 E-0.19581
G1 F5760
G1 X124.009 Y102.661 E-0.16952
G1 F5760
G1 X124.493 Y102.511 E-0.17540
G1 F5760
G1 X124.979 Y102.460 E-0.16952
G1 F5760
G1 X125.122 Y102.473 E-0.04975
G1 E-0.04000 F2100.00000
G1 X121.226 Y107.054 F7200.000
G1 E0.80000 F2100.00000
G1 F1024.17
G1 X122.950 Y108.779 E0.07961
G1 X123.868 Y109.142 F7200.000
G1 F1024.17
G1 X121.117 Y106.390 E0.12699
G1 X121.041 Y106.174 E0.00747
G1 X120.925 Y105.644 E0.01773
G1 X124.557 Y109.276 E0.16765
G1 F5760
G1 X123.006 Y107.724 E-0.76000
G1 E-0.04000 F2100.00000
G1 X129.246 Y105.638 F7200.000
G1 E0.80000 F2100.00000
G1 F1024.17
G1 X127.643 Y104.034 E0.07403
G1 X127.767 Y104.435 E0.01370
G1 X127.800 Y104.747 E0.01022
G1 X129.012 Y105.959 E0.05595
G1 X128.884 Y106.386 E0.01455
G1 X127.795 Y105.297 E0.05026
G1 X127.772 Y105.537 E0.00789
G1 X127.706 Y105.763 E0.00768
G1 X128.721 Y106.778 E0.04688
G1 X128.629 Y106.970 E0.00695
G1 X128.526 Y107.139 E0.00643
G1 X127.559 Y106.171 E0.04465
G1 X127.369 Y106.536 E0.01343
G1 X128.303 Y107.470 E0.04310
G1 X128.051 Y107.774 E0.01287
G1 X127.122 Y106.845 E0.04286
G1 X127.014 Y106.980 E0.00565
G1 X126.844 Y107.121 E0.00723
G1 X127.774 Y108.052 E0.04295
G1 X127.470 Y108.303 E0.01287
G1 X126.533 Y107.366 E0.04325
G1 X126.174 Y107.561 E0.01336
G1 X127.138 Y108.526 E0.04453
G1 X126.779 Y108.722 E0.01336
G1 X125.763 Y107.706 E0.04690
G1 X125.565 Y107.767 E0.00677
G1 X125.297 Y107.795 E0.00878
G1 X126.386 Y108.884 E0.05028
G1 X125.958 Y109.012 E0.01457
G1 X124.745 Y107.799 E0.05599
G1 X124.463 Y107.772 E0.00927
G1 X124.039 Y107.647 E0.01444
G1 X125.488 Y109.097 E0.06692
G1 X124.965 Y109.129 E0.01710
G1 X120.874 Y105.037 E0.18885
G1 X120.902 Y104.511 E0.01721
G1 X122.357 Y105.966 E0.06716
G1 X122.233 Y105.565 E0.01370
G1 X122.200 Y105.253 E0.01021
G1 X120.988 Y104.041 E0.05595
G1 X121.116 Y103.614 E0.01455
G1 X122.204 Y104.702 E0.05022
G1 X122.224 Y104.483 E0.00718
G1 X122.295 Y104.238 E0.00833
G1 X121.279 Y103.222 E0.04691
G1 X121.473 Y102.861 E0.01337
G1 X122.441 Y103.829 E0.04466
G1 X122.632 Y103.465 E0.01341
G1 X121.698 Y102.531 E0.04313
G1 X121.948 Y102.226 E0.01287
G1 X122.877 Y103.155 E0.04289
G1 X122.987 Y103.019 E0.00570
G1 X123.156 Y102.879 E0.00717
G1 X122.226 Y101.948 E0.04295
G1 X122.530 Y101.697 E0.01287
G1 X123.467 Y102.634 E0.04325
G1 X123.826 Y102.439 E0.01336
G1 X122.861 Y101.473 E0.04456
G1 X123.060 Y101.355 E0.00755
G1 X123.222 Y101.279 E0.00585
G1 X124.237 Y102.294 E0.04685
G1 X124.435 Y102.233 E0.00677
G1 X124.703 Y102.205 E0.00878
G1 X123.613 Y101.116 E0.05028
G1 X124.042 Y100.988 E0.01457
G1 X125.255 Y102.201 E0.05599
G1 X125.537 Y102.228 E0.00927
G1 X125.961 Y102.353 E0.01443
G1 X124.511 Y100.903 E0.06692
G1 X124.603 Y100.890 E0.00300
G1 X125.034 Y100.871 E0.01411
G1 X129.126 Y104.962 E0.18884
G1 X129.110 Y104.602 E0.01176
G1 X129.074 Y104.356 E0.00813
G1 X125.645 Y100.926 E0.15829
G1 X126.205 Y101.051 E0.01875
G1 X126.392 Y101.119 E0.00649
G1 X129.145 Y103.871 E0.12703
G1 F5760
G1 X127.593 Y102.319 E-0.76000
G1 E-0.04000 F2100.00000
G1 X128.770 Y102.941 F7200.000
G1 E0.80000 F2100.00000
G1 F1024.17
G1 X127.050 Y101.221 E0.07940
M106 S255
G1 F5760
G1 X128.601 Y102.773 E-0.76000
G1 E-0.04000 F2100.00000
G1 Z0.400 F7200.000
M104 S210 ; set temperature
G1 X126.426 Y102.844 F7200.000
G1 E0.80000 F2100.00000
M204 S800
G1 F900
G1 X126.813 Y103.157 E0.01687
G1 X127.142 Y103.553 E0.01744
G1 X127.380 Y103.990 E0.01682
G1 X127.529 Y104.465 E0.01687
G1 X127.585 Y104.978 E0.01744
G1 X127.538 Y105.492 E0.01748
G1 X127.396 Y105.970 E0.01687
G1 X127.156 Y106.426 E0.01744
G1 X126.843 Y106.813 E0.01687
G1 X126.447 Y107.142 E0.01744
G1 X126.010 Y107.380 E0.01682
G1 X125.535 Y107.529 E0.01687
G1 X125.022 Y107.585 E0.01744
G1 X124.508 Y107.538 E0.01748
G1 X124.030 Y107.396 E0.01687
G1 X123.574 Y107.156 E0.01744
G1 X123.187 Y106.843 E0.01687
G1 X122.858 Y106.447 E0.01744
G1 X122.620 Y106.009 E0.01687
G1 X122.467 Y105.517 E0.01744
G1 X122.415 Y105.021 E0.01687
G1 X122.462 Y104.508 E0.01744
G1 X122.604 Y104.030 E0.01687
G1 X122.844 Y103.574 E0.01744
G1 X123.157 Y103.187 E0.01687
G1 X123.553 Y102.858 E0.01744
G1 X123.991 Y102.620 E0.01687
G1 X124.483 Y102.467 E0.01744
G1 X124.980 Y102.415 E0.01691
G1 X125.492 Y102.462 E0.01739
G1 X125.970 Y102.604 E0.01686
G1 X126.373 Y102.816 E0.01541
M204 S1000
G1 X126.183 Y103.176 F7200.000
M204 S800
G1 F900
G1 X126.526 Y103.448 E0.01481
G1 X126.804 Y103.783 E0.01473
G1 X127.003 Y104.150 E0.01414
G1 X127.129 Y104.549 E0.01418
G1 X127.176 Y104.981 E0.01470
G1 X127.136 Y105.415 E0.01474
G1 X127.017 Y105.816 E0.01415
G1 X126.815 Y106.201 E0.01473
G1 X126.552 Y106.526 E0.01415
G1 X126.217 Y106.804 E0.01473
G1 X125.850 Y107.003 E0.01414
G1 X125.451 Y107.129 E0.01418
G1 X125.019 Y107.176 E0.01470
G1 X124.585 Y107.136 E0.01474
