; generated by Slic3r 1.35.5-prusa3d-linux64 on 2017-10-28 at 18:04:43

; 

; external perimeters extrusion width = 0.45mm
; perimeters extrusion width = 0.45mm
; infill extrusion width = 0.45mm
; solid infill extrusion width = 0.45mm
; top infill extrusion width = 0.40mm
; first layer extrusion width = 0.42mm

M107
M115 U3.0.9 ; tell printer latest fw version
M83  ; extruder relative mode
M104 S215 ; set extruder temp
M140 S65 ; set bed temp
M190 S65 ; wait for bed temp
M109 S215 ; wait for extruder temp
G28 W ; home all without mesh bed level
G80 ; mesh bed leveling
G1 Y-3.0 F1000.0 ; go outside pritn area
G1 X60.0 E9.0  F1000.0 ; intro line
G1 X100.0 E12.5  F1000.0 ; intro line
; Filament gcode

G21 ; set units to millimeters
G90 ; use absolute coordinates
M83 ; use relative distances for extrusion
G1 E-0.80000 F2100.00000
G1 Z0.200 F7200.000
G1 X118.577 Y98.615 F7200.000
G1 E0.80000 F2100.00000
M204 S1000
G1 F1500
G1 X119.996 Y97.450 E0.05754
G1 X121.423 Y96.680 E0.05087
G1 X123.269 Y96.109 E0.06059
G1 X124.090 Y95.989 E0.02601
G1 X125.200 Y95.945 E0.03482
G1 X126.827 Y96.129 E0.05133
G1 X128.671 Y96.719 E0.06071
G1 X130.044 Y97.478 E0.04919
G1 X131.523 Y98.715 E0.06047
G1 X132.060 Y99.326 E0.02551
G1 X132.713 Y100.253 E0.03554
G1 X133.404 Y101.620 E0.04802
G1 X133.928 Y103.480 E0.06061
G1 X134.057 Y105.098 E0.05088
G1 X133.841 Y106.967 E0.05900
G1 X133.348 Y108.514 E0.05091
G1 X132.854 Y109.509 E0.03485
G1 X132.408 Y110.213 E0.02614
G1 X131.899 Y110.868 E0.02601
G1 X131.126 Y111.670 E0.03491
G1 X129.828 Y112.663 E0.05124
G1 X128.097 Y113.512 E0.06047
G1 X126.587 Y113.917 E0.04900
G1 X124.708 Y114.053 E0.05909
G1 X123.151 Y113.866 E0.04916
G1 X121.308 Y113.272 E0.06072
G1 X119.952 Y112.520 E0.04861
G1 X119.069 Y111.845 E0.03483
G1 X118.464 Y111.271 E0.02616
G1 X117.284 Y109.743 E0.06053
G1 X116.595 Y108.376 E0.04802
G1 X116.071 Y106.515 E0.06061
G1 X115.943 Y104.902 E0.05073
G1 X116.155 Y103.051 E0.05842
G1 X116.621 Y101.559 E0.04903
G1 X117.538 Y99.867 E0.06033
G1 X118.539 Y98.661 E0.04914
G1 X118.827 Y98.901 F7200.000
G1 F1500
G1 X120.291 Y97.707 E0.05923
G1 X121.926 Y96.883 E0.05740
G1 X123.440 Y96.461 E0.04928
G1 X125.200 Y96.323 E0.05534
G1 X126.745 Y96.497 E0.04875
G1 X128.525 Y97.067 E0.05860
G1 X129.829 Y97.787 E0.04672
G1 X131.254 Y98.980 E0.05828
G1 X132.397 Y100.458 E0.05857
G1 X133.053 Y101.758 E0.04567
G1 X133.558 Y103.551 E0.05840
G1 X133.680 Y105.085 E0.04827
G1 X133.473 Y106.888 E0.05690
G1 X133.004 Y108.359 E0.04841
G1 X132.101 Y109.994 E0.05855
G1 X130.868 Y111.395 E0.05851
G1 X129.631 Y112.342 E0.04885
G1 X127.962 Y113.160 E0.05828
G1 X126.525 Y113.545 E0.04663
G1 X124.717 Y113.676 E0.05684
G1 X123.234 Y113.499 E0.04684
G1 X121.459 Y112.926 E0.05846
G1 X119.847 Y111.985 E0.05853
G1 X118.736 Y111.011 E0.04632
G1 X117.601 Y109.538 E0.05830
G1 X116.947 Y108.242 E0.04553
G1 X116.442 Y106.449 E0.05840
G1 X116.320 Y104.915 E0.04827
G1 X116.525 Y103.125 E0.05649
G1 X116.969 Y101.705 E0.04664
G1 X117.852 Y100.074 E0.05814
G1 X118.789 Y98.947 E0.04596
G1 X119.077 Y99.186 F7200.000
G1 F1500
G1 X120.494 Y98.025 E0.05743
G1 X122.067 Y97.233 E0.05523
G1 X123.504 Y96.833 E0.04676
G1 X125.199 Y96.700 E0.05333
G1 X126.667 Y96.866 E0.04632
G1 X128.374 Y97.412 E0.05620
G1 X129.614 Y98.097 E0.04439
G1 X130.983 Y99.241 E0.05594
G1 X132.080 Y100.663 E0.05632
G1 X132.702 Y101.897 E0.04334
G1 X133.187 Y103.618 E0.05604
G1 X133.303 Y105.078 E0.04594
G1 X133.104 Y106.810 E0.05466
G1 X132.659 Y108.206 E0.04593
G1 X131.791 Y109.779 E0.05633
G1 X130.607 Y111.124 E0.05618
G1 X129.433 Y112.021 E0.04633
G1 X127.831 Y112.806 E0.05594
G1 X126.464 Y113.173 E0.04439
G1 X124.727 Y113.299 E0.05460
G1 X123.321 Y113.132 E0.04440
G1 X121.614 Y112.583 E0.05621
G1 X120.384 Y111.901 E0.04411
G1 X119.009 Y110.750 E0.05622
G1 X117.920 Y109.337 E0.05593
G1 X117.298 Y108.103 E0.04334
G1 X116.813 Y106.382 E0.05604
G1 X116.697 Y104.922 E0.04594
G1 X116.894 Y103.202 E0.05428
G1 X117.315 Y101.854 E0.04427
G1 X118.165 Y100.286 E0.05594
G1 X119.039 Y99.232 E0.04292
G1 X119.328 Y99.472 F7200.000
G1 F1500
G1 X120.700 Y98.341 E0.05576
G1 X122.208 Y97.583 E0.05293
G1 X123.571 Y97.204 E0.04437
G1 X125.199 Y97.077 E0.05119
G1 X126.586 Y97.234 E0.04377
G1 X128.224 Y97.758 E0.05393
G1 X129.395 Y98.405 E0.04194
G1 X130.711 Y99.503 E0.05373
G1 X131.551 Y100.540 E0.04185
G1 X132.352 Y102.037 E0.05322
G1 X132.817 Y103.689 E0.05380
G1 X132.926 Y105.067 E0.04337
G1 X132.735 Y106.732 E0.05255
G1 X132.315 Y108.053 E0.04344
G1 X131.484 Y109.560 E0.05397
G1 X130.346 Y110.852 E0.05397
G1 X129.236 Y111.700 E0.04381
G1 X127.697 Y112.454 E0.05373
G1 X126.402 Y112.801 E0.04202
G1 X124.736 Y112.922 E0.05238
G1 X123.403 Y112.763 E0.04210
G1 X121.765 Y112.237 E0.05394
G1 X120.281 Y111.368 E0.05392
G1 X119.281 Y110.489 E0.04175
G1 X118.236 Y109.132 E0.05369
G1 X117.648 Y107.963 E0.04103
G1 X117.183 Y106.312 E0.05380
G1 X117.074 Y104.933 E0.04337
G1 X117.263 Y103.279 E0.05219
G1 X117.663 Y102.000 E0.04202
G1 X118.477 Y100.496 E0.05362
G1 X119.289 Y99.518 E0.03986
G1 X119.776 Y99.978 F7200.000
G1 F1500
G1 X120.169 Y99.598 E0.01712
G1 X120.660 Y99.197 E0.01989
G1 X121.079 Y98.906 E0.01600
G1 X121.471 Y98.671 E0.01433
G1 X122.029 Y98.390 E0.01958
G1 X122.584 Y98.168 E0.01876
G1 X123.158 Y97.992 E0.01881
G1 X123.624 Y97.885 E0.01500
G1 X124.116 Y97.808 E0.01561
G1 X124.698 Y97.760 E0.01831
G1 X125.302 Y97.760 E0.01894
G1 X125.884 Y97.808 E0.01831
G1 X126.376 Y97.885 E0.01561
G1 X126.833 Y97.990 E0.01470
G1 X127.470 Y98.187 E0.02092
G1 X128.040 Y98.423 E0.01935
G1 X128.456 Y98.630 E0.01455
G1 X128.889 Y98.886 E0.01578
G1 X129.415 Y99.253 E0.02011
G1 X129.862 Y99.627 E0.01826
G1 X130.221 Y99.974 E0.01565
G1 X130.533 Y100.322 E0.01468
G1 X130.909 Y100.804 E0.01915
G1 X131.234 Y101.305 E0.01874
G1 X131.528 Y101.855 E0.01954
G1 X131.714 Y102.274 E0.01437
G1 X131.889 Y102.752 E0.01596
G1 X132.060 Y103.364 E0.01994
G1 X132.169 Y103.942 E0.01844
G1 X132.225 Y104.432 E0.01547
G1 X132.245 Y104.906 E0.01485
G1 X132.225 Y105.568 E0.02077
G1 X132.148 Y106.185 E0.01949
G1 X132.060 Y106.636 E0.01442
G1 X131.927 Y107.126 E0.01592
G1 X131.714 Y107.726 E0.01998
G1 X131.472 Y108.260 E0.01840
G1 X131.234 Y108.695 E0.01552
G1 X130.979 Y109.092 E0.01480
G1 X130.616 Y109.580 E0.01907
G1 X130.221 Y110.026 E0.01871
G1 X129.831 Y110.402 E0.01696
G1 X129.340 Y110.803 E0.01989
G1 X128.921 Y111.094 E0.01600
G1 X128.529 Y111.329 E0.01433
G1 X127.971 Y111.610 E0.01958
G1 X127.416 Y111.832 E0.01876
G1 X126.842 Y112.008 E0.01881
G1 X126.376 Y112.115 E0.01500
G1 X125.884 Y112.192 E0.01560
G1 X125.302 Y112.240 E0.01831
G1 X124.698 Y112.240 E0.01894
G1 X124.116 Y112.192 E0.01831
G1 X123.624 Y112.115 E0.01560
G1 X123.167 Y112.010 E0.01470
G1 X122.530 Y111.813 E0.02092
G1 X121.960 Y111.577 E0.01935
G1 X121.544 Y111.370 E0.01455
G1 X121.111 Y111.114 E0.01578
G1 X120.585 Y110.747 E0.02011
G1 X120.138 Y110.373 E0.01826
G1 X119.779 Y110.026 E0.01565
G1 X119.467 Y109.678 E0.01468
G1 X119.091 Y109.196 E0.01915
G1 X118.766 Y108.695 E0.01874
G1 X118.507 Y108.220 E0.01696
G1 X118.253 Y107.643 E0.01976
G1 X118.082 Y107.158 E0.01614
G1 X117.961 Y106.721 E0.01420
G1 X117.838 Y106.105 E0.01972
G1 X117.771 Y105.513 E0.01866
G1 X117.755 Y104.910 E0.01893
G1 X117.775 Y104.432 E0.01498
G1 X117.831 Y103.942 E0.01547
G1 X117.940 Y103.364 E0.01844
G1 X118.111 Y102.752 E0.01994
G1 X118.286 Y102.274 E0.01596
G1 X118.472 Y101.855 E0.01437
G1 X118.766 Y101.305 E0.01954
G1 X119.091 Y100.804 E0.01874
G1 X119.419 Y100.377 E0.01688
G1 X119.735 Y100.021 E0.01491
G1 X120.016 Y100.272 F7200.000
G1 F1500
G1 X120.420 Y99.880 E0.01766
G1 X120.880 Y99.504 E0.01862
G1 X121.282 Y99.223 E0.01538
G1 X121.662 Y98.997 E0.01387
G1 X122.186 Y98.733 E0.01838
G1 X122.705 Y98.525 E0.01753
G1 X123.247 Y98.359 E0.01778
G1 X123.694 Y98.255 E0.01439
G1 X124.169 Y98.181 E0.01507
G1 X124.715 Y98.136 E0.01717
G1 X125.285 Y98.136 E0.01788
G1 X125.831 Y98.181 E0.01717
G1 X126.306 Y98.255 E0.01507
G1 X126.746 Y98.357 E0.01415
G1 X127.338 Y98.540 E0.01943
G1 X127.874 Y98.762 E0.01820
G1 X128.275 Y98.961 E0.01404
G1 X128.693 Y99.208 E0.01521
G1 X129.184 Y99.552 E0.01879
G1 X129.604 Y99.902 E0.01714
G1 X129.950 Y100.237 E0.01511
G1 X130.251 Y100.573 E0.01414
G1 X130.604 Y101.027 E0.01804
G1 X130.909 Y101.495 E0.01751
G1 X131.184 Y102.011 E0.01835
G1 X131.365 Y102.416 E0.01390
G1 X131.533 Y102.876 E0.01535
G1 X131.692 Y103.449 E0.01866
G1 X131.795 Y103.991 E0.01728
G1 X131.849 Y104.465 E0.01497
G1 X131.868 Y104.920 E0.01427
G1 X131.849 Y105.535 E0.01930
G1 X131.778 Y106.115 E0.01831
G1 X131.692 Y106.551 E0.01393
G1 X131.565 Y107.022 E0.01531
G1 X131.365 Y107.584 E0.01869
G1 X131.138 Y108.085 E0.01724
G1 X130.909 Y108.505 E0.01501
G1 X130.663 Y108.886 E0.01423
G1 X130.320 Y109.346 E0.01798
G1 X129.950 Y109.763 E0.01748
G1 X129.580 Y110.120 E0.01613
G1 X129.120 Y110.496 E0.01862
G1 X128.718 Y110.777 E0.01538
G1 X128.338 Y111.003 E0.01387
G1 X127.814 Y111.267 E0.01838
G1 X127.295 Y111.475 E0.01753
G1 X126.753 Y111.641 E0.01778
G1 X126.306 Y111.745 E0.01439
G1 X125.831 Y111.819 E0.01507
G1 X125.285 Y111.864 E0.01717
G1 X124.715 Y111.864 E0.01788
G1 X124.169 Y111.819 E0.01717
G1 X123.694 Y111.745 E0.01507
G1 X123.254 Y111.643 E0.01415
G1 X122.662 Y111.460 E0.01943
G1 X122.126 Y111.238 E0.01820
G1 X121.725 Y111.039 E0.01404
G1 X121.307 Y110.792 E0.01521
G1 X120.816 Y110.448 E0.01879
G1 X120.396 Y110.098 E0.01714
G1 X120.050 Y109.763 E0.01511
G1 X119.749 Y109.427 E0.01414
G1 X119.396 Y108.973 E0.01804
G1 X119.091 Y108.505 E0.01751
G1 X118.846 Y108.053 E0.01612
G1 X118.607 Y107.513 E0.01852
G1 X118.443 Y107.047 E0.01549
G1 X118.326 Y106.624 E0.01376
G1 X118.210 Y106.046 E0.01848
G1 X118.148 Y105.493 E0.01745
G1 X118.132 Y104.923 E0.01787
G1 X118.151 Y104.465 E0.01438
G1 X118.205 Y103.991 E0.01497
G1 X118.308 Y103.449 E0.01728
G1 X118.467 Y102.876 E0.01866
G1 X118.635 Y102.416 E0.01535
G1 X118.816 Y102.011 E0.01390
G1 X119.091 Y101.495 E0.01835
G1 X119.396 Y101.027 E0.01751
G1 X119.707 Y100.620 E0.01606
G1 X119.977 Y100.317 E0.01271
G1 X120.258 Y100.568 F7200.000
G1 F1500
G1 X120.671 Y100.161 E0.01819
G1 X121.100 Y99.810 E0.01735
G1 X121.486 Y99.541 E0.01476
G1 X121.853 Y99.322 E0.01340
G1 X122.343 Y99.076 E0.01718
G1 X122.825 Y98.883 E0.01629
G1 X123.335 Y98.725 E0.01674
G1 X123.764 Y98.626 E0.01379
G1 X124.222 Y98.554 E0.01454
G1 X124.732 Y98.513 E0.01604
G1 X125.268 Y98.513 E0.01682
G1 X125.778 Y98.554 E0.01604
G1 X126.236 Y98.626 E0.01454
G1 X126.659 Y98.724 E0.01360
G1 X127.205 Y98.893 E0.01794
G1 X127.708 Y99.100 E0.01705
G1 X128.095 Y99.292 E0.01353
G1 X128.497 Y99.530 E0.01464
G1 X128.953 Y99.850 E0.01748
G1 X129.346 Y100.176 E0.01602
G1 X129.680 Y100.499 E0.01457
G1 X129.969 Y100.823 E0.01360
G1 X130.300 Y101.250 E0.01694
G1 X130.583 Y101.685 E0.01628
G1 X130.841 Y102.167 E0.01716
G1 X131.016 Y102.558 E0.01343
G1 X131.177 Y103.000 E0.01474
G1 X131.325 Y103.534 E0.01738
G1 X131.421 Y104.039 E0.01612
G1 X131.473 Y104.498 E0.01447
G1 X131.491 Y104.934 E0.01369
G1 X131.473 Y105.502 E0.01784
G1 X131.407 Y106.045 E0.01713
G1 X131.325 Y106.466 E0.01345
G1 X131.202 Y106.919 E0.01471
G1 X131.034 Y107.396 E0.01587
G1 X130.816 Y107.886 E0.01682
G1 X130.568 Y108.340 E0.01622
G1 X130.271 Y108.788 E0.01684
G1 X130.004 Y109.137 E0.01377
G1 X129.698 Y109.481 E0.01444
G1 X129.329 Y109.839 E0.01614
G1 X128.900 Y110.190 E0.01735
G1 X128.514 Y110.459 E0.01476
G1 X128.147 Y110.678 E0.01340
G1 X127.657 Y110.924 E0.01718
G1 X127.175 Y111.117 E0.01629
G1 X126.665 Y111.275 E0.01674
G1 X126.236 Y111.374 E0.01379
G1 X125.778 Y111.446 E0.01454
G1 X125.268 Y111.487 E0.01604
G1 X124.732 Y111.487 E0.01682
G1 X124.222 Y111.446 E0.01604
G1 X123.764 Y111.374 E0.01454
G1 X123.341 Y111.276 E0.01360
G1 X122.795 Y111.107 E0.01794
G1 X122.292 Y110.900 E0.01705
G1 X121.905 Y110.708 E0.01353
G1 X121.503 Y110.470 E0.01464
G1 X121.047 Y110.150 E0.01748
G1 X120.654 Y109.824 E0.01602
G1 X120.302 Y109.481 E0.01541
G1 X119.996 Y109.137 E0.01444
G1 X119.730 Y108.789 E0.01371
G1 X119.417 Y108.315 E0.01781
G1 X119.184 Y107.886 E0.01529
G1 X118.961 Y107.383 E0.01728
G1 X118.803 Y106.937 E0.01484
G1 X118.690 Y106.527 E0.01333
G1 X118.583 Y105.987 E0.01725
G1 X118.525 Y105.472 E0.01624
G1 X118.509 Y104.936 E0.01681
G1 X118.527 Y104.498 E0.01377
G1 X118.579 Y104.039 E0.01447
G1 X118.675 Y103.534 E0.01612
G1 X118.823 Y103.000 E0.01738
G1 X118.984 Y102.558 E0.01474
G1 X119.159 Y102.167 E0.01343
G1 X119.417 Y101.685 E0.01716
G1 X119.700 Y101.250 E0.01628
G1 X119.976 Y100.887 E0.01428
G1 X120.218 Y100.613 E0.01148
G1 X120.500 Y100.864 F7200.000
G1 F1500
G1 X120.923 Y100.442 E0.01873
G1 X121.319 Y100.117 E0.01608
G1 X121.689 Y99.858 E0.01414
G1 X122.044 Y99.647 E0.01294
G1 X122.499 Y99.419 E0.01598
G1 X122.945 Y99.240 E0.01506
G1 X123.424 Y99.092 E0.01570
G1 X123.833 Y98.997 E0.01318
G1 X124.275 Y98.928 E0.01401
G1 X124.749 Y98.890 E0.01491
G1 X125.251 Y98.890 E0.01577
G1 X125.725 Y98.928 E0.01491
G1 X126.167 Y98.997 E0.01401
G1 X126.572 Y99.091 E0.01305
G1 X127.073 Y99.246 E0.01644
G1 X127.542 Y99.439 E0.01590
G1 X127.914 Y99.623 E0.01301
G1 X128.300 Y99.852 E0.01407
G1 X128.722 Y100.148 E0.01616
G1 X129.088 Y100.451 E0.01490
G1 X129.409 Y100.762 E0.01403
G1 X129.687 Y101.073 E0.01306
G1 X129.996 Y101.472 E0.01584
G1 X130.257 Y101.875 E0.01505
G1 X130.498 Y102.324 E0.01596
G1 X130.667 Y102.701 E0.01296
G1 X130.820 Y103.124 E0.01413
G1 X130.958 Y103.619 E0.01610
G1 X131.047 Y104.088 E0.01495
G1 X131.098 Y104.530 E0.01397
G1 X131.114 Y104.948 E0.01311
G1 X131.098 Y105.470 E0.01638
G1 X131.037 Y105.975 E0.01595
G1 X130.958 Y106.381 E0.01297
G1 X130.840 Y106.815 E0.01411
G1 X130.667 Y107.299 E0.01611
G1 X130.477 Y107.720 E0.01446
G1 X130.248 Y108.140 E0.01501
G1 X129.971 Y108.560 E0.01577
G1 X129.716 Y108.894 E0.01316
G1 X129.420 Y109.226 E0.01395
G1 X129.077 Y109.558 E0.01497
G1 X128.681 Y109.883 E0.01608
G1 X128.311 Y110.142 E0.01414
G1 X127.956 Y110.353 E0.01294
G1 X127.501 Y110.581 E0.01598
G1 X127.055 Y110.760 E0.01506
G1 X126.576 Y110.908 E0.01571
G1 X126.167 Y111.003 E0.01318
G1 X125.725 Y111.072 E0.01401
G1 X125.251 Y111.110 E0.01491
G1 X124.749 Y111.110 E0.01577
G1 X124.275 Y111.072 E0.01491
G1 X123.833 Y111.003 E0.01401
G1 X123.428 Y110.909 E0.01305
G1 X122.927 Y110.754 E0.01644
G1 X122.458 Y110.561 E0.01590
G1 X122.086 Y110.377 E0.01301
G1 X121.700 Y110.148 E0.01407
G1 X121.278 Y109.852 E0.01616
G1 X120.912 Y109.549 E0.01490
G1 X120.580 Y109.226 E0.01453
G1 X120.284 Y108.894 E0.01395
G1 X120.030 Y108.561 E0.01312
G1 X119.743 Y108.125 E0.01636
G1 X119.523 Y107.720 E0.01446
G1 X119.315 Y107.252 E0.01604
G1 X119.164 Y106.826 E0.01419
G1 X119.054 Y106.429 E0.01290
G1 X118.955 Y105.928 E0.01602
G1 X118.901 Y105.452 E0.01503
G1 X118.886 Y104.950 E0.01575
G1 X118.902 Y104.530 E0.01317
G1 X118.953 Y104.088 E0.01397
G1 X119.042 Y103.619 E0.01495
G1 X119.180 Y103.124 E0.01610
G1 X119.333 Y102.701 E0.01413
G1 X119.502 Y102.324 E0.01295
G1 X119.743 Y101.875 E0.01596
G1 X120.004 Y101.472 E0.01505
G1 X120.460 Y100.908 E0.02272
G1 X120.741 Y101.159 F7200.000
G1 F1500
G1 X121.171 Y100.726 E0.01912
G1 X121.539 Y100.423 E0.01496
G1 X121.892 Y100.176 E0.01352
G1 X122.234 Y99.972 E0.01248
G1 X122.656 Y99.762 E0.01478
G1 X123.065 Y99.597 E0.01383
G1 X123.512 Y99.459 E0.01467
G1 X123.903 Y99.367 E0.01258
G1 X124.327 Y99.301 E0.01348
G1 X124.765 Y99.266 E0.01378
G1 X125.235 Y99.266 E0.01471
G1 X125.673 Y99.301 E0.01378
G1 X126.097 Y99.367 E0.01348
G1 X126.485 Y99.458 E0.01250
G1 X126.941 Y99.600 E0.01495
G1 X127.376 Y99.777 E0.01475
G1 X127.734 Y99.954 E0.01250
G1 X128.104 Y100.174 E0.01350
G1 X128.491 Y100.446 E0.01484
G1 X128.829 Y100.726 E0.01377
G1 X129.139 Y101.025 E0.01348
G1 X129.404 Y101.323 E0.01252
G1 X129.691 Y101.695 E0.01473
G1 X129.931 Y102.065 E0.01383
G1 X130.155 Y102.480 E0.01477
G1 X130.318 Y102.843 E0.01248
G1 X130.464 Y103.248 E0.01352
G1 X130.590 Y103.704 E0.01482
G1 X130.673 Y104.136 E0.01379
G1 X130.722 Y104.563 E0.01346
G1 X130.737 Y104.962 E0.01252
G1 X130.722 Y105.437 E0.01492
G1 X130.666 Y105.905 E0.01477
G1 X130.590 Y106.296 E0.01249
G1 X130.477 Y106.712 E0.01351
G1 X130.318 Y107.157 E0.01482
