; generated by Slic3r 1.2.9 on 2016-10-17 at 18:37:31

; external perimeters extrusion width = 0.40mm
; perimeters extrusion width = 0.35mm
; infill extrusion width = 0.40mm
; solid infill extrusion width = 0.40mm
; top infill extrusion width = 0.40mm

M107
M190 S65 ; set bed temperature
M104 S205 ; set temperature


M109 S205 ; wait for temperature to be reached
G21 ; set units to millimeters
G90 ; use absolute coordinates
M82 ; use absolute distances for extrusion
G92 E0
G1 Z0.100 F13200.000
G1 E-4.00000 F900.00000
G92 E0
G1 Z1.100 F13200.000
G1 X66.345 Y96.511 F13200.000
G1 Z0.100 F13200.000
G1 E4.00000 F900.00000
M204 S4000
G1 X68.601 Y95.385 E4.04493 F2100.000
G1 X71.000 Y95.017 E4.08817
G1 X143.000 Y95.017 E5.37096
G1 X145.490 Y95.414 E5.41589
G1 X147.733 Y96.567 E5.46082 F2100.000
G1 X149.506 Y98.361 E5.50575
G1 X150.631 Y100.618 E5.55068
G1 X151.000 Y103.016 E5.59392
G1 X151.000 Y125.016 E5.98589
G1 X150.956 Y125.845 E6.00067
G1 X150.825 Y127.100 E6.02315
G1 X150.477 Y128.736 E6.05295
G1 X150.089 Y129.929 E6.07530
G1 X149.409 Y131.457 E6.10510
G1 X148.782 Y132.543 E6.12744
G1 X147.803 Y133.891 E6.15712
G1 X146.960 Y134.828 E6.17958
G1 X145.717 Y135.947 E6.20938
G1 X144.702 Y136.684 E6.23173
G1 X143.253 Y137.521 E6.26153
G1 X142.107 Y138.031 E6.28388
G1 X140.517 Y138.547 E6.31367
G1 X139.290 Y138.808 E6.33601
G1 X137.627 Y138.983 E6.36581
G1 X76.373 Y138.983 E7.45716
G1 X74.709 Y138.808 E7.48696
G1 X73.483 Y138.547 E7.50930
G1 X71.894 Y138.031 E7.53907
G1 X70.747 Y137.521 E7.56144
G1 X69.300 Y136.686 E7.59119
G1 X68.283 Y135.947 E7.61359
G1 X67.042 Y134.830 E7.64335
G1 X66.201 Y133.896 E7.66574
G1 X65.218 Y132.543 E7.69553
G1 X64.591 Y131.457 E7.71788
G1 X63.911 Y129.929 E7.74767
G1 X63.523 Y128.736 E7.77002
G1 X63.175 Y127.100 E7.79982
G1 X63.044 Y125.853 E7.82217
G1 X63.000 Y125.016 E7.83708
G1 X63.000 Y103.016 E8.22905
G1 X63.398 Y100.526 E8.27398
G1 X64.551 Y98.283 E8.31891
G1 X66.302 Y96.553 E8.36277
G1 X66.613 Y96.882 F13200.000
G1 X66.759 Y96.745 E8.36635 F2100.000
G1 X68.987 Y95.718 E8.41005
G1 X71.000 Y95.445 E8.44624
G1 X143.000 Y95.445 E9.72904
G1 X145.421 Y95.843 E9.77274
G1 X147.587 Y96.993 E9.81644 F2100.000
G1 X149.272 Y98.776 E9.86015
G1 X150.299 Y101.004 E9.90385
G1 X150.571 Y103.016 E9.94004
G1 X150.571 Y125.016 E10.33200
G1 X150.530 Y125.801 E10.34600
G1 X150.398 Y127.055 E10.36847
G1 X150.069 Y128.604 E10.39667
G1 X149.682 Y129.796 E10.41902
G1 X149.038 Y131.243 E10.44723
G1 X148.411 Y132.329 E10.46957
G1 X147.484 Y133.605 E10.49766
G1 X146.641 Y134.541 E10.52011
G1 X145.465 Y135.600 E10.54832
G1 X144.450 Y136.338 E10.57066
G1 X143.079 Y137.129 E10.59887
G1 X141.933 Y137.639 E10.62122
G1 X140.428 Y138.128 E10.64941
G1 X139.201 Y138.389 E10.67176
G1 X137.627 Y138.555 E10.69996
G1 X76.373 Y138.555 E11.79130
G1 X74.799 Y138.389 E11.81951
G1 X73.572 Y138.128 E11.84185
G1 X72.068 Y137.640 E11.87002
G1 X70.921 Y137.129 E11.89239
G1 X69.552 Y136.339 E11.92055
G1 X68.535 Y135.600 E11.94295
G1 X67.360 Y134.543 E11.97111
G1 X66.519 Y133.609 E11.99350
G1 X65.589 Y132.329 E12.02169
G1 X64.962 Y131.242 E12.04404
G1 X64.318 Y129.796 E12.07224
G1 X63.931 Y128.604 E12.09459
G1 X63.602 Y127.055 E12.12279
G1 X63.470 Y125.808 E12.14514
G1 X63.429 Y125.016 E12.15926
G1 X63.429 Y103.016 E12.55122
G1 X63.826 Y100.596 E12.59493
G1 X64.977 Y98.429 E12.63863
G1 X66.570 Y96.924 E12.67769
G1 X66.871 Y97.258 F13200.000
G1 X67.172 Y96.986 E12.68491 F2100.000
G1 X69.368 Y96.063 E12.72735
G1 X71.000 Y95.874 E12.75663
G1 X143.000 Y95.874 E14.03942
G1 X145.349 Y96.271 E14.08186
G1 X147.436 Y97.419 E14.12430 F2100.000
G1 X149.030 Y99.189 E14.16674
G1 X149.954 Y101.384 E14.20918
G1 X150.142 Y103.016 E14.23845
G1 X150.142 Y125.016 E14.63042
G1 X150.104 Y125.757 E14.64362
G1 X149.972 Y127.010 E14.66608
G1 X149.662 Y128.471 E14.69269
G1 X149.274 Y129.664 E14.71504
G1 X148.666 Y131.029 E14.74166
G1 X148.040 Y132.115 E14.76399
G1 X147.166 Y133.318 E14.79049
G1 X146.323 Y134.254 E14.81294
G1 X145.213 Y135.254 E14.83954
G1 X144.198 Y135.991 E14.86189
G1 X142.905 Y136.738 E14.88850
G1 X141.759 Y137.248 E14.91085
G1 X140.339 Y137.709 E14.93745
G1 X139.112 Y137.970 E14.95979
G1 X137.627 Y138.126 E14.98640
G1 X76.373 Y138.126 E16.07774
G1 X74.888 Y137.970 E16.10435
G1 X73.661 Y137.709 E16.12670
G1 X72.242 Y137.248 E16.15327
G1 X71.095 Y136.738 E16.17564
G1 X69.804 Y135.992 E16.20221
G1 X68.787 Y135.254 E16.22460
G1 X67.678 Y134.256 E16.25117
G1 X66.838 Y133.322 E16.27356
G1 X65.960 Y132.114 E16.30015
G1 X65.333 Y131.028 E16.32250
G1 X64.726 Y129.664 E16.34911
G1 X64.338 Y128.471 E16.37145
G1 X64.028 Y127.010 E16.39806
G1 X63.897 Y125.763 E16.42041
G1 X63.858 Y125.016 E16.43373
G1 X63.858 Y103.016 E16.82569
G1 X64.255 Y100.668 E16.86813
G1 X65.402 Y98.580 E16.91057
G1 X66.826 Y97.298 E16.94471
G1 X67.115 Y97.636 F13200.000
G1 X67.583 Y97.237 E16.95567 F2100.000
G1 X69.743 Y96.421 E16.99681
G1 X71.000 Y96.303 E17.01930
G1 X143.000 Y96.303 E18.30210
G1 X145.275 Y96.700 E18.34324
G1 X147.280 Y97.844 E18.38437 F2100.000
G1 X148.779 Y99.600 E18.42551
G1 X149.595 Y101.760 E18.46665
G1 X149.714 Y103.016 E18.48914
G1 X149.714 Y125.016 E18.88111
G1 X149.678 Y125.712 E18.89352
G1 X149.546 Y126.966 E18.91598
G1 X149.254 Y128.339 E18.94099
G1 X148.867 Y129.532 E18.96333
G1 X148.295 Y130.816 E18.98838
G1 X147.668 Y131.900 E19.01069
G1 X146.847 Y133.032 E19.03560
G1 X146.004 Y133.968 E19.05804
G1 X144.961 Y134.907 E19.08305
G1 X143.946 Y135.644 E19.10540
G1 X142.730 Y136.346 E19.13042
G1 X141.584 Y136.856 E19.15276
G1 X140.250 Y137.290 E19.17776
G1 X139.023 Y137.551 E19.20011
G1 X137.627 Y137.697 E19.22512
G1 X76.373 Y137.697 E20.31646
G1 X74.977 Y137.551 E20.34147
G1 X73.750 Y137.290 E20.36382
G1 X72.416 Y136.857 E20.38880
G1 X71.270 Y136.346 E20.41117
G1 X70.056 Y135.646 E20.43614
G1 X69.039 Y134.907 E20.45853
G1 X67.997 Y133.969 E20.48351
G1 X67.156 Y133.035 E20.50589
G1 X66.332 Y131.900 E20.53089
G1 X65.704 Y130.814 E20.55324
G1 X65.133 Y129.532 E20.57825
G1 X64.746 Y128.339 E20.60060
G1 X64.454 Y126.966 E20.62561
G1 X64.323 Y125.718 E20.64795
G1 X64.286 Y125.016 E20.66047
G1 X64.286 Y103.016 E21.05244
G1 X64.683 Y100.742 E21.09358
G1 X65.827 Y98.736 E21.13471
G1 X67.070 Y97.675 E21.16382
G1 X67.345 Y98.018 F13200.000
G1 X67.992 Y97.498 E21.17860 F2100.000
G1 X71.000 Y96.731 E21.23392
G1 X143.000 Y96.731 E22.51671
G1 X145.198 Y97.128 E22.55650
G1 X147.118 Y98.268 E22.59630 F2100.000
G1 X148.519 Y100.008 E22.63609
G1 X149.285 Y103.016 E22.69140
G1 X149.285 Y125.016 E23.08337
G1 X149.252 Y125.668 E23.09499
G1 X149.120 Y126.921 E23.11744
G1 X148.847 Y128.206 E23.14085
G1 X148.459 Y129.399 E23.16319
G1 X147.923 Y130.602 E23.18665
G1 X147.297 Y131.686 E23.20896
G1 X146.528 Y132.745 E23.23228
G1 X145.686 Y133.681 E23.25471
G1 X144.709 Y134.560 E23.27813
G1 X143.694 Y135.298 E23.30047
G1 X142.556 Y135.955 E23.32389
G1 X141.410 Y136.465 E23.34624
G1 X140.161 Y136.871 E23.36964
G1 X138.934 Y137.132 E23.39199
G1 X137.627 Y137.269 E23.41540
G1 X76.373 Y137.269 E24.50675
G1 X75.066 Y137.132 E24.53016
G1 X73.839 Y136.871 E24.55251
G1 X72.591 Y136.465 E24.57590
G1 X71.444 Y135.955 E24.59826
G1 X70.307 Y135.299 E24.62164
G1 X69.291 Y134.560 E24.64403
G1 X68.315 Y133.682 E24.66741
G1 X67.475 Y132.749 E24.68979
G1 X66.703 Y131.686 E24.71320
G1 X66.075 Y130.600 E24.73554
G1 X65.541 Y129.399 E24.75896
G1 X65.153 Y128.206 E24.78130
G1 X64.880 Y126.921 E24.80472
G1 X64.749 Y125.673 E24.82707
G1 X64.715 Y125.016 E24.83879
G1 X64.715 Y103.016 E25.23075
G1 X65.111 Y100.819 E25.27054
G1 X66.252 Y98.898 E25.31034
G1 X67.299 Y98.056 E25.33428
G1 X67.559 Y98.401 F13200.000
G1 X68.397 Y97.770 E25.35298 F2100.000
G1 X71.000 Y97.160 E25.40061
G1 X143.000 Y97.160 E26.68340
G1 X145.119 Y97.556 E26.72180
G1 X146.950 Y98.692 E26.76020 F2100.000
G1 X148.247 Y100.414 E26.79861
G1 X148.857 Y103.016 E26.84623
G1 X148.857 Y125.016 E27.23820
G1 X148.825 Y125.623 E27.24902
G1 X148.694 Y126.876 E27.27147
G1 X148.439 Y128.074 E27.29328
G1 X148.052 Y129.267 E27.31563
G1 X147.553 Y130.386 E27.33747
G1 X146.926 Y131.472 E27.35980
G1 X146.210 Y132.459 E27.38153
G1 X145.367 Y133.394 E27.40395
G1 X144.457 Y134.214 E27.42577
G1 X143.443 Y134.951 E27.44812
G1 X142.382 Y135.563 E27.46994
G1 X141.236 Y136.073 E27.49229
G1 X140.072 Y136.452 E27.51410
G1 X138.845 Y136.712 E27.53644
G1 X137.627 Y136.840 E27.55826
G1 X76.373 Y136.840 E28.64961
G1 X75.155 Y136.712 E28.67142
G1 X73.928 Y136.452 E28.69377
G1 X72.765 Y136.074 E28.71556
G1 X71.618 Y135.563 E28.73793
G1 X70.559 Y134.952 E28.75971
G1 X69.543 Y134.214 E28.78210
G1 X68.634 Y133.395 E28.80389
G1 X67.793 Y132.462 E28.82626
G1 X67.074 Y131.472 E28.84807
G1 X66.447 Y130.385 E28.87042
G1 X65.949 Y129.267 E28.89224
G1 X65.561 Y128.074 E28.91458
G1 X65.306 Y126.876 E28.93640
G1 X65.175 Y125.629 E28.95875
G1 X65.143 Y125.016 E28.96967
G1 X65.143 Y103.016 E29.36164
G1 X65.540 Y100.898 E29.40004
G1 X66.676 Y99.066 E29.43844
G1 X67.511 Y98.437 E29.45707
G1 X67.754 Y98.785 F13200.000
G1 X68.800 Y98.054 E29.47980 F2100.000
G1 X71.000 Y97.588 E29.51987
G1 X143.000 Y97.588 E30.80267
G1 X145.036 Y97.984 E30.83962
G1 X146.775 Y99.116 E30.87658 F2100.000
G1 X147.962 Y100.816 E30.91354
G1 X148.428 Y103.016 E30.95361
G1 X148.428 Y125.016 E31.34557
G1 X148.399 Y125.579 E31.35561
G1 X148.267 Y126.831 E31.37805
G1 X148.032 Y127.941 E31.39826
G1 X147.644 Y129.134 E31.42061
G1 X147.183 Y130.170 E31.44081
G1 X146.555 Y131.257 E31.46318
G1 X145.891 Y132.172 E31.48332
G1 X145.049 Y133.107 E31.50574
G1 X144.206 Y133.867 E31.52597
G1 X143.191 Y134.604 E31.54831
G1 X142.208 Y135.172 E31.56854
G1 X141.062 Y135.682 E31.59089
G1 X139.983 Y136.032 E31.61110
G1 X138.756 Y136.293 E31.63345
G1 X137.627 Y136.412 E31.65367
G1 X76.373 Y136.412 E32.74501
G1 X75.244 Y136.293 E32.76523
G1 X74.017 Y136.032 E32.78758
G1 X72.939 Y135.682 E32.80778
G1 X71.792 Y135.172 E32.83014
G1 X70.811 Y134.605 E32.85033
G1 X69.794 Y133.867 E32.87271
G1 X68.952 Y133.109 E32.89291
G1 X68.112 Y132.175 E32.91528
G1 X67.445 Y131.257 E32.93550
G1 X66.818 Y130.171 E32.95785
G1 X66.356 Y129.134 E32.97807
G1 X65.968 Y127.941 E33.00041
G1 X65.733 Y126.831 E33.02063
G1 X65.601 Y125.584 E33.04298
G1 X65.572 Y125.016 E33.05310
G1 X65.572 Y103.016 E33.44507
G1 X65.968 Y100.980 E33.48203
G1 X67.099 Y99.242 E33.51898
G1 X67.704 Y98.819 E33.53213
G1 X67.926 Y99.166 F13200.000
G1 X69.198 Y98.353 E33.55903 F2100.000
G1 X71.000 Y98.017 E33.59169
G1 X143.000 Y98.017 E34.87448
G1 X144.950 Y98.413 E34.90994
G1 X146.591 Y99.538 E34.94539 F2100.000
G1 X147.664 Y101.214 E34.98085
G1 X148.000 Y103.016 E35.01351
G1 X148.000 Y125.016 E35.40547
G1 X147.973 Y125.535 E35.41472
G1 X147.841 Y126.787 E35.43715
G1 X147.624 Y127.809 E35.45577
G1 X147.236 Y129.002 E35.47812
G1 X146.811 Y129.958 E35.49676
G1 X146.184 Y131.043 E35.51909
G1 X145.572 Y131.886 E35.53764
G1 X144.730 Y132.821 E35.56006
G1 X143.954 Y133.520 E35.57868
G1 X142.939 Y134.258 E35.60103
G1 X142.033 Y134.780 E35.61966
G1 X140.887 Y135.290 E35.64201
G1 X139.894 Y135.613 E35.66062
G1 X138.667 Y135.874 E35.68297
G1 X137.627 Y135.983 E35.70159
G1 X76.373 Y135.983 E36.79294
G1 X75.333 Y135.874 E36.81156
G1 X74.106 Y135.613 E36.83391
G1 X73.113 Y135.291 E36.85251
G1 X71.967 Y134.780 E36.87487
G1 X71.063 Y134.259 E36.89347
G1 X70.046 Y133.520 E36.91585
G1 X69.270 Y132.822 E36.93445
G1 X68.430 Y131.889 E36.95683
G1 X67.816 Y131.043 E36.97544
G1 X67.189 Y129.957 E36.99779
G1 X66.764 Y129.002 E37.01642
G1 X66.376 Y127.809 E37.03876
G1 X66.159 Y126.786 E37.05739
G1 X66.028 Y125.539 E37.07974
G1 X66.000 Y125.016 E37.08906
G1 X66.000 Y103.016 E37.48102
G1 X66.396 Y101.066 E37.51648
G1 X67.521 Y99.425 E37.55193
G1 X67.876 Y99.198 E37.55943
G1 X68.074 Y99.542 F13200.000
G1 X69.590 Y98.668 E37.59061 F2100.000
G1 X71.000 Y98.445 E37.61604
G1 X143.000 Y98.445 E38.89883
G1 X144.860 Y98.841 E38.93272
G1 X146.398 Y99.959 E38.96660 F2100.000
G1 X147.348 Y101.607 E39.00049
G1 X147.571 Y103.016 E39.02591
G1 X147.571 Y125.016 E39.41788
G1 X147.547 Y125.490 E39.42633
G1 X147.415 Y126.742 E39.44875
G1 X147.216 Y127.677 E39.46578
G1 X146.829 Y128.869 E39.48813
G1 X146.439 Y129.744 E39.50518
G1 X145.813 Y130.829 E39.52750
G1 X145.254 Y131.599 E39.54446
G1 X144.412 Y132.534 E39.56687
G1 X143.702 Y133.174 E39.58390
G1 X142.687 Y133.911 E39.60625
G1 X141.859 Y134.389 E39.62328
G1 X140.713 Y134.899 E39.64563
G1 X139.805 Y135.194 E39.66265
G1 X138.578 Y135.455 E39.68500
G1 X137.627 Y135.555 E39.70203
G1 X76.373 Y135.555 E40.79337
G1 X75.422 Y135.455 E40.81040
G1 X74.195 Y135.194 E40.83275
G1 X73.287 Y134.899 E40.84976
G1 X72.141 Y134.389 E40.87211
G1 X71.314 Y133.912 E40.88912
G1 X70.298 Y133.174 E40.91149
G1 X69.589 Y132.535 E40.92850
G1 X68.749 Y131.602 E40.95087
G1 X68.187 Y130.829 E40.96789
G1 X67.560 Y129.743 E40.99024
G1 X67.171 Y128.869 E41.00727
G1 X66.784 Y127.677 E41.02962
G1 X66.585 Y126.742 E41.04665
G1 X66.454 Y125.494 E41.06899
G1 X66.429 Y125.016 E41.07752
G1 X66.429 Y103.016 E41.46948
G1 X66.824 Y101.156 E41.50337
G1 X67.943 Y99.618 E41.53725
G1 X68.022 Y99.572 E41.53888
G1 X68.355 Y99.831 F13200.000
G1 X69.976 Y99.002 E41.57131 F2100.000
G1 X71.000 Y98.874 E41.58970
G1 X143.000 Y98.874 E42.87250
G1 X144.766 Y99.269 E42.90474
G1 X146.195 Y100.379 E42.93698 F2100.000
G1 X147.014 Y101.992 E42.96921
G1 X147.143 Y103.016 E42.98760
G1 X147.143 Y125.016 E43.37957
G1 X147.120 Y125.446 E43.38723
G1 X146.989 Y126.697 E43.40964
G1 X146.809 Y127.544 E43.42507
G1 X146.421 Y128.737 E43.44742
G1 X146.068 Y129.529 E43.46288
G1 X145.442 Y130.615 E43.48520
G1 X144.935 Y131.313 E43.50057
G1 X144.094 Y132.247 E43.52298
G1 X143.450 Y132.827 E43.53841
G1 X142.435 Y133.564 E43.56076
G1 X141.685 Y133.997 E43.57619
G1 X140.539 Y134.507 E43.59854
G1 X139.715 Y134.775 E43.61396
G1 X138.489 Y135.036 E43.63631
G1 X137.627 Y135.126 E43.65174
G1 X76.373 Y135.126 E44.74309
G1 X75.511 Y135.036 E44.75852
G1 X74.285 Y134.775 E44.78087
G1 X73.462 Y134.508 E44.79628
G1 X72.315 Y133.997 E44.81864
G1 X71.566 Y133.565 E44.83405
G1 X70.550 Y132.827 E44.85642
G1 X69.907 Y132.248 E44.87184
G1 X69.067 Y131.315 E44.89421
G1 X68.558 Y130.615 E44.90963
G1 X67.931 Y129.528 E44.93198
G1 X67.579 Y128.737 E44.94741
G1 X67.191 Y127.544 E44.96976
G1 X67.011 Y126.697 E44.98519
G1 X66.880 Y125.449 E45.00754
G1 X66.857 Y125.016 E45.01526
G1 X66.857 Y103.016 E45.40723
G1 X67.252 Y101.251 E45.43947
G1 X68.319 Y99.878 E45.47043
G1 X68.669 Y100.172 F13200.000
G1 X68.780 Y100.038 E45.47353 F2100.000
G1 X71.000 Y99.302 E45.51519
G1 X143.000 Y99.302 E46.79799
G1 X144.666 Y99.697 E46.82849
G1 X145.978 Y100.797 E46.85900 F2100.000
G1 X146.714 Y103.016 E46.90066
G1 X146.714 Y125.016 E47.29263
G1 X146.694 Y125.401 E47.29949
G1 X146.563 Y126.652 E47.32190
G1 X146.401 Y127.412 E47.33574
G1 X146.014 Y128.605 E47.35808
G1 X145.698 Y129.313 E47.37190
G1 X145.071 Y130.400 E47.39427
G1 X144.616 Y131.026 E47.40805
G1 X143.775 Y131.961 E47.43045
G1 X143.198 Y132.480 E47.44428
G1 X142.183 Y133.217 E47.46663
G1 X141.510 Y133.606 E47.48047
G1 X140.365 Y134.116 E47.50282
G1 X139.626 Y134.356 E47.51665
G1 X138.399 Y134.617 E47.53899
G1 X137.627 Y134.698 E47.55283
G1 X76.373 Y134.698 E48.64417
G1 X75.601 Y134.617 E48.65801
G1 X74.374 Y134.356 E48.68036
G1 X73.636 Y134.116 E48.69418
G1 X72.490 Y133.606 E48.71653
G1 X71.818 Y133.218 E48.73035
G1 X70.802 Y132.480 E48.75272
G1 X70.226 Y131.961 E48.76654
G1 X69.386 Y131.028 E48.78891
G1 X68.929 Y130.400 E48.80274
G1 X68.302 Y129.314 E48.82508
G1 X67.986 Y128.605 E48.83892
G1 X67.599 Y127.412 E48.86127
G1 X67.437 Y126.652 E48.87510
G1 X67.306 Y125.405 E48.89745
G1 X67.286 Y125.016 E48.90438
G1 X67.286 Y103.016 E49.29634
G1 X67.680 Y101.350 E49.32685
G1 X68.630 Y100.218 E49.35318
G1 X68.964 Y100.524 F13200.000
G1 X69.196 Y100.271 E49.35929 F2100.000
G1 X71.000 Y99.731 E49.39285
G1 X143.000 Y99.731 E50.67565
G1 X144.560 Y100.125 E50.70431
G1 X145.746 Y101.212 E50.73298 F2100.000
G1 X146.286 Y103.016 E50.76653
G1 X146.286 Y125.016 E51.15850
G1 X146.268 Y125.357 E51.16457
G1 X146.137 Y126.607 E51.18697
G1 X145.994 Y127.279 E51.19921
G1 X145.606 Y128.472 E51.22156
G1 X145.326 Y129.101 E51.23383
