; generated by Slic3r 1.2.9 on 2016-10-23 at 16:31:52

; external perimeters extrusion width = 0.40mm
; perimeters extrusion width = 0.48mm
; infill extrusion width = 0.48mm
; solid infill extrusion width = 0.48mm
; top infill extrusion width = 0.48mm

M107
M190 S60 ; set bed temperature
M104 S200 ; set temperature


M109 S200 ; wait for temperature to be reached
G21 ; set units to millimeters
G90 ; use absolute coordinates
M82 ; use absolute distances for extrusion
G92 E0
G1 E-4.00000 F840.00000
G92 E0
G1 Z0.500 F7800.000
G1 X67.838 Y81.552 F7800.000
G1 Z0.150 F7800.000
G1 E4.50000 F840.00000
G1 X69.493 Y80.571 E4.53214 F1800.000
G1 X71.000 Y80.322 E4.55765
G1 X143.000 Y80.322 E5.76014
G1 X144.883 Y80.718 E5.79228
G1 X146.448 Y81.838 E5.82442 F1800.000
G1 X147.429 Y83.493 E5.85655
G1 X147.678 Y85.000 E5.88206
G1 X147.676 Y107.126 E6.25160
G1 X146.676 Y144.126 E6.86978
G1 X146.638 Y144.611 E6.87789
G1 X146.468 Y145.905 E6.89969
G1 X146.152 Y147.084 E6.92008
G1 X145.652 Y148.290 E6.94189
G1 X145.034 Y149.357 E6.96248
G1 X144.247 Y150.383 E6.98408
G1 X143.384 Y151.247 E7.00447
G1 X142.348 Y152.041 E7.02628
G1 X141.291 Y152.652 E7.04666
G1 X140.084 Y153.152 E7.06847
G1 X138.905 Y153.468 E7.08887
G1 X137.611 Y153.638 E7.11067
G1 X137.000 Y153.678 E7.12089
G1 X77.000 Y153.678 E8.12297
G1 X76.390 Y153.638 E8.13319
G1 X75.095 Y153.468 E8.15499
G1 X73.916 Y153.152 E8.17539
G1 X72.710 Y152.652 E8.19719
G1 X71.643 Y152.034 E8.21778
G1 X70.617 Y151.247 E8.23938
G1 X69.753 Y150.383 E8.25977
G1 X68.959 Y149.348 E8.28157
G1 X68.348 Y148.290 E8.30197
G1 X67.848 Y147.084 E8.32377
G1 X67.532 Y145.905 E8.34416
G1 X67.362 Y144.611 E8.36597
G1 X67.324 Y144.126 E8.37408
G1 X66.324 Y107.126 E8.99225
G1 X66.322 Y85.000 E9.36180
G1 X66.718 Y83.117 E9.39393
G1 X67.803 Y81.601 E9.42507
G1 X68.066 Y81.723 F7800.000
G1 X68.101 Y81.677 E9.42602 F1800.000
G1 X69.736 Y80.775 E9.45722
G1 X71.000 Y80.590 E9.47855
G1 X143.000 Y80.590 E10.68105
G1 X144.825 Y80.985 E10.71224
G1 X146.323 Y82.101 E10.74343 F1800.000
G1 X147.225 Y83.736 E10.77463
G1 X147.410 Y85.000 E10.79596
G1 X147.409 Y107.119 E11.16538
G1 X146.409 Y144.119 E11.78356
G1 X146.373 Y144.576 E11.79120
G1 X146.202 Y145.870 E11.81300
G1 X145.904 Y146.981 E11.83223
G1 X145.405 Y148.188 E11.85403
G1 X144.822 Y149.195 E11.87346
G1 X144.034 Y150.220 E11.89506
G1 X143.221 Y151.034 E11.91428
G1 X142.185 Y151.829 E11.93608
G1 X141.188 Y152.404 E11.95530
G1 X139.982 Y152.904 E11.97711
G1 X138.870 Y153.202 E11.99634
G1 X137.576 Y153.373 E12.01814
G1 X137.000 Y153.410 E12.02778
G1 X77.000 Y153.410 E13.02986
G1 X76.424 Y153.373 E13.03949
G1 X75.130 Y153.202 E13.06129
G1 X74.018 Y152.904 E13.08052
G1 X72.812 Y152.405 E13.10232
G1 X71.805 Y151.822 E13.12175
G1 X70.780 Y151.034 E13.14335
G1 X69.966 Y150.220 E13.16257
G1 X69.171 Y149.185 E13.18437
G1 X68.595 Y148.188 E13.20360
G1 X68.096 Y146.982 E13.22540
G1 X67.798 Y145.870 E13.24463
G1 X67.627 Y144.576 E13.26643
G1 X67.591 Y144.119 E13.27408
G1 X66.591 Y107.119 E13.89226
G1 X66.590 Y85.000 E14.26167
G1 X66.985 Y83.175 E14.29287
G1 X68.031 Y81.771 E14.32210
G1 X68.291 Y81.897 F7800.000
G1 X68.363 Y81.805 E14.32405 F1800.000
G1 X69.976 Y80.986 E14.35427
G1 X71.000 Y80.858 E14.37150
G1 X143.000 Y80.858 E15.57400
G1 X144.766 Y81.253 E15.60422
G1 X146.195 Y82.363 E15.63444 F1800.000
G1 X147.014 Y83.976 E15.66466
G1 X147.142 Y85.000 E15.68189
G1 X147.141 Y107.112 E16.05119
G1 X146.141 Y144.112 E16.66937
G1 X146.107 Y144.541 E16.67655
G1 X145.937 Y145.835 E16.69835
G1 X145.657 Y146.879 E16.71641
G1 X145.157 Y148.085 E16.73821
G1 X144.609 Y149.031 E16.75647
G1 X143.822 Y150.057 E16.77807
G1 X143.058 Y150.822 E16.79612
G1 X142.022 Y151.616 E16.81793
G1 X141.086 Y152.157 E16.83598
G1 X139.879 Y152.657 E16.85779
G1 X138.835 Y152.937 E16.87585
G1 X137.541 Y153.107 E16.89765
G1 X137.000 Y153.142 E16.90670
G1 X77.000 Y153.142 E17.90878
G1 X76.459 Y153.107 E17.91783
G1 X75.165 Y152.937 E17.93963
G1 X74.121 Y152.657 E17.95769
G1 X72.915 Y152.157 E17.97949
G1 X71.978 Y151.617 E17.99755
G1 X70.943 Y150.822 E18.01935
G1 X70.178 Y150.057 E18.03741
G1 X69.384 Y149.022 E18.05921
G1 X68.843 Y148.085 E18.07727
G1 X68.343 Y146.879 E18.09907
G1 X68.063 Y145.835 E18.11713
G1 X67.893 Y144.541 E18.13893
G1 X67.859 Y144.112 E18.14612
G1 X66.859 Y107.112 E18.76429
G1 X66.858 Y85.000 E19.13359
G1 X67.253 Y83.234 E19.16381
G1 X68.255 Y81.945 E19.19108
G1 X68.512 Y82.077 F7800.000
G1 X68.624 Y81.939 E19.19405 F1800.000
G1 X71.000 Y81.125 E19.23599
G1 X143.000 Y81.125 E20.43849
G1 X144.704 Y81.520 E20.46771
G1 X146.061 Y82.624 E20.49692 F1800.000
G1 X146.875 Y85.000 E20.53886
G1 X146.873 Y107.105 E20.90804
G1 X145.873 Y144.105 E21.52622
G1 X145.842 Y144.506 E21.53294
G1 X145.671 Y145.800 E21.55474
G1 X145.409 Y146.777 E21.57162
G1 X144.910 Y147.983 E21.59343
G1 X144.397 Y148.869 E21.61053
G1 X143.609 Y149.894 E21.63212
G1 X142.895 Y150.609 E21.64901
G1 X141.859 Y151.404 E21.67081
G1 X140.983 Y151.910 E21.68770
G1 X139.777 Y152.409 E21.70950
G1 X138.800 Y152.671 E21.72640
G1 X137.506 Y152.842 E21.74820
G1 X137.000 Y152.875 E21.75666
G1 X77.000 Y152.875 E22.75874
G1 X76.494 Y152.842 E22.76721
G1 X75.200 Y152.671 E22.78901
G1 X74.223 Y152.409 E22.80590
G1 X73.017 Y151.910 E22.82770
G1 X72.132 Y151.397 E22.84479
G1 X71.106 Y150.609 E22.86639
G1 X70.391 Y149.894 E22.88328
G1 X69.596 Y148.859 E22.90508
G1 X69.090 Y147.983 E22.92198
G1 X68.591 Y146.777 E22.94378
G1 X68.329 Y145.800 E22.96067
G1 X68.158 Y144.506 E22.98247
G1 X68.127 Y144.105 E22.98919
G1 X67.127 Y107.105 E23.60736
G1 X67.125 Y85.000 E23.97654
G1 X67.520 Y83.296 E24.00576
G1 X68.474 Y82.124 E24.03100
G1 X68.728 Y82.262 F7800.000
G1 X68.885 Y82.079 E24.03503 F1800.000
G1 X71.000 Y81.393 E24.07217
G1 X143.000 Y81.393 E25.27466
G1 X144.640 Y81.788 E25.30284
G1 X145.921 Y82.885 E25.33101 F1800.000
G1 X146.607 Y85.000 E25.36815
G1 X146.606 Y107.097 E25.73720
G1 X145.606 Y144.097 E26.35538
G1 X145.576 Y144.471 E26.36163
G1 X145.406 Y145.765 E26.38343
G1 X145.162 Y146.674 E26.39915
G1 X144.662 Y147.880 E26.42096
G1 X144.184 Y148.705 E26.43688
G1 X143.397 Y149.731 E26.45848
G1 X142.732 Y150.397 E26.47420
G1 X141.696 Y151.192 E26.49601
G1 X140.881 Y151.662 E26.51172
G1 X139.674 Y152.162 E26.53353
G1 X138.765 Y152.406 E26.54926
G1 X137.471 Y152.576 E26.57106
G1 X137.000 Y152.607 E26.57894
G1 X77.000 Y152.607 E27.58102
G1 X76.529 Y152.576 E27.58890
G1 X75.235 Y152.406 E27.61070
G1 X74.326 Y152.162 E27.62642
G1 X73.120 Y151.662 E27.64822
G1 X72.295 Y151.184 E27.66415
G1 X71.269 Y150.397 E27.68575
G1 X70.603 Y149.731 E27.70147
G1 X69.808 Y148.696 E27.72327
G1 X69.338 Y147.880 E27.73900
G1 X68.838 Y146.674 E27.76080
G1 X68.594 Y145.765 E27.77652
G1 X68.424 Y144.471 E27.79832
G1 X68.394 Y144.097 E27.80458
G1 X67.394 Y107.097 E28.42275
G1 X67.393 Y85.000 E28.79181
G1 X67.788 Y83.360 E28.81998
G1 X68.689 Y82.307 E28.84312
G1 X68.938 Y82.452 F7800.000
G1 X69.144 Y82.224 E28.84826 F1800.000
G1 X71.000 Y81.661 E28.88065
G1 X143.000 Y81.661 E30.08315
G1 X144.574 Y82.055 E30.11024
G1 X145.776 Y83.144 E30.13733 F1800.000
G1 X146.339 Y85.000 E30.16972
G1 X146.338 Y107.090 E30.53866
G1 X145.338 Y144.090 E31.15684
G1 X145.310 Y144.436 E31.16263
G1 X145.140 Y145.730 E31.18443
G1 X144.915 Y146.572 E31.19898
G1 X144.415 Y147.778 E31.22078
G1 X143.972 Y148.542 E31.23555
G1 X143.184 Y149.568 E31.25714
G1 X142.568 Y150.184 E31.27169
G1 X141.533 Y150.979 E31.29350
G1 X140.778 Y151.415 E31.30805
G1 X139.572 Y151.914 E31.32985
G1 X138.730 Y152.140 E31.34441
G1 X137.436 Y152.310 E31.36621
G1 X137.000 Y152.339 E31.37351
G1 X77.000 Y152.339 E32.37559
G1 X76.564 Y152.310 E32.38288
G1 X75.270 Y152.140 E32.40468
G1 X74.428 Y151.914 E32.41924
G1 X73.222 Y151.415 E32.44104
G1 X72.467 Y150.979 E32.45559
G1 X71.432 Y150.185 E32.47740
G1 X70.815 Y149.568 E32.49195
G1 X70.021 Y148.533 E32.51375
G1 X69.585 Y147.778 E32.52831
G1 X69.086 Y146.572 E32.55011
G1 X68.860 Y145.730 E32.56467
G1 X68.690 Y144.436 E32.58647
G1 X68.662 Y144.090 E32.59226
G1 X67.662 Y107.090 E33.21044
G1 X67.661 Y85.000 E33.57937
G1 X68.055 Y83.426 E33.60646
G1 X68.897 Y82.496 E33.62742
G1 X69.141 Y82.648 F7800.000
G1 X69.402 Y82.377 E33.63370 F1800.000
G1 X71.000 Y81.929 E33.66142
G1 X143.000 Y81.929 E34.86392
G1 X144.504 Y82.322 E34.88989
G1 X145.623 Y83.402 E34.91585 F1800.000
G1 X146.071 Y85.000 E34.94357
G1 X146.070 Y107.083 E35.31239
G1 X145.070 Y144.083 E35.93057
G1 X145.045 Y144.401 E35.93589
G1 X144.875 Y145.695 E35.95769
G1 X144.667 Y146.469 E35.97108
G1 X144.168 Y147.675 E35.99288
G1 X143.759 Y148.379 E36.00647
G1 X142.972 Y149.405 E36.02807
G1 X142.405 Y149.972 E36.04145
G1 X141.370 Y150.767 E36.06326
G1 X140.676 Y151.167 E36.07664
G1 X139.469 Y151.667 E36.09845
G1 X138.695 Y151.875 E36.11184
G1 X137.401 Y152.045 E36.13364
G1 X137.000 Y152.071 E36.14035
G1 X77.000 Y152.071 E37.14243
G1 X76.599 Y152.045 E37.14914
G1 X75.305 Y151.875 E37.17094
G1 X74.531 Y151.667 E37.18433
G1 X73.325 Y151.168 E37.20613
G1 X72.621 Y150.759 E37.21972
G1 X71.595 Y149.972 E37.24132
G1 X71.028 Y149.405 E37.25471
G1 X70.233 Y148.370 E37.27651
G1 X69.832 Y147.675 E37.28990
G1 X69.333 Y146.469 E37.31170
G1 X69.125 Y145.695 E37.32508
G1 X68.955 Y144.401 E37.34689
G1 X68.930 Y144.083 E37.35221
G1 X67.930 Y107.083 E37.97039
G1 X67.929 Y85.000 E38.33920
G1 X68.322 Y83.496 E38.36517
G1 X69.099 Y82.691 E38.38385
G1 X69.335 Y82.850 F7800.000
G1 X69.658 Y82.539 E38.39134 F1800.000
G1 X71.000 Y82.197 E38.41447
G1 X143.000 Y82.197 E39.61696
G1 X144.431 Y82.589 E39.64175
G1 X145.461 Y83.658 E39.66654 F1800.000
G1 X145.803 Y85.000 E39.68967
G1 X145.802 Y107.076 E40.05837
G1 X144.802 Y144.076 E40.67654
G1 X144.779 Y144.366 E40.68140
G1 X144.609 Y145.660 E40.70320
G1 X144.420 Y146.367 E40.71542
G1 X143.920 Y147.573 E40.73722
G1 X143.547 Y148.216 E40.74965
G1 X142.760 Y149.242 E40.77125
G1 X142.242 Y149.759 E40.78346
G1 X141.207 Y150.554 E40.80527
G1 X140.573 Y150.920 E40.81748
G1 X139.367 Y151.420 E40.83929
G1 X138.660 Y151.609 E40.85151
G1 X137.366 Y151.779 E40.87331
G1 X137.000 Y151.803 E40.87944
G1 X77.000 Y151.803 E41.88152
G1 X76.634 Y151.779 E41.88764
G1 X75.340 Y151.609 E41.90944
G1 X74.633 Y151.420 E41.92166
G1 X73.427 Y150.920 E41.94346
G1 X72.794 Y150.554 E41.95568
G1 X71.758 Y149.760 E41.97749
G1 X71.240 Y149.242 E41.98971
G1 X70.446 Y148.207 E42.01151
G1 X70.080 Y147.573 E42.02373
G1 X69.580 Y146.367 E42.04553
G1 X69.391 Y145.660 E42.05775
G1 X69.198 Y144.076 E42.08441
G1 X68.198 Y107.076 E42.70259
G1 X68.197 Y85.000 E43.07128
G1 X68.589 Y83.569 E43.09607
G1 X69.292 Y82.891 E43.11237
G1 X69.520 Y83.057 F7800.000
G1 X69.912 Y82.710 E43.12112 F1800.000
G1 X71.000 Y82.464 E43.13975
G1 X143.000 Y82.464 E44.34225
G1 X144.355 Y82.856 E44.36580
G1 X145.290 Y83.912 E44.38935 F1800.000
G1 X145.536 Y85.000 E44.40799
G1 X145.535 Y107.069 E44.77656
G1 X144.535 Y144.069 E45.39474
G1 X144.514 Y144.331 E45.39914
G1 X144.344 Y145.625 E45.42094
G1 X144.172 Y146.264 E45.43199
G1 X143.673 Y147.470 E45.45379
G1 X143.334 Y148.053 E45.46505
G1 X142.547 Y149.079 E45.48664
G1 X142.079 Y149.547 E45.49769
G1 X141.044 Y150.342 E45.51950
G1 X140.471 Y150.673 E45.53055
G1 X139.264 Y151.172 E45.55235
G1 X138.625 Y151.344 E45.56341
G1 X137.331 Y151.514 E45.58521
G1 X137.000 Y151.536 E45.59075
G1 X77.000 Y151.536 E46.59283
G1 X76.669 Y151.514 E46.59837
G1 X75.375 Y151.344 E46.62017
G1 X74.736 Y151.172 E46.63122
G1 X73.530 Y150.673 E46.65302
G1 X72.957 Y150.342 E46.66407
G1 X71.921 Y149.547 E46.68588
G1 X71.453 Y149.079 E46.69693
G1 X70.658 Y148.044 E46.71873
G1 X70.327 Y147.470 E46.72978
G1 X69.828 Y146.264 E46.75158
G1 X69.656 Y145.625 E46.76264
G1 X69.465 Y144.069 E46.78883
G1 X68.465 Y107.069 E47.40701
G1 X68.464 Y85.000 E47.77558
G1 X68.856 Y83.645 E47.79913
G1 X69.475 Y83.097 E47.81293
G1 X69.691 Y83.271 F7800.000
G1 X70.162 Y82.893 E47.82302 F1800.000
G1 X71.000 Y82.732 E47.83727
G1 X143.000 Y82.732 E49.03977
G1 X144.273 Y83.123 E49.06201
G1 X145.107 Y84.162 E49.08426 F1800.000
G1 X145.268 Y85.000 E49.09851
G1 X145.268 Y107.000 E49.46594
G1 X144.248 Y144.296 E50.08907
G1 X144.078 Y145.590 E50.11087
G1 X143.925 Y146.162 E50.12075
G1 X143.425 Y147.368 E50.14256
G1 X143.122 Y147.890 E50.15265
G1 X142.335 Y148.916 E50.17424
G1 X141.916 Y149.335 E50.18412
G1 X140.881 Y150.129 E50.20593
G1 X140.368 Y150.425 E50.21581
G1 X139.162 Y150.925 E50.23761
G1 X138.590 Y151.078 E50.24750
G1 X137.296 Y151.248 E50.26930
G1 X137.000 Y151.268 E50.27426
G1 X77.000 Y151.268 E51.27634
G1 X76.704 Y151.248 E51.28129
G1 X75.410 Y151.078 E51.30309
G1 X74.838 Y150.925 E51.31298
G1 X73.632 Y150.425 E51.33478
G1 X73.110 Y150.122 E51.34487
G1 X72.084 Y149.335 E51.36646
G1 X71.665 Y148.916 E51.37635
G1 X70.871 Y147.881 E51.39815
G1 X70.575 Y147.368 E51.40804
G1 X70.075 Y146.162 E51.42984
G1 X69.922 Y145.590 E51.43972
G1 X69.733 Y144.061 E51.46545
G1 X68.732 Y107.000 E52.08465
G1 X68.732 Y85.000 E52.45208
G1 X69.123 Y83.727 E52.47433
G1 X69.644 Y83.308 E52.48548
G1 F6240
G1 X70.162 Y82.893 E52.40056
G1 F6240
G1 X71.000 Y82.732 E52.29144
G1 F6240
G1 X99.197 Y82.732 E48.68548
G1 E48.48548 F840.00000
G92 E0
G1 Z0.650 F7800.000
G1 X84.647 Y108.741 F7800.000
G1 Z0.150 F7800.000
G1 E4.50000 F840.00000
G1 X84.506 Y108.843 E4.50291 F1800.000
G1 X84.109 Y110.065 E4.52437
G1 X84.035 Y110.232 E4.52741
G1 X83.316 Y111.476 E4.55141
G1 X83.208 Y111.624 E4.55447
G1 X82.247 Y112.692 E4.57846
G1 X82.111 Y112.814 E4.58152
G1 X81.299 Y113.404 E4.59828
G1 X81.241 Y113.519 E4.60043
G1 X81.241 Y138.742 E5.02169
G1 X81.296 Y138.854 E5.02377
G1 X81.686 Y139.153 E5.03198
G1 X81.847 Y139.314 E5.03579
G1 X82.781 Y140.531 E5.06140
G1 X82.895 Y140.728 E5.06521
G1 X83.481 Y142.145 E5.09082
G1 X83.541 Y142.365 E5.09463
G1 X83.741 Y143.886 E5.12024
G1 X83.741 Y144.114 E5.12406
G1 X83.541 Y145.635 E5.14967
G1 X83.481 Y145.855 E5.15348
G1 X82.895 Y147.272 E5.17909
G1 X82.781 Y147.469 E5.18290
G1 X81.847 Y148.686 E5.20851
G1 X81.686 Y148.847 E5.21232
G1 X80.469 Y149.781 E5.23793
G1 X80.272 Y149.895 E5.24174
G1 X78.855 Y150.482 E5.26735
G1 X78.634 Y150.541 E5.27117
G1 X77.114 Y150.741 E5.29677
G1 X76.886 Y150.741 E5.30059
G1 X75.365 Y150.541 E5.32620
G1 X75.145 Y150.481 E5.33001
G1 X73.728 Y149.895 E5.35562
G1 X73.531 Y149.781 E5.35943
G1 X72.314 Y148.847 E5.38504
G1 X72.153 Y148.686 E5.38885
G1 X71.219 Y147.469 E5.41446
G1 X71.057 Y147.155 E5.42037
G1 X70.518 Y145.855 E5.44387
G1 X70.459 Y145.635 E5.44768
G1 X70.259 Y144.114 E5.47329
G1 X70.259 Y143.886 E5.47710
G1 X70.459 Y142.365 E5.50272
G1 X70.518 Y142.145 E5.50653
G1 X71.105 Y140.728 E5.53214
G1 X71.219 Y140.531 E5.53595
G1 X72.153 Y139.314 E5.56156
G1 X72.314 Y139.153 E5.56537
G1 X72.704 Y138.854 E5.57357
G1 X72.759 Y138.742 E5.57566
G1 X72.759 Y113.519 E5.99692
G1 X72.701 Y113.404 E5.99907
G1 X71.888 Y112.814 E6.01584
G1 X71.753 Y112.692 E6.01889
G1 X70.791 Y111.624 E6.04289
G1 X70.684 Y111.476 E6.04594
G1 X69.966 Y110.232 E6.06993
G1 X69.892 Y110.066 E6.07297
G1 X69.447 Y108.699 E6.09698
G1 X69.409 Y108.520 E6.10003
G1 X69.259 Y107.046 E6.12478
G1 X69.259 Y84.279 E6.50501
G1 X70.279 Y83.259 E6.52910
G1 X76.721 Y83.259 E6.63669
G1 X76.889 Y83.427 E6.64066
G1 X77.111 Y83.427 E6.64436
G1 X77.279 Y83.259 E6.64833
G1 X83.721 Y83.259 E6.75593
G1 X84.741 Y84.279 E6.78001
G1 X84.741 Y97.902 E7.00753
G1 X84.804 Y98.481 E7.01726
G1 X84.940 Y98.902 E7.02465
G1 X85.173 Y99.310 E7.03250
G1 X85.485 Y99.661 E7.04035
G1 X85.864 Y99.940 E7.04820
G1 X86.292 Y100.134 E7.05605
G1 X86.751 Y100.234 E7.06390
G1 X87.748 Y100.237 E7.08054
G1 X87.801 Y100.259 E7.08150
G1 X126.199 Y100.259 E7.72281
G1 X126.252 Y100.237 E7.72376
G1 X127.221 Y100.237 E7.73994
G1 X127.681 Y100.142 E7.74779
G1 X128.136 Y99.940 E7.75611
G1 X128.515 Y99.661 E7.76396
G1 X128.827 Y99.310 E7.77181
G1 X129.048 Y98.927 E7.77919
G1 X129.196 Y98.481 E7.78704
G1 X129.259 Y97.916 E7.79654
G1 X129.259 Y84.279 E8.02430
G1 X130.279 Y83.259 E8.04838
G1 X136.721 Y83.259 E8.15597
G1 X136.889 Y83.427 E8.15994
G1 X137.111 Y83.427 E8.16365
G1 X137.279 Y83.259 E8.16762
G1 X143.721 Y83.259 E8.27521
G1 X144.741 Y84.279 E8.29929
G1 X144.736 Y107.138 E8.68106
G1 X144.591 Y108.521 E8.70429
